;FLAVOR:Marlin
;TIME:12035
;Filament used: 4.93647m
;Layer height: 0.1
;MINX:49.75
;MINY:26.508
;MINZ:0.3
;MAXX:160.221
;MAXY:87.708
;MAXZ:12.075
;Generated with Cura_SteamEngine 4.12.1
M82 ;absolute extrusion mode
G21                                        ; metric values 
G90                                        ; absolute positioning 
M82                                        ; set extruder to absolute mode 
M107                                       ; start with the fan off 
M140 S50           ; Start heating the bed 
G4 S60                                     ; wait 1 minute 
M104 S210         ; start heating the hot end 
M190 S50           ; wait for bed 
M109 S210         ; wait for hotend 
M300 S1000 P500                            ; BEEP heating done 
G28 X0 Y10 Z0                              ; move X/Y to min endstops 
M420 S1                                    ; Enable leveling 
M420 Z2.0                                  ; Set leveling fading height to 2 mm 
G0 Z0.15                                   ; lift nozzle a bit 
G92 E0                                     ; zero the extruded length 
G1 X50 E25 F500                            ; Extrude 25mm of filament in a 5cm line. 
G92 E0                                     ; zero the extruded length again 
G1 E-2 F500                                ; Retract a little 
G1 X120 F4000                              ; Quickly wipe away from the filament line`
G92 E0
G92 E0
G1 F1500 E-6
;LAYER_COUNT:118
;LAYER:0
M106 S76.5
M205 X10 Y10
G1 F600 Z0.375
G0 F6000 X50.421 Y29.475 Z0.375
M205 X8 Y8
;TYPE:SKIRT
G1 F600 Z0.3
G1 F1500 E0
G1 F1200 X50.771 Y28.905 E0.03337
G1 X51.187 Y28.381 E0.06675
G1 X51.662 Y27.91 E0.10012
G1 X52.19 Y27.5 E0.13347
G1 X52.764 Y27.155 E0.16689
G1 X53.374 Y26.881 E0.20025
G1 X54.013 Y26.681 E0.23365
G1 X54.671 Y26.559 E0.26704
G1 X55.202 Y26.519 E0.29361
G1 X55.68 Y26.508 E0.31746
G1 X104.643 Y26.508 E2.76023
G1 X105.438 Y26.52 E2.7999
G1 X106.105 Y26.57 E2.83327
G1 X106.761 Y26.7 E2.86664
G1 X107.142 Y26.813 E2.88646
G1 X108.484 Y27.267 E2.95714
G1 X108.689 Y27.339 E2.96798
G1 X111.255 Y28.163 E3.10244
G1 X113.781 Y28.896 E3.23366
G1 X116.408 Y29.578 E3.36907
G1 X119.01 Y30.174 E3.50224
G1 X121.612 Y30.695 E3.63463
G1 X124.219 Y31.14 E3.76658
G1 X126.884 Y31.518 E3.90087
G1 X129.559 Y31.82 E4.03517
G1 X132.175 Y32.041 E4.16615
G1 X134.279 Y32.147 E4.27125
G1 X135.708 Y32.229 E4.34266
G1 X136.495 Y32.295 E4.38206
G1 X138.97 Y32.538 E4.50614
G1 X139.757 Y32.627 E4.54565
G1 X140.682 Y32.812 E4.59271
G1 X141.395 Y33.019 E4.62975
G1 X143.759 Y33.736 E4.753
G1 X144.443 Y33.955 E4.78883
G1 X145.295 Y34.307 E4.83482
G1 X145.946 Y34.643 E4.87137
G1 X148.185 Y35.841 E4.99806
G1 X148.787 Y36.175 E5.03241
G1 X149.354 Y36.536 E5.06594
G1 X149.593 Y36.717 E5.0809
G1 X150.124 Y37.141 E5.1148
G1 X152.045 Y38.72 E5.23886
G1 X152.611 Y39.198 E5.27582
G1 X153.275 Y39.861 E5.32263
G1 X153.738 Y40.41 E5.35846
G1 X155.326 Y42.347 E5.48342
G1 X155.766 Y42.898 E5.5186
G1 X156.292 Y43.685 E5.56583
G1 X156.662 Y44.356 E5.60406
G1 X157.82 Y46.524 E5.72668
G1 X158.142 Y47.146 E5.76163
G1 X158.388 Y47.691 E5.79146
G1 X158.521 Y48.064 E5.81121
G1 X158.738 Y48.75 E5.84711
G1 X159.436 Y51.053 E5.96717
G1 X159.649 Y51.79 E6.00544
G1 X159.833 Y52.711 E6.0523
G1 X159.916 Y53.444 E6.0891
G1 X160.164 Y55.959 E6.21518
G1 X160.221 Y56.642 E6.24938
G1 X160.22 Y57.578 E6.29608
G1 X160.157 Y58.322 E6.33333
G1 X159.912 Y60.806 E6.45785
G1 X159.833 Y61.507 E6.49305
G1 X159.647 Y62.438 E6.54041
G1 X159.439 Y63.153 E6.57757
G1 X158.722 Y65.517 E6.70081
G1 X158.503 Y66.201 E6.73664
G1 X158.151 Y67.053 E6.78263
G1 X157.815 Y67.704 E6.81918
G1 X156.618 Y69.942 E6.9458
G1 X156.284 Y70.544 E6.98015
G1 X155.903 Y71.139 E7.0154
G1 X155.741 Y71.351 E7.02871
G1 X155.317 Y71.882 E7.06261
G1 X153.74 Y73.802 E7.18657
G1 X153.264 Y74.366 E7.22339
G1 X152.601 Y75.029 E7.27017
G1 X152.055 Y75.491 E7.30585
G1 X150.13 Y77.069 E7.43003
G1 X149.557 Y77.526 E7.4666
G1 X148.778 Y78.047 E7.51336
G1 X148.167 Y78.385 E7.54819
G1 X145.878 Y79.609 E7.67769
G1 X145.289 Y79.912 E7.71074
G1 X144.43 Y80.267 E7.75711
G1 X143.69 Y80.502 E7.79584
G1 X141.398 Y81.196 E7.91532
G1 X140.657 Y81.409 E7.95379
G1 X139.902 Y81.571 E7.99231
G1 X139.677 Y81.6 E8.00363
G1 X139.014 Y81.674 E8.03691
G1 X136.502 Y81.921 E8.16284
G1 X135.676 Y81.989 E8.20419
G1 X134.894 Y82.031 E8.24326
G1 X133.513 Y82.089 E8.31222
G1 X130.859 Y82.275 E8.44495
G1 X128.195 Y82.537 E8.5785
G1 X125.565 Y82.872 E8.71077
G1 X122.893 Y83.29 E8.8457
G1 X120.277 Y83.774 E8.97843
G1 X117.685 Y84.33 E9.11068
G1 X115.121 Y84.956 E9.24236
G1 X112.501 Y85.676 E9.37792
G1 X109.948 Y86.456 E9.5111
G1 X107.126 Y87.406 E9.65965
G1 X106.481 Y87.581 E9.693
G1 X105.497 Y87.697 E9.74243
G1 X105.02 Y87.708 E9.76623
G1 X55.985 Y87.708 E12.2126
G1 X55.287 Y87.699 E12.24742
G1 X54.62 Y87.65 E12.28079
G1 X53.963 Y87.522 E12.31418
G1 X53.326 Y87.317 E12.34757
G1 X52.718 Y87.037 E12.38097
G1 X52.148 Y86.687 E12.41434
G1 X51.624 Y86.271 E12.44771
G1 X51.153 Y85.796 E12.48109
G1 X50.742 Y85.268 E12.51447
G1 X50.397 Y84.695 E12.54784
G1 X50.123 Y84.085 E12.5812
G1 X49.923 Y83.446 E12.61461
G1 X49.802 Y82.788 E12.64798
G1 X49.761 Y82.25 E12.6749
G1 X49.75 Y81.766 E12.69906
G1 X49.75 Y32.733 E15.14532
G1 X49.759 Y32.044 E15.1797
G1 X49.808 Y31.377 E15.21307
G1 X49.936 Y30.72 E15.24646
G1 X50.141 Y30.083 E15.27985
G1 X50.421 Y29.475 E15.31324
M205 X10 Y10
G0 F6000 X50.819 Y29.582
M205 X8 Y8
G1 F1200 X51.167 Y29.039 E15.34542
G1 X51.581 Y28.544 E15.37761
G1 X52.052 Y28.104 E15.40977
G1 X52.574 Y27.726 E15.44192
G1 X53.138 Y27.415 E15.47405
G1 X53.737 Y27.176 E15.50623
G1 X54.361 Y27.014 E15.53839
G1 X55.213 Y26.919 E15.58116
G1 X55.68 Y26.908 E15.60447
G1 X104.643 Y26.908 E18.04724
G1 X105.432 Y26.92 E18.08661
G1 X106.075 Y26.97 E18.11879
G1 X107.014 Y27.192 E18.16692
G1 X108.35 Y27.644 E18.23729
G1 X108.559 Y27.718 E18.24835
G1 X111.126 Y28.542 E18.38285
G1 X113.683 Y29.284 E18.51569
G1 X116.315 Y29.967 E18.65135
G1 X118.921 Y30.564 E18.78473
G1 X121.531 Y31.087 E18.91753
G1 X124.202 Y31.543 E19.05272
G1 X126.819 Y31.914 E19.18458
G1 X129.479 Y32.214 E19.31813
G1 X132.181 Y32.443 E19.45342
G1 X134.256 Y32.547 E19.55707
G1 X135.833 Y32.639 E19.63588
G1 X136.524 Y32.699 E19.67049
G1 X139.008 Y32.944 E19.79501
G1 X139.712 Y33.024 E19.83036
G1 X140.571 Y33.196 E19.87407
G1 X141.279 Y33.402 E19.91086
G1 X143.637 Y34.117 E20.03379
G1 X144.321 Y34.336 E20.06962
G1 X145.112 Y34.663 E20.11232
G1 X145.758 Y34.996 E20.14858
G1 X147.991 Y36.191 E20.27493
G1 X148.593 Y36.525 E20.30928
G1 X149.12 Y36.86 E20.34044
G1 X149.343 Y37.029 E20.3544
G1 X149.87 Y37.45 E20.38805
G1 X151.787 Y39.025 E20.51183
G1 X152.353 Y39.503 E20.54879
G1 X152.969 Y40.119 E20.59225
G1 X153.429 Y40.663 E20.62779
G1 X155.013 Y42.596 E20.75247
G1 X155.453 Y43.147 E20.78765
G1 X155.942 Y43.878 E20.83153
G1 X156.31 Y44.545 E20.86953
G1 X157.465 Y46.708 E20.99187
G1 X157.787 Y47.33 E21.02681
G1 X158.015 Y47.836 E21.0545
G1 X158.14 Y48.185 E21.07299
G1 X158.355 Y48.866 E21.10862
G1 X159.052 Y51.164 E21.22843
G1 X159.265 Y51.901 E21.2667
G1 X159.436 Y52.756 E21.3102
G1 X159.518 Y53.483 E21.3467
G1 X159.765 Y55.993 E21.47253
G1 X159.822 Y56.676 E21.50673
G1 X159.822 Y57.544 E21.55003
G1 X159.759 Y58.283 E21.58703
G1 X159.514 Y60.761 E21.71126
G1 X159.435 Y61.462 E21.74646
G1 X159.263 Y62.327 E21.79046
G1 X159.056 Y63.037 E21.82735
G1 X158.341 Y65.395 E21.95029
G1 X158.122 Y66.079 E21.98612
G1 X157.795 Y66.87 E22.02882
G1 X157.463 Y67.515 E22.06501
G1 X156.268 Y69.748 E22.19137
G1 X155.934 Y70.35 E22.22571
G1 X155.58 Y70.902 E22.25843
G1 X155.429 Y71.101 E22.27089
G1 X155.008 Y71.628 E22.30454
G1 X153.434 Y73.544 E22.42825
G1 X152.958 Y74.108 E22.46507
G1 X152.343 Y74.724 E22.5085
G1 X151.801 Y75.181 E22.54387
G1 X149.88 Y76.756 E22.6678
G1 X149.307 Y77.213 E22.70437
G1 X148.584 Y77.697 E22.74777
G1 X147.978 Y78.032 E22.78232
G1 X145.695 Y79.253 E22.91149
G1 X145.106 Y79.556 E22.94453
G1 X144.308 Y79.886 E22.98761
G1 X143.574 Y80.12 E23.02605
G1 X141.288 Y80.812 E23.14521
G1 X140.547 Y81.025 E23.18367
G1 X139.845 Y81.175 E23.21949
G1 X139.632 Y81.203 E23.23021
G1 X138.974 Y81.276 E23.26323
G1 X136.469 Y81.523 E23.38882
G1 X135.806 Y81.579 E23.42201
G1 X134.945 Y81.628 E23.46504
G1 X133.504 Y81.689 E23.53699
G1 X130.828 Y81.876 E23.67082
G1 X128.142 Y82.141 E23.80548
G1 X125.519 Y82.475 E23.9374
G1 X122.83 Y82.895 E24.07318
G1 X120.192 Y83.383 E24.20702
G1 X117.611 Y83.937 E24.33872
G1 X114.992 Y84.576 E24.47322
G1 X112.393 Y85.291 E24.6077
G1 X109.841 Y86.07 E24.74082
G1 X106.999 Y87.027 E24.89043
G1 X106.376 Y87.195 E24.92262
G1 X105.486 Y87.297 E24.96731
G1 X105.02 Y87.308 E24.99057
G1 X55.99 Y87.308 E27.43669
G1 X55.292 Y87.299 E27.47151
G1 X54.649 Y87.25 E27.50368
G1 X54.017 Y87.123 E27.53585
G1 X53.406 Y86.918 E27.568
G1 X52.825 Y86.64 E27.60013
G1 X52.282 Y86.291 E27.63234
G1 X51.787 Y85.878 E27.6645
G1 X51.347 Y85.407 E27.69665
G1 X50.968 Y84.885 E27.72884
G1 X50.657 Y84.321 E27.76097
G1 X50.419 Y83.722 E27.79313
G1 X50.256 Y83.098 E27.8253
G1 X50.161 Y82.239 E27.86842
G1 X50.15 Y81.766 E27.89202
G1 X50.15 Y32.738 E30.33804
G1 X50.159 Y32.049 E30.37242
G1 X50.208 Y31.406 E30.40459
G1 X50.335 Y30.774 E30.43675
G1 X50.54 Y30.163 E30.4689
G1 X50.819 Y29.582 E30.50106
M205 X10 Y10
G1 F1500 E24.50106
G1 F600 Z0.375
;MESH:base_lifting_plate_handle_lock_blocks.stl
G0 F6000 X104.35 Y71.108 Z0.375
M205 X8 Y8
;TYPE:WALL-INNER
G1 F600 Z0.3
G1 F1500 E30.50106
G1 F1200 X104.35 Y81.108 E30.99996
G1 X56.35 Y81.108 E33.39469
G1 X56.35 Y33.108 E35.78942
G1 X104.35 Y33.108 E38.18415
G1 X104.35 Y43.108 E38.68305
G1 X123.709 Y43.108 E39.64888
G1 X125.186 Y41.898 E39.74414
G1 X128.35 Y40.204 E39.92319
G1 X131.782 Y39.164 E40.1021
G1 X135.35 Y38.813 E40.28097
G1 X138.918 Y39.164 E40.45984
G1 X142.35 Y40.204 E40.63875
G1 X145.513 Y41.898 E40.81776
G1 X148.287 Y44.171 E40.99668
G1 X150.56 Y46.944 E41.17556
G1 X152.254 Y50.108 E41.35461
G1 X153.294 Y53.54 E41.53353
G1 X153.645 Y57.108 E41.71239
G1 X153.294 Y60.676 E41.89126
G1 X152.254 Y64.108 E42.07017
G1 X150.56 Y67.271 E42.24918
G1 X148.287 Y70.045 E42.4281
G1 X145.513 Y72.318 E42.60703
G1 X142.35 Y74.012 E42.78604
G1 X138.918 Y75.052 E42.96495
G1 X135.35 Y75.403 E43.14382
G1 X131.782 Y75.052 E43.32268
G1 X128.35 Y74.012 E43.50159
G1 X125.186 Y72.318 E43.68065
G1 X123.709 Y71.108 E43.77591
G1 X104.35 Y71.108 E44.74173
M205 X10 Y10
G0 F6000 X104.75 Y71.508
M205 X8 Y8
G1 F1200 X104.75 Y81.508 E45.24063
G1 X55.95 Y81.508 E47.67527
G1 X55.95 Y32.708 E50.10992
G1 X104.75 Y32.708 E52.54456
G1 X104.75 Y42.708 E53.04346
G1 X123.566 Y42.708 E53.98219
G1 X124.964 Y41.562 E54.07238
G1 X128.195 Y39.833 E54.2552
G1 X131.702 Y38.77 E54.43803
G1 X135.35 Y38.411 E54.62091
G1 X138.998 Y38.77 E54.80379
G1 X142.505 Y39.833 E54.98661
G1 X145.735 Y41.562 E55.16939
G1 X148.571 Y43.887 E55.35235
G1 X150.896 Y46.722 E55.53527
G1 X152.625 Y49.953 E55.7181
G1 X153.688 Y53.46 E55.90092
G1 X154.047 Y57.108 E56.0838
G1 X153.688 Y60.756 E56.26668
G1 X152.625 Y64.263 E56.4495
G1 X150.896 Y67.493 E56.63229
G1 X148.571 Y70.329 E56.81524
G1 X145.735 Y72.654 E56.9982
G1 X142.505 Y74.383 E57.18098
G1 X138.998 Y75.446 E57.36381
G1 X135.35 Y75.805 E57.54669
G1 X131.702 Y75.446 E57.72957
G1 X128.195 Y74.383 E57.91239
G1 X124.964 Y72.654 E58.09522
G1 X123.566 Y71.508 E58.1854
G1 X104.75 Y71.508 E59.12414
M205 X10 Y10
G0 F6000 X105.15 Y71.908
M205 X8 Y8
;TYPE:WALL-OUTER
G1 F1200 X105.15 Y81.908 E59.62304
G1 X55.55 Y81.908 E62.09759
G1 X55.55 Y32.308 E64.57215
G1 X105.15 Y32.308 E67.0467
G1 X105.15 Y42.308 E67.5456
G1 X123.423 Y42.308 E68.45725
G1 X124.742 Y41.226 E68.54236
G1 X128.04 Y39.462 E68.72895
G1 X131.622 Y38.376 E68.91569
G1 X135.35 Y38.009 E69.10258
G1 X139.078 Y38.376 E69.28947
G1 X142.66 Y39.462 E69.47621
G1 X145.957 Y41.226 E69.66276
G1 X148.855 Y43.603 E69.84976
G1 X151.232 Y46.5 E70.03672
G1 X152.996 Y49.798 E70.22331
G1 X154.082 Y53.38 E70.41005
G1 X154.449 Y57.108 E70.59694
G1 X154.082 Y60.836 E70.78383
G1 X152.996 Y64.418 E70.97057
G1 X151.232 Y67.715 E71.15712
G1 X148.855 Y70.613 E71.34412
G1 X145.957 Y72.99 E71.53111
G1 X142.66 Y74.754 E71.71766
G1 X139.078 Y75.84 E71.9044
G1 X135.35 Y76.207 E72.09129
G1 X131.622 Y75.84 E72.27818
G1 X128.04 Y74.754 E72.46492
G1 X124.742 Y72.99 E72.65152
G1 X123.423 Y71.908 E72.73663
G1 X105.15 Y71.908 E73.64827
M205 X10 Y10
G0 F6000 X105.15 Y72.108
G0 X104.71 Y72.108
G1 F1500 E67.64827
G1 F600 Z0.375
G0 F6000 X103.96 Y70.718 Z0.375
M205 X8 Y8
;TYPE:SKIN
G1 F600 Z0.3
G1 F1500 E73.64827
G1 F1200 X103.96 Y80.718 E74.14718
G1 X56.74 Y80.718 E76.50299
G1 X56.74 Y33.498 E78.85881
G1 X103.96 Y33.498 E81.21462
G1 X103.96 Y43.498 E81.71352
G1 X123.848 Y43.498 E82.70574
G1 X125.407 Y42.221 E82.80628
G1 X128.497 Y40.566 E82.98116
G1 X131.857 Y39.548 E83.15632
G1 X135.35 Y39.205 E83.33142
G1 X138.843 Y39.548 E83.50653
G1 X142.203 Y40.566 E83.68168
G1 X145.292 Y42.221 E83.85652
G1 X148.01 Y44.448 E84.03182
G1 X150.237 Y47.165 E84.20709
G1 X151.892 Y50.255 E84.38197
G1 X152.91 Y53.615 E84.55713
G1 X153.253 Y57.108 E84.73223
G1 X152.91 Y60.601 E84.90734
G1 X151.892 Y63.961 E85.08249
G1 X150.237 Y67.05 E85.25733
G1 X148.01 Y69.768 E85.43264
G1 X145.292 Y71.995 E85.60794
G1 X142.203 Y73.65 E85.78278
G1 X138.843 Y74.668 E85.95793
G1 X135.35 Y75.011 E86.13304
G1 X131.857 Y74.668 E86.30814
G1 X128.497 Y73.65 E86.4833
G1 X125.407 Y71.995 E86.65818
G1 X123.848 Y70.718 E86.75872
G1 X103.96 Y70.718 E87.75094
M205 X10 Y10
G1 F1500 E81.75094
G1 F600 Z0.375
G0 F6000 X57.344 Y80.537 Z0.375
M205 X8 Y8
G1 F600 Z0.3
G1 F1500 E87.75094
G1 F1200 X56.919 Y80.112 E87.78092
M205 X10 Y10
G0 F6000 X56.919 Y79.546
M205 X8 Y8
G1 F1200 X57.909 Y80.537 E87.85081
M205 X10 Y10
G0 F6000 X58.475 Y80.537
M205 X8 Y8
G1 F1200 X56.919 Y78.98 E87.96063
M205 X10 Y10
G0 F6000 X56.919 Y78.415
M205 X8 Y8
G1 F1200 X59.041 Y80.537 E88.11035
M205 X10 Y10
G0 F6000 X59.606 Y80.537
M205 X8 Y8
G1 F1200 X56.919 Y77.849 E88.29996
M205 X10 Y10
G0 F6000 X56.919 Y77.283
M205 X8 Y8
G1 F1200 X60.172 Y80.537 E88.52952
M205 X10 Y10
G0 F6000 X60.738 Y80.537
M205 X8 Y8
G1 F1200 X56.919 Y76.718 E88.79897
M205 X10 Y10
G0 F6000 X56.919 Y76.152
M205 X8 Y8
G1 F1200 X61.304 Y80.537 E89.10835
M205 X10 Y10
G0 F6000 X61.869 Y80.537
M205 X8 Y8
G1 F1200 X56.919 Y75.586 E89.45764
M205 X10 Y10
G0 F6000 X56.919 Y75.021
M205 X8 Y8
G1 F1200 X62.435 Y80.537 E89.84682
M205 X10 Y10
G0 F6000 X63.001 Y80.537
M205 X8 Y8
G1 F1200 X56.919 Y74.455 E90.27594
M205 X10 Y10
G0 F6000 X56.919 Y73.889
M205 X8 Y8
G1 F1200 X63.566 Y80.537 E90.74496
M205 X10 Y10
G0 F6000 X64.132 Y80.537
M205 X8 Y8
G1 F1200 X56.919 Y73.324 E91.25387
M205 X10 Y10
G0 F6000 X56.919 Y72.758
M205 X8 Y8
G1 F1200 X64.698 Y80.537 E91.80272
M205 X10 Y10
G0 F6000 X65.263 Y80.537
M205 X8 Y8
G1 F1200 X56.919 Y72.192 E92.39147
M205 X10 Y10
G0 F6000 X56.919 Y71.627
M205 X8 Y8
G1 F1200 X65.829 Y80.537 E93.02012
M205 X10 Y10
G0 F6000 X66.395 Y80.537
M205 X8 Y8
G1 F1200 X56.919 Y71.061 E93.6887
M205 X10 Y10
G0 F6000 X56.919 Y70.495
M205 X8 Y8
G1 F1200 X66.96 Y80.537 E94.39719
M205 X10 Y10
G0 F6000 X67.526 Y80.537
M205 X8 Y8
G1 F1200 X56.919 Y69.93 E95.14557
M205 X10 Y10
G0 F6000 X56.919 Y69.364
M205 X8 Y8
G1 F1200 X68.092 Y80.537 E95.93388
M205 X10 Y10
G0 F6000 X68.657 Y80.537
M205 X8 Y8
G1 F1200 X56.919 Y68.798 E96.7621
M205 X10 Y10
G0 F6000 X56.919 Y68.232
M205 X8 Y8
G1 F1200 X69.223 Y80.537 E97.63025
M205 X10 Y10
G0 F6000 X69.789 Y80.537
M205 X8 Y8
G1 F1200 X56.919 Y67.667 E98.53829
M205 X10 Y10
G0 F6000 X56.919 Y67.101
M205 X8 Y8
G1 F1200 X70.355 Y80.537 E99.48628
M205 X10 Y10
G0 F6000 X70.92 Y80.537
M205 X8 Y8
G1 F1200 X56.919 Y66.535 E100.47416
M205 X10 Y10
G0 F6000 X56.919 Y65.97
M205 X8 Y8
G1 F1200 X71.486 Y80.537 E101.50194
M205 X10 Y10
G0 F6000 X72.052 Y80.537
M205 X8 Y8
G1 F1200 X56.919 Y65.404 E102.56965
M205 X10 Y10
G0 F6000 X56.919 Y64.838
M205 X8 Y8
G1 F1200 X72.617 Y80.537 E103.67727
M205 X10 Y10
G0 F6000 X73.183 Y80.537
M205 X8 Y8
G1 F1200 X56.919 Y64.273 E104.82478
M205 X10 Y10
G0 F6000 X56.919 Y63.707
M205 X8 Y8
G1 F1200 X73.749 Y80.537 E106.01223
M205 X10 Y10
