;FLAVOR:Marlin
;TIME:1481
;Filament used: 0.530813m
;Layer height: 0.1
;MINX:147.771
;MINY:38.199
;MINZ:0.24
;MAXX:152.228
;MAXY:261.8
;MAXZ:2.94
;Generated with Cura_SteamEngine 4.12.1
M140 S50
M105
M190 S50
M104 S235
M105
M109 S235
M82 ;absolute extrusion mode
M201 X500.00 Y500.00 Z100.00 E5000.00 ;Setup machine max acceleration
M203 X500.00 Y500.00 Z10.00 E50.00 ;Setup machine max feedrate
M204 P500.00 R1000.00 T500.00 ;Setup Print/Retract/Travel acceleration
M205 X8.00 Y8.00 Z0.40 E5.00 ;Setup Jerk
M220 S100 ;Reset Feedrate
M221 S100 ;Reset Flowrate

G28 ;Home

G92 E0 ;Reset Extruder
G1 Z2.0 F3000 ;Move Z Axis up
G1 X10.1 Y20 Z0.28 F5000.0 ;Move to start position
G1 X10.1 Y200.0 Z0.28 F1500.0 E15 ;Draw the first line
G1 X10.4 Y200.0 Z0.28 F5000.0 ;Move to side a little
G1 X10.4 Y20 Z0.28 F1500.0 E30 ;Draw the second line
G92 E0 ;Reset Extruder
G1 Z2.0 F3000 ;Move Z Axis up

G92 E0
G92 E0
G1 F2700 E-5
;LAYER_COUNT:19
;LAYER:-8
M107
G0 F9000 X148.056 Y39.519 Z0.24
;TYPE:SUPPORT-INTERFACE
G1 F2700 E0
G1 F900 X148.197 Y39.201 E0.02777
G1 X148.383 Y38.944 E0.05309
G1 X148.619 Y38.727 E0.07868
G1 X148.876 Y38.57 E0.10272
G1 X149.091 Y38.483 E0.12124
G1 X149.504 Y38.409 E0.15473
G1 X149.706 Y38.4 E0.17087
G1 X150.297 Y38.4 E0.21805
G1 X150.617 Y38.421 E0.24365
G1 X150.909 Y38.484 E0.26749
G1 X151.221 Y38.622 E0.29472
G1 X151.483 Y38.811 E0.32051
G1 X151.7 Y39.047 E0.3461
G1 X151.856 Y39.302 E0.36996
G1 X151.944 Y39.519 E0.38866
G1 X152.018 Y39.933 E0.42223
G1 X152.027 Y40.134 E0.43829
G1 X152.028 Y41.87 E0.57686
G1 X152.017 Y42.087 E0.59421
G1 X151.944 Y42.822 E0.65317
G1 X151.963 Y43.501 E0.70739
G1 X152.017 Y43.911 E0.7404
G1 X152.027 Y44.133 E0.75814
G1 X152.028 Y255.871 E17.65998
G1 X152.017 Y256.086 E17.67717
G1 X151.944 Y256.823 E17.73628
G1 X151.963 Y257.502 E17.79051
G1 X152.017 Y257.903 E17.8228
G1 X152.027 Y258.133 E17.84118
G1 X152.028 Y259.87 E17.97984
G1 X152.008 Y260.18 E18.00463
G1 X151.945 Y260.477 E18.02887
G1 X151.809 Y260.789 E18.05604
G1 X151.627 Y261.044 E18.08105
G1 X151.394 Y261.263 E18.10657
G1 X151.125 Y261.43 E18.13184
G1 X150.902 Y261.518 E18.15098
G1 X150.496 Y261.591 E18.18391
G1 X150.293 Y261.6 E18.20013
G1 X149.702 Y261.6 E18.24731
G1 X149.382 Y261.579 E18.2729
G1 X149.09 Y261.516 E18.29675
G1 X148.776 Y261.377 E18.32416
G1 X148.516 Y261.189 E18.34977
G1 X148.308 Y260.966 E18.37411
G1 X148.142 Y260.696 E18.39941
G1 X148.054 Y260.477 E18.41825
G1 X147.981 Y260.068 E18.45142
G1 X147.972 Y259.859 E18.46812
G1 X147.972 Y258.128 E18.60629
G1 X147.983 Y257.911 E18.62364
G1 X148.054 Y257.202 E18.68052
G1 X148.055 Y257.158 E18.68403
G1 X148.034 Y256.48 E18.73818
G1 X147.981 Y256.094 E18.76928
G1 X147.972 Y255.867 E18.78741
G1 X147.972 Y44.121 E35.68989
G1 X147.983 Y43.911 E35.70668
G1 X148.054 Y43.202 E35.76356
G1 X148.055 Y43.158 E35.76707
G1 X148.034 Y42.48 E35.82122
G1 X147.981 Y42.094 E35.85232
G1 X147.972 Y41.867 E35.87045
G1 X147.972 Y40.124 E36.00959
G1 X147.992 Y39.816 E36.03422
G1 X148.056 Y39.519 E36.05848
G0 F9000 X148.8 Y38.616
G1 F900 X148.8 Y261.387 E53.84102
G1 F2700 E48.84102
G1 F300 Z0.44
G0 F9000 X150.4 Y261.596 Z0.44
G1 F300 Z0.24
G1 F2700 E53.84102
G1 F900 X150.4 Y38.407 E71.65693
G1 F2700 E66.65693
G1 F300 Z0.44
G0 F9000 X152 Y39.833 Z0.44
G1 F300 Z0.24
G1 F2700 E71.65693
G1 F900 X152 Y42.259 E71.85059
G1 F2700 E66.85059
G1 F300 Z0.44
G0 F9000 X152 Y43.782 Z0.44
G1 F300 Z0.24
G1 F2700 E71.85059
G1 F900 X152 Y256.258 E88.81134
G1 F2700 E83.81134
G1 F300 Z0.44
G0 F9000 X152 Y257.777 Z0.44
G1 F300 Z0.24
G1 F2700 E88.81134
G1 F900 X152 Y260.218 E89.00619
G1 F2700 E84.00619
G1 F300 Z0.44
G0 F9000 X149.876 Y261.599 Z0.44
;TIME_ELAPSED:80.861942
;LAYER:-7
G0 X149.876 Y261.599 Z0.59
;TYPE:SUPPORT
G1 F300 Z0.39
G1 F2700 E89.00619
G1 F900 X150.293 Y261.599 E89.02699
G1 X150.495 Y261.59 E89.03708
G1 X150.901 Y261.517 E89.05766
G1 X150.951 Y261.504 E89.06024
G1 X151.121 Y261.43 E89.06949
G1 X147.971 Y258.28 E89.29174
G1 X147.971 Y258.127 E89.29937
G1 X147.983 Y257.91 E89.31022
G1 X148.054 Y257.201 E89.34576
G1 X148.054 Y257.157 E89.34796
G1 X148.047 Y256.942 E89.35869
G1 X151.839 Y260.733 E89.6262
G1 X151.866 Y260.684 E89.62899
G1 X151.945 Y260.476 E89.64009
G1 X151.974 Y260.378 E89.64519
G1 X152.007 Y260.179 E89.65526
G1 X152.016 Y260.086 E89.65992
G1 X152.027 Y259.868 E89.67081
G1 X152.027 Y259.508 E89.68877
G1 X147.971 Y255.451 E89.97498
G1 X147.971 Y254.037 E90.04552
G1 X152.025 Y258.091 E90.33155
G1 X152.017 Y257.902 E90.34099
G1 X151.962 Y257.501 E90.36118
G1 X151.943 Y256.821 E90.39512
G1 X151.965 Y256.616 E90.40541
G1 X147.971 Y252.623 E90.68717
G1 X147.971 Y251.208 E90.75777
G1 X152.027 Y255.265 E91.04397
G1 X152.027 Y253.851 E91.11452
G1 X147.971 Y249.794 E91.40073
G1 X147.971 Y248.38 E91.47127
G1 X152.027 Y252.437 E91.75748
G1 X152.027 Y251.022 E91.82807
G1 X147.971 Y246.966 E92.11425
G1 X147.971 Y245.552 E92.18479
G1 X152.027 Y249.608 E92.47096
G1 X152.027 Y248.194 E92.54151
G1 X147.971 Y244.137 E92.82772
G1 X147.971 Y242.723 E92.89826
G1 X152.027 Y246.78 E93.18447
G1 X152.027 Y245.366 E93.25501
G1 X147.971 Y241.309 E93.54122
G1 X147.971 Y239.895 E93.61177
G1 X152.027 Y243.951 E93.89794
G1 X152.027 Y242.537 E93.96849
G1 X147.971 Y238.48 E94.25469
G1 X147.971 Y237.066 E94.32524
G1 X152.027 Y241.123 E94.61145
G1 X152.027 Y239.709 E94.68199
G1 X147.971 Y235.652 E94.9682
G1 X147.971 Y234.238 E95.03874
G1 X152.027 Y238.294 E95.32492
G1 X152.027 Y236.88 E95.39546
G1 X147.971 Y232.824 E95.68163
G1 X147.971 Y231.409 E95.75223
G1 X152.027 Y235.466 E96.03844
G1 X152.027 Y234.052 E96.10898
G1 X147.971 Y229.995 E96.39519
G1 X147.971 Y228.581 E96.46573
G1 X152.027 Y232.638 E96.75194
G1 X152.027 Y231.223 E96.82254
G1 X147.971 Y227.167 E97.10871
G1 X147.971 Y225.753 E97.17925
G1 X152.027 Y229.809 E97.46543
G1 X152.027 Y228.395 E97.53597
G1 X147.971 Y224.338 E97.82218
G1 X147.971 Y222.924 E97.89272
G1 X152.027 Y226.981 E98.17893
G1 X152.027 Y225.567 E98.24948
G1 X147.971 Y221.51 E98.53568
G1 X147.971 Y220.096 E98.60623
G1 X152.027 Y224.152 E98.8924
G1 X152.027 Y222.738 E98.96295
G1 X147.971 Y218.681 E99.24915
G1 X147.971 Y217.267 E99.3197
G1 X152.027 Y221.324 E99.60591
G1 X152.027 Y219.91 E99.67645
G1 X147.971 Y215.853 E99.96266
G1 X147.971 Y214.439 E100.0332
G1 X152.027 Y218.495 E100.31938
G1 X152.027 Y217.081 E100.38992
G1 X147.971 Y213.025 E100.6761
G1 X147.971 Y211.61 E100.74669
G1 X152.027 Y215.667 E101.0329
G1 X152.027 Y214.253 E101.10344
G1 X147.971 Y210.196 E101.38965
G1 X147.971 Y208.782 E101.4602
G1 X152.027 Y212.839 E101.7464
G1 X152.027 Y211.424 E101.817
G1 X147.971 Y207.368 E102.10317
G1 X147.971 Y205.954 E102.17372
G1 X152.027 Y210.01 E102.45989
G1 X152.027 Y208.596 E102.53043
G1 X147.971 Y204.539 E102.81664
G1 X147.971 Y203.125 E102.88719
G1 X152.027 Y207.182 E103.17339
G1 X152.027 Y205.768 E103.24394
G1 X147.971 Y201.711 E103.53015
G1 X147.971 Y200.297 E103.60069
G1 X152.027 Y204.353 E103.88686
G1 X152.027 Y202.939 E103.95741
G1 X147.971 Y198.882 E104.24362
G1 X147.971 Y197.468 E104.31416
G1 X152.027 Y201.525 E104.60037
G1 X152.027 Y200.111 E104.67091
G1 X147.971 Y196.054 E104.95712
G1 X147.971 Y194.64 E105.02767
G1 X152.027 Y198.697 E105.31387
G1 X152.027 Y197.282 E105.38447
G1 X147.971 Y193.226 E105.67064
G1 X147.971 Y191.811 E105.74124
G1 X152.027 Y195.868 E106.02744
G1 X152.027 Y194.454 E106.09799
G1 X147.971 Y190.397 E106.3842
G1 X147.971 Y188.983 E106.45474
G1 X152.027 Y193.04 E106.74095
G1 X152.027 Y191.625 E106.81154
G1 X147.971 Y187.569 E107.09772
G1 X147.971 Y186.155 E107.16826
G1 X152.027 Y190.211 E107.45443
G1 X152.027 Y188.797 E107.52498
G1 X147.971 Y184.74 E107.81119
G1 X147.971 Y183.326 E107.88173
G1 X152.027 Y187.383 E108.16794
G1 X152.027 Y185.969 E108.23849
G1 X147.971 Y181.912 E108.52469
G1 X147.971 Y180.498 E108.59524
G1 X152.027 Y184.554 E108.88141
G1 X152.027 Y183.14 E108.95196
G1 X147.971 Y179.083 E109.23816
G1 X147.971 Y177.669 E109.30871
G1 X152.027 Y181.726 E109.59492
G1 X152.027 Y180.312 E109.66546
G1 X147.971 Y176.255 E109.95167
G1 X147.971 Y174.841 E110.02221
G1 X152.027 Y178.898 E110.30842
G1 X152.027 Y177.483 E110.37902
G1 X147.971 Y173.427 E110.66519
G1 X147.971 Y172.012 E110.73578
G1 X152.027 Y176.069 E111.02199
G1 X152.027 Y174.655 E111.09254
G1 X147.971 Y170.598 E111.37874
G1 X147.971 Y169.184 E111.44929
G1 X152.027 Y173.241 E111.7355
G1 X152.027 Y171.826 E111.80609
G1 X147.971 Y167.77 E112.09226
G1 X147.971 Y166.356 E112.16281
G1 X152.027 Y170.412 E112.44898
G1 X152.027 Y168.998 E112.51953
G1 X147.971 Y164.941 E112.80573
G1 X147.971 Y163.527 E112.87628
G1 X152.027 Y167.584 E113.16249
G1 X152.027 Y166.17 E113.23303
G1 X147.971 Y162.113 E113.51924
G1 X147.971 Y160.699 E113.58978
G1 X152.027 Y164.755 E113.87596
G1 X152.027 Y163.341 E113.9465
G1 X147.971 Y159.284 E114.23271
G1 X147.971 Y157.87 E114.30325
G1 X152.027 Y161.927 E114.58946
G1 X152.027 Y160.513 E114.66001
G1 X147.971 Y156.456 E114.94622
G1 X147.971 Y155.042 E115.01676
G1 X152.027 Y159.099 E115.30297
G1 X152.027 Y157.684 E115.37356
G1 X147.971 Y153.628 E115.65974
G1 X147.971 Y152.213 E115.73033
G1 X152.027 Y156.27 E116.01654
G1 X152.027 Y154.856 E116.08708
G1 X147.971 Y150.799 E116.37329
G1 X147.971 Y149.385 E116.44384
G1 X152.027 Y153.442 E116.73004
G1 X152.027 Y152.027 E116.80064
G1 X147.971 Y147.971 E117.08681
G1 X147.971 Y146.557 E117.15736
G1 X152.027 Y150.613 E117.44353
G1 X152.027 Y149.198 E117.51412
G1 X147.971 Y145.142 E117.8003
G1 X147.971 Y143.728 E117.87084
G1 X152.027 Y147.784 E118.15701
G1 X152.027 Y146.37 E118.22756
G1 X147.971 Y142.314 E118.51373
G1 X147.971 Y140.9 E118.58428
G1 X152.027 Y144.956 E118.87045
G1 X152.027 Y143.541 E118.94104
G1 X147.971 Y139.486 E119.22718
G1 X147.971 Y138.071 E119.29777
G1 X152.027 Y142.127 E119.58395
G1 X152.027 Y140.713 E119.65449
G1 X147.971 Y136.657 E119.94067
G1 X147.971 Y135.243 E120.01121
G1 X152.027 Y139.299 E120.29738
G1 X152.027 Y137.885 E120.36793
G1 X147.971 Y133.829 E120.6541
G1 X147.971 Y132.414 E120.72469
G1 X152.027 Y136.47 E121.01087
G1 X152.027 Y135.056 E121.08141
G1 X147.971 Y131 E121.36758
G1 X147.971 Y129.586 E121.43813
G1 X152.027 Y133.642 E121.7243
G1 X152.027 Y132.228 E121.79485
G1 X147.971 Y128.172 E122.08102
G1 X147.971 Y126.758 E122.15156
G1 X152.027 Y130.814 E122.43774
G1 X152.027 Y129.399 E122.50833
G1 X147.971 Y125.343 E122.7945
G1 X147.971 Y123.929 E122.86505
G1 X152.027 Y127.985 E123.15122
G1 X152.027 Y126.571 E123.22177
G1 X147.971 Y122.515 E123.50794
G1 X147.971 Y121.101 E123.57848
G1 X152.027 Y125.157 E123.86466
G1 X152.027 Y123.742 E123.93525
G1 X147.971 Y119.687 E124.22139
G1 X147.971 Y118.272 E124.29198
G1 X152.027 Y122.328 E124.57816
G1 X152.027 Y120.914 E124.6487
G1 X147.971 Y116.858 E124.93487
G1 X147.971 Y115.444 E125.00542
G1 X152.027 Y119.5 E125.29159
G1 X152.027 Y118.086 E125.36214
G1 X147.971 Y114.03 E125.64831
G1 X147.971 Y112.615 E125.7189
G1 X152.027 Y116.671 E126.00508
G1 X152.027 Y115.257 E126.07562
G1 X147.971 Y111.201 E126.36179
G1 X147.971 Y109.787 E126.43234
G1 X152.027 Y113.843 E126.71851
G1 X152.027 Y112.429 E126.78906
G1 X147.971 Y108.373 E127.07523
G1 X147.971 Y106.959 E127.14577
G1 X152.027 Y111.015 E127.43195
G1 X152.027 Y109.6 E127.50254
G1 X147.971 Y105.544 E127.78871
G1 X147.971 Y104.13 E127.85926
G1 X152.027 Y108.186 E128.14543
G1 X152.027 Y106.772 E128.21598
G1 X147.971 Y102.716 E128.50215
G1 X147.971 Y101.302 E128.57269
G1 X152.027 Y105.358 E128.85887
G1 X152.027 Y103.943 E128.92946
G1 X147.971 Y99.888 E129.2156
G1 X147.971 Y98.473 E129.28619
G1 X152.027 Y102.529 E129.57236
G1 X152.027 Y101.115 E129.64291
G1 X147.971 Y97.059 E129.92908
G1 X147.971 Y95.645 E129.99963
G1 X152.027 Y99.701 E130.2858
G1 X152.027 Y98.287 E130.35634
G1 X147.971 Y94.231 E130.64252
G1 X147.971 Y92.816 E130.71311
G1 X152.027 Y96.872 E130.99928
G1 X152.027 Y95.458 E131.06983
G1 X147.971 Y91.402 E131.356
G1 X147.971 Y89.988 E131.42655
G1 X152.027 Y94.044 E131.71272
G1 X152.027 Y92.63 E131.78326
G1 X147.971 Y88.574 E132.06944
G1 X147.971 Y87.16 E132.13998
G1 X152.027 Y91.216 E132.42615
G1 X152.027 Y89.801 E132.49675
G1 X147.971 Y85.745 E132.78292
G1 X147.971 Y84.331 E132.85347
G1 X152.027 Y88.387 E133.13964
G1 X152.027 Y86.973 E133.21018
G1 X147.971 Y82.917 E133.49636
G1 X147.971 Y81.503 E133.5669
G1 X152.027 Y85.559 E133.85307
G1 X152.027 Y84.144 E133.92367
G1 X147.971 Y80.089 E134.20981
G1 X147.971 Y78.674 E134.2804
G1 X152.027 Y82.73 E134.56657
G1 X152.027 Y81.316 E134.63712
G1 X147.971 Y77.26 E134.92329
G1 X147.971 Y75.846 E134.99384
G1 X152.027 Y79.902 E135.28001
G1 X152.027 Y78.488 E135.35055
G1 X147.971 Y74.432 E135.63673
G1 X147.971 Y73.017 E135.70732
G1 X152.027 Y77.073 E135.99349
G1 X152.027 Y75.659 E136.06404
G1 X147.971 Y71.603 E136.35021
G1 X147.971 Y70.189 E136.42076
G1 X152.027 Y74.245 E136.70693
G1 X152.027 Y72.831 E136.77747
G1 X147.971 Y68.775 E137.06365
G1 X147.971 Y67.361 E137.13419
G1 X152.027 Y71.417 E137.42036
G1 X152.027 Y70.002 E137.49096
G1 X147.971 Y65.946 E137.77713
G1 X147.971 Y64.532 E137.84768
G1 X152.027 Y68.588 E138.13385
G1 X152.027 Y67.174 E138.20439
G1 X147.971 Y63.118 E138.49057
G1 X147.971 Y61.704 E138.56111
G1 X152.027 Y65.76 E138.84728
G1 X152.027 Y64.346 E138.91783
G1 X147.971 Y60.29 E139.204
G1 X147.971 Y58.875 E139.27459
G1 X152.027 Y62.931 E139.56077
G1 X152.027 Y61.517 E139.63131
G1 X147.971 Y57.461 E139.91748
G1 X147.971 Y56.047 E139.98803
G1 X152.027 Y60.103 E140.2742
G1 X152.027 Y58.689 E140.34475
G1 X147.971 Y54.633 E140.63092
G1 X147.971 Y53.218 E140.70151
G1 X152.027 Y57.274 E140.98769
G1 X152.027 Y55.86 E141.05823
G1 X147.971 Y51.804 E141.3444
G1 X147.971 Y50.39 E141.41495
G1 X152.027 Y54.446 E141.70112
G1 X152.027 Y53.032 E141.77167
G1 X147.971 Y48.976 E142.05784
G1 X147.971 Y47.562 E142.12838
G1 X152.027 Y51.618 E142.41456
G1 X152.027 Y50.203 E142.48515
G1 X147.971 Y46.147 E142.77132
G1 X147.971 Y44.733 E142.84187
G1 X152.027 Y48.789 E143.12804
G1 X152.027 Y47.375 E143.19859
G1 X148.034 Y43.383 E143.48028
G1 X148.053 Y43.202 E143.48936
G1 X148.054 Y43.158 E143.49155
G1 X148.032 Y42.48 E143.5254
G1 X147.98 Y42.094 E143.54483
G1 X147.972 Y41.906 E143.55422
G1 X152.027 Y45.961 E143.84032
G1 X152.027 Y44.547 E143.91086
G1 X147.971 Y40.491 E144.19704
G1 X147.971 Y40.123 E144.2154
G1 X147.982 Y39.909 E144.22609
G1 X147.991 Y39.816 E144.23075
G1 X148.022 Y39.631 E144.24011
G1 X148.055 Y39.518 E144.24598
G1 X148.132 Y39.317 E144.25672
G1 X148.16 Y39.265 E144.25967
G1 X151.95 Y43.055 E144.52707
G1 X151.943 Y42.822 E144.5387
G1 X152.016 Y42.086 E144.5756
G1 X152.027 Y41.869 E144.58644
G1 X152.027 Y41.718 E144.59397
G1 X148.877 Y38.569 E144.81619
G1 X149.058 Y38.492 E144.826
G1 X149.089 Y38.482 E144.82763
G1 X149.503 Y38.408 E144.84861
G1 X149.705 Y38.4 E144.85869
G1 X150.123 Y38.4 E144.87955
G1 X152.027 Y40.304 E145.01388
G0 F9000 X152.026 Y40.133
G1 F900 X152.017 Y39.932 E145.02392
G1 X151.943 Y39.518 E145.0449
G1 X151.932 Y39.481 E145.04683
G1 X151.855 Y39.302 E145.05655
G1 X151.798 Y39.191 E145.06278
G1 X151.699 Y39.047 E145.0715
G1 X151.612 Y38.937 E145.07849
G1 X151.482 Y38.81 E145.08756
G1 X151.373 Y38.719 E145.09464
G1 X151.22 Y38.622 E145.10368
G1 X151.109 Y38.56 E145.11002
G1 X150.908 Y38.484 E145.12074
G1 X150.798 Y38.45 E145.12649
G1 X150.616 Y38.421 E145.13568
G1 X150.514 Y38.41 E145.1408
G1 X150.296 Y38.399 E145.15169
G1 X150.123 Y38.4 E145.16032
G1 F2700 E140.16032
G1 F300 Z0.59
G0 F9000 X147.971 Y259.694 Z0.59
G1 F300 Z0.39
G1 F2700 E145.16032
G1 F900 X149.876 Y261.599 E145.29473
G1 X149.702 Y261.599 E145.30341
G1 X149.483 Y261.588 E145.31435
G1 X149.381 Y261.578 E145.31946
G1 X149.2 Y261.548 E145.32862
G1 X149.089 Y261.515 E145.3344
G1 X148.889 Y261.437 E145.34511
G1 X148.775 Y261.375 E145.35158
G1 X148.625 Y261.28 E145.36044
G1 X148.516 Y261.188 E145.36755
G1 X148.389 Y261.067 E145.37631
G1 X148.307 Y260.965 E145.38283
G1 X148.198 Y260.805 E145.39249
G1 X148.142 Y260.695 E145.39865
G1 X148.068 Y260.523 E145.40799
G1 X148.054 Y260.476 E145.41044
G1 X147.981 Y260.067 E145.43117
G1 X147.971 Y259.858 E145.44161
G1 F2700 E140.44161
G1 F300 Z0.59
G0 F9000 X148.813 Y261.625 Z0.59
;TIME_ELAPSED:160.900874
;LAYER:-6
