;FLAVOR:Marlin
;TIME:1669
;Filament used: 0.603205m
;Layer height: 0.1
;MINX:147.771
;MINY:23.199
;MINZ:0.24
;MAXX:152.228
;MAXY:276.8
;MAXZ:2.94
;Generated with Cura_SteamEngine 4.12.1
M140 S50
M105
M190 S50
M104 S235
M105
M109 S235
M82 ;absolute extrusion mode
M201 X500.00 Y500.00 Z100.00 E5000.00 ;Setup machine max acceleration
M203 X500.00 Y500.00 Z10.00 E50.00 ;Setup machine max feedrate
M204 P500.00 R1000.00 T500.00 ;Setup Print/Retract/Travel acceleration
M205 X8.00 Y8.00 Z0.40 E5.00 ;Setup Jerk
M220 S100 ;Reset Feedrate
M221 S100 ;Reset Flowrate

G28 ;Home

G92 E0 ;Reset Extruder
G1 Z2.0 F3000 ;Move Z Axis up
G1 X10.1 Y20 Z0.28 F5000.0 ;Move to start position
G1 X10.1 Y200.0 Z0.28 F1500.0 E15 ;Draw the first line
G1 X10.4 Y200.0 Z0.28 F5000.0 ;Move to side a little
G1 X10.4 Y20 Z0.28 F1500.0 E30 ;Draw the second line
G92 E0 ;Reset Extruder
G1 Z2.0 F3000 ;Move Z Axis up

G92 E0
G92 E0
G1 F2700 E-5
;LAYER_COUNT:19
;LAYER:-8
M107
G0 F9000 X147.992 Y24.816 Z0.24
;TYPE:SUPPORT-INTERFACE
G1 F2700 E0
G1 F900 X148.056 Y24.519 E0.02425
G1 X148.197 Y24.201 E0.05202
G1 X148.383 Y23.944 E0.07734
G1 X148.619 Y23.727 E0.10294
G1 X148.876 Y23.57 E0.12698
G1 X149.091 Y23.483 E0.14549
G1 X149.504 Y23.409 E0.17898
G1 X149.706 Y23.4 E0.19512
G1 X150.297 Y23.4 E0.2423
G1 X150.617 Y23.421 E0.2679
G1 X150.909 Y23.484 E0.29174
G1 X151.221 Y23.622 E0.31897
G1 X151.483 Y23.811 E0.34476
G1 X151.7 Y24.047 E0.37035
G1 X151.856 Y24.302 E0.39422
G1 X151.944 Y24.519 E0.41291
G1 X152.018 Y24.933 E0.44648
G1 X152.027 Y25.134 E0.46254
G1 X152.028 Y26.87 E0.60112
G1 X152.017 Y27.087 E0.61846
G1 X151.944 Y27.822 E0.67742
G1 X151.963 Y28.501 E0.73164
G1 X152.017 Y28.911 E0.76465
G1 X152.027 Y29.133 E0.78239
G1 X152.028 Y270.871 E20.07896
G1 X152.017 Y271.086 E20.09615
G1 X151.944 Y271.823 E20.15527
G1 X151.963 Y272.502 E20.20949
G1 X152.017 Y272.903 E20.24179
G1 X152.027 Y273.133 E20.26016
G1 X152.028 Y274.87 E20.39882
G1 X152.008 Y275.18 E20.42362
G1 X151.945 Y275.477 E20.44785
G1 X151.809 Y275.789 E20.47502
G1 X151.627 Y276.044 E20.50003
G1 X151.394 Y276.263 E20.52555
G1 X151.125 Y276.43 E20.55083
G1 X150.902 Y276.518 E20.56996
G1 X150.496 Y276.591 E20.60289
G1 X150.293 Y276.6 E20.61911
G1 X149.702 Y276.6 E20.66629
G1 X149.382 Y276.579 E20.69189
G1 X149.09 Y276.516 E20.71573
G1 X148.776 Y276.377 E20.74314
G1 X148.516 Y276.189 E20.76875
G1 X148.308 Y275.966 E20.7931
G1 X148.142 Y275.696 E20.8184
G1 X148.054 Y275.477 E20.83724
G1 X147.981 Y275.068 E20.8704
G1 X147.972 Y274.859 E20.8871
G1 X147.972 Y273.128 E21.02528
G1 X147.983 Y272.911 E21.04262
G1 X148.054 Y272.202 E21.0995
G1 X148.055 Y272.158 E21.10301
G1 X148.034 Y271.48 E21.15716
G1 X147.981 Y271.094 E21.18826
G1 X147.972 Y270.867 E21.20639
G1 X147.972 Y29.121 E40.5036
G1 X147.983 Y28.911 E40.52039
G1 X148.054 Y28.202 E40.57727
G1 X148.055 Y28.158 E40.58078
G1 X148.034 Y27.48 E40.63493
G1 X147.981 Y27.094 E40.66603
G1 X147.972 Y26.867 E40.68416
G1 X147.972 Y25.124 E40.8233
G1 X147.992 Y24.816 E40.84794
G0 F9000 X148.8 Y23.616
G1 F900 X148.8 Y276.387 E61.02521
G1 F2700 E56.02521
G1 F300 Z0.44
G0 F9000 X150.4 Y276.596 Z0.44
G1 F300 Z0.24
G1 F2700 E61.02521
G1 F900 X150.4 Y23.407 E81.23585
G1 F2700 E76.23585
G1 F300 Z0.44
G0 F9000 X152 Y24.833 Z0.44
G1 F300 Z0.24
G1 F2700 E81.23585
G1 F900 X152 Y27.259 E81.42951
G1 F2700 E76.42951
G1 F300 Z0.44
G0 F9000 X152 Y28.782 Z0.44
G1 F300 Z0.24
G1 F2700 E81.42951
G1 F900 X152 Y271.258 E100.78499
G1 F2700 E95.78499
G1 F300 Z0.44
G0 F9000 X152 Y272.777 Z0.44
G1 F300 Z0.24
G1 F2700 E100.78499
G1 F900 X152 Y275.218 E100.97984
G1 F2700 E95.97984
G1 F300 Z0.44
G0 F9000 X148.054 Y275.476 Z0.44
;TIME_ELAPSED:90.895063
;LAYER:-7
G0 X148.054 Y275.476 Z0.59
;TYPE:SUPPORT
G1 F300 Z0.39
G1 F2700 E100.97984
G1 F900 X148.067 Y275.523 E100.98227
G1 X148.141 Y275.695 E100.99161
G1 X148.198 Y275.806 E100.99784
G1 X148.308 Y275.965 E101.00748
G1 X148.39 Y276.067 E101.01401
G1 X148.515 Y276.188 E101.02269
G1 X148.624 Y276.28 E101.02981
G1 X148.775 Y276.376 E101.03874
G1 X148.889 Y276.438 E101.04521
G1 X149.089 Y276.514 E101.05588
G1 X149.2 Y276.548 E101.06168
G1 X149.282 Y276.561 E101.06582
G1 X148.022 Y275.301 E101.15472
G1 X147.98 Y275.067 E101.16658
G1 X147.971 Y274.858 E101.17702
G1 X147.971 Y273.837 E101.22795
G1 X150.69 Y276.555 E101.41976
G1 X150.902 Y276.516 E101.43051
G1 X150.951 Y276.504 E101.43303
G1 X151.124 Y276.429 E101.44244
G1 X151.233 Y276.373 E101.44855
G1 X151.394 Y276.262 E101.45831
G1 X151.491 Y276.184 E101.46452
G1 X151.61 Y276.061 E101.47306
G1 X148.026 Y272.477 E101.72593
G1 X148.054 Y272.2 E101.73982
G1 X148.054 Y272.157 E101.74196
G1 X148.034 Y271.479 E101.7758
G1 X147.98 Y271.093 E101.79525
G1 X147.976 Y271.013 E101.79924
G1 X152.019 Y275.056 E102.0845
G1 X152.027 Y274.869 E102.09384
G1 X152.027 Y273.65 E102.15465
G1 X147.971 Y269.593 E102.44086
G1 X147.971 Y268.179 E102.51141
G1 X151.953 Y272.161 E102.79236
G1 X151.943 Y271.822 E102.80928
G1 X152.017 Y271.085 E102.84623
G1 X152.027 Y270.869 E102.85702
G1 X152.027 Y270.821 E102.85941
G1 X147.971 Y266.765 E103.14559
G1 X147.971 Y265.351 E103.21613
G1 X152.027 Y269.407 E103.5023
G1 X152.027 Y267.993 E103.57285
G1 X147.971 Y263.936 E103.85906
G1 X147.971 Y262.522 E103.9296
G1 X152.027 Y266.579 E104.21581
G1 X152.027 Y265.165 E104.28635
G1 X147.971 Y261.108 E104.57256
G1 X147.971 Y259.694 E104.64311
G1 X152.027 Y263.75 E104.92928
G1 X152.027 Y262.336 E104.99982
G1 X147.971 Y258.279 E105.28603
G1 X147.971 Y256.865 E105.35658
G1 X152.027 Y260.922 E105.64278
G1 X152.027 Y259.508 E105.71333
G1 X147.971 Y255.451 E105.99954
G1 X147.971 Y254.037 E106.07008
G1 X152.027 Y258.093 E106.35626
G1 X152.027 Y256.679 E106.4268
G1 X147.971 Y252.623 E106.71297
G1 X147.971 Y251.208 E106.78357
G1 X152.027 Y255.265 E107.06978
G1 X152.027 Y253.851 E107.14032
G1 X147.971 Y249.794 E107.42653
G1 X147.971 Y248.38 E107.49707
G1 X152.027 Y252.437 E107.78328
G1 X152.027 Y251.022 E107.85388
G1 X147.971 Y246.966 E108.14005
G1 X147.971 Y245.552 E108.21059
G1 X152.027 Y249.608 E108.49677
G1 X152.027 Y248.194 E108.56731
G1 X147.971 Y244.137 E108.85352
G1 X147.971 Y242.723 E108.92406
G1 X152.027 Y246.78 E109.21027
G1 X152.027 Y245.366 E109.28082
G1 X147.971 Y241.309 E109.56702
G1 X147.971 Y239.895 E109.63757
G1 X152.027 Y243.951 E109.92374
G1 X152.027 Y242.537 E109.99429
G1 X147.971 Y238.48 E110.28049
G1 X147.971 Y237.066 E110.35104
G1 X152.027 Y241.123 E110.63725
G1 X152.027 Y239.709 E110.70779
G1 X147.971 Y235.652 E110.994
G1 X147.971 Y234.238 E111.06454
G1 X152.027 Y238.294 E111.35072
G1 X152.027 Y236.88 E111.42126
G1 X147.971 Y232.824 E111.70743
G1 X147.971 Y231.409 E111.77803
G1 X152.027 Y235.466 E112.06424
G1 X152.027 Y234.052 E112.13478
G1 X147.971 Y229.995 E112.42099
G1 X147.971 Y228.581 E112.49153
G1 X152.027 Y232.638 E112.77774
G1 X152.027 Y231.223 E112.84834
G1 X147.971 Y227.167 E113.13451
G1 X147.971 Y225.753 E113.20505
G1 X152.027 Y229.809 E113.49123
G1 X152.027 Y228.395 E113.56177
G1 X147.971 Y224.338 E113.84798
G1 X147.971 Y222.924 E113.91852
G1 X152.027 Y226.981 E114.20473
G1 X152.027 Y225.567 E114.27528
G1 X147.971 Y221.51 E114.56149
G1 X147.971 Y220.096 E114.63203
G1 X152.027 Y224.152 E114.9182
G1 X152.027 Y222.738 E114.98875
G1 X147.971 Y218.681 E115.27496
G1 X147.971 Y217.267 E115.3455
G1 X152.027 Y221.324 E115.63171
G1 X152.027 Y219.91 E115.70225
G1 X147.971 Y215.853 E115.98846
G1 X147.971 Y214.439 E116.05901
G1 X152.027 Y218.495 E116.34518
G1 X152.027 Y217.081 E116.41572
G1 X147.971 Y213.025 E116.7019
G1 X147.971 Y211.61 E116.77249
G1 X152.027 Y215.667 E117.0587
G1 X152.027 Y214.253 E117.12924
G1 X147.971 Y210.196 E117.41545
G1 X147.971 Y208.782 E117.486
G1 X152.027 Y212.839 E117.7722
G1 X152.027 Y211.424 E117.8428
G1 X147.971 Y207.368 E118.12897
G1 X147.971 Y205.954 E118.19952
G1 X152.027 Y210.01 E118.48569
G1 X152.027 Y208.596 E118.55623
G1 X147.971 Y204.539 E118.84244
G1 X147.971 Y203.125 E118.91299
G1 X152.027 Y207.182 E119.19919
G1 X152.027 Y205.768 E119.26974
G1 X147.971 Y201.711 E119.55595
G1 X147.971 Y200.297 E119.62649
G1 X152.027 Y204.353 E119.91266
G1 X152.027 Y202.939 E119.98321
G1 X147.971 Y198.882 E120.26942
G1 X147.971 Y197.468 E120.33996
G1 X152.027 Y201.525 E120.62617
G1 X152.027 Y200.111 E120.69671
G1 X147.971 Y196.054 E120.98292
G1 X147.971 Y194.64 E121.05347
G1 X152.027 Y198.697 E121.33968
G1 X152.027 Y197.282 E121.41027
G1 X147.971 Y193.226 E121.69644
G1 X147.971 Y191.811 E121.76704
G1 X152.027 Y195.868 E122.05325
G1 X152.027 Y194.454 E122.12379
G1 X147.971 Y190.397 E122.41
G1 X147.971 Y188.983 E122.48054
G1 X152.027 Y193.04 E122.76675
G1 X152.027 Y191.625 E122.83735
G1 X147.971 Y187.569 E123.12352
G1 X147.971 Y186.155 E123.19406
G1 X152.027 Y190.211 E123.48024
G1 X152.027 Y188.797 E123.55078
G1 X147.971 Y184.74 E123.83699
G1 X147.971 Y183.326 E123.90753
G1 X152.027 Y187.383 E124.19374
G1 X152.027 Y185.969 E124.26429
G1 X147.971 Y181.912 E124.55049
G1 X147.971 Y180.498 E124.62104
G1 X152.027 Y184.554 E124.90721
G1 X152.027 Y183.14 E124.97776
G1 X147.971 Y179.083 E125.26396
G1 X147.971 Y177.669 E125.33451
G1 X152.027 Y181.726 E125.62072
G1 X152.027 Y180.312 E125.69126
G1 X147.971 Y176.255 E125.97747
G1 X147.971 Y174.841 E126.04801
G1 X152.027 Y178.898 E126.33422
G1 X152.027 Y177.483 E126.40482
G1 X147.971 Y173.427 E126.69099
G1 X147.971 Y172.012 E126.76158
G1 X152.027 Y176.069 E127.04779
G1 X152.027 Y174.655 E127.11834
G1 X147.971 Y170.598 E127.40454
G1 X147.971 Y169.184 E127.47509
G1 X152.027 Y173.241 E127.7613
G1 X152.027 Y171.826 E127.83189
G1 X147.971 Y167.77 E128.11806
G1 X147.971 Y166.356 E128.18861
G1 X152.027 Y170.412 E128.47478
G1 X152.027 Y168.998 E128.54533
G1 X147.971 Y164.941 E128.83154
G1 X147.971 Y163.527 E128.90208
G1 X152.027 Y167.584 E129.18829
G1 X152.027 Y166.17 E129.25883
G1 X147.971 Y162.113 E129.54504
G1 X147.971 Y160.699 E129.61559
G1 X152.027 Y164.755 E129.90176
G1 X152.027 Y163.341 E129.9723
G1 X147.971 Y159.284 E130.25851
G1 X147.971 Y157.87 E130.32906
G1 X152.027 Y161.927 E130.61526
G1 X152.027 Y160.513 E130.68581
G1 X147.971 Y156.456 E130.97202
G1 X147.971 Y155.042 E131.04256
G1 X152.027 Y159.099 E131.32877
G1 X152.027 Y157.684 E131.39936
G1 X147.971 Y153.628 E131.68554
G1 X147.971 Y152.213 E131.75613
G1 X152.027 Y156.27 E132.04234
G1 X152.027 Y154.856 E132.11288
G1 X147.971 Y150.799 E132.39909
G1 X147.971 Y149.385 E132.46964
G1 X152.027 Y153.442 E132.75584
G1 X152.027 Y152.027 E132.82644
G1 X147.971 Y147.971 E133.11261
G1 X147.971 Y146.557 E133.18316
G1 X152.027 Y150.613 E133.46933
G1 X152.027 Y149.198 E133.53992
G1 X147.971 Y145.142 E133.8261
G1 X147.971 Y143.728 E133.89664
G1 X152.027 Y147.784 E134.18281
G1 X152.027 Y146.37 E134.25336
G1 X147.971 Y142.314 E134.53953
G1 X147.971 Y140.9 E134.61008
G1 X152.027 Y144.956 E134.89625
G1 X152.027 Y143.541 E134.96684
G1 X147.971 Y139.486 E135.25298
G1 X147.971 Y138.071 E135.32358
G1 X152.027 Y142.127 E135.60975
G1 X152.027 Y140.713 E135.68029
G1 X147.971 Y136.657 E135.96647
G1 X147.971 Y135.243 E136.03701
G1 X152.027 Y139.299 E136.32318
G1 X152.027 Y137.885 E136.39373
G1 X147.971 Y133.829 E136.6799
G1 X147.971 Y132.414 E136.7505
G1 X152.027 Y136.47 E137.03667
G1 X152.027 Y135.056 E137.10721
G1 X147.971 Y131 E137.39339
G1 X147.971 Y129.586 E137.46393
G1 X152.027 Y133.642 E137.7501
G1 X152.027 Y132.228 E137.82065
G1 X147.971 Y128.172 E138.10682
G1 X147.971 Y126.758 E138.17737
G1 X152.027 Y130.814 E138.46354
G1 X152.027 Y129.399 E138.53413
G1 X147.971 Y125.343 E138.82031
G1 X147.971 Y123.929 E138.89085
G1 X152.027 Y127.985 E139.17702
G1 X152.027 Y126.571 E139.24757
G1 X147.971 Y122.515 E139.53374
G1 X147.971 Y121.101 E139.60428
G1 X152.027 Y125.157 E139.89046
G1 X152.027 Y123.742 E139.96105
G1 X147.971 Y119.687 E140.24719
G1 X147.971 Y118.272 E140.31778
G1 X152.027 Y122.328 E140.60396
G1 X152.027 Y120.914 E140.6745
G1 X147.971 Y116.858 E140.96067
G1 X147.971 Y115.444 E141.03122
G1 X152.027 Y119.5 E141.31739
G1 X152.027 Y118.086 E141.38794
G1 X147.971 Y114.03 E141.67411
G1 X147.971 Y112.615 E141.7447
G1 X152.027 Y116.671 E142.03088
G1 X152.027 Y115.257 E142.10142
G1 X147.971 Y111.201 E142.38759
G1 X147.971 Y109.787 E142.45814
G1 X152.027 Y113.843 E142.74431
G1 X152.027 Y112.429 E142.81486
G1 X147.971 Y108.373 E143.10103
G1 X147.971 Y106.959 E143.17157
G1 X152.027 Y111.015 E143.45775
G1 X152.027 Y109.6 E143.52834
G1 X147.971 Y105.544 E143.81451
G1 X147.971 Y104.13 E143.88506
G1 X152.027 Y108.186 E144.17123
G1 X152.027 Y106.772 E144.24178
G1 X147.971 Y102.716 E144.52795
G1 X147.971 Y101.302 E144.59849
G1 X152.027 Y105.358 E144.88467
G1 X152.027 Y103.943 E144.95526
G1 X147.971 Y99.888 E145.2414
G1 X147.971 Y98.473 E145.31199
G1 X152.027 Y102.529 E145.59817
G1 X152.027 Y101.115 E145.66871
G1 X147.971 Y97.059 E145.95488
G1 X147.971 Y95.645 E146.02543
G1 X152.027 Y99.701 E146.3116
G1 X152.027 Y98.287 E146.38215
G1 X147.971 Y94.231 E146.66832
G1 X147.971 Y92.816 E146.73891
G1 X152.027 Y96.872 E147.02509
G1 X152.027 Y95.458 E147.09563
G1 X147.971 Y91.402 E147.3818
G1 X147.971 Y89.988 E147.45235
G1 X152.027 Y94.044 E147.73852
G1 X152.027 Y92.63 E147.80906
G1 X147.971 Y88.574 E148.09524
G1 X147.971 Y87.16 E148.16578
G1 X152.027 Y91.216 E148.45196
G1 X152.027 Y89.801 E148.52255
G1 X147.971 Y85.745 E148.80872
G1 X147.971 Y84.331 E148.87927
G1 X152.027 Y88.387 E149.16544
G1 X152.027 Y86.973 E149.23598
G1 X147.971 Y82.917 E149.52216
G1 X147.971 Y81.503 E149.5927
G1 X152.027 Y85.559 E149.87887
G1 X152.027 Y84.144 E149.94947
G1 X147.971 Y80.089 E150.23561
G1 X147.971 Y78.674 E150.3062
G1 X152.027 Y82.73 E150.59237
G1 X152.027 Y81.316 E150.66292
G1 X147.971 Y77.26 E150.94909
G1 X147.971 Y75.846 E151.01964
G1 X152.027 Y79.902 E151.30581
G1 X152.027 Y78.488 E151.37635
G1 X147.971 Y74.432 E151.66253
G1 X147.971 Y73.017 E151.73312
G1 X152.027 Y77.073 E152.01929
G1 X152.027 Y75.659 E152.08984
G1 X147.971 Y71.603 E152.37601
G1 X147.971 Y70.189 E152.44656
G1 X152.027 Y74.245 E152.73273
G1 X152.027 Y72.831 E152.80327
G1 X147.971 Y68.775 E153.08945
G1 X147.971 Y67.361 E153.15999
G1 X152.027 Y71.417 E153.44616
G1 X152.027 Y70.002 E153.51676
G1 X147.971 Y65.946 E153.80293
G1 X147.971 Y64.532 E153.87348
G1 X152.027 Y68.588 E154.15965
G1 X152.027 Y67.174 E154.23019
G1 X147.971 Y63.118 E154.51637
G1 X147.971 Y61.704 E154.58691
G1 X152.027 Y65.76 E154.87308
G1 X152.027 Y64.346 E154.94363
G1 X147.971 Y60.29 E155.2298
G1 X147.971 Y58.875 E155.3004
G1 X152.027 Y62.931 E155.58657
G1 X152.027 Y61.517 E155.65711
G1 X147.971 Y57.461 E155.94329
G1 X147.971 Y56.047 E156.01383
G1 X152.027 Y60.103 E156.3
G1 X152.027 Y58.689 E156.37055
G1 X147.971 Y54.633 E156.65672
G1 X147.971 Y53.218 E156.72732
G1 X152.027 Y57.274 E157.01349
G1 X152.027 Y55.86 E157.08403
G1 X147.971 Y51.804 E157.37021
G1 X147.971 Y50.39 E157.44075
G1 X152.027 Y54.446 E157.72692
G1 X152.027 Y53.032 E157.79747
G1 X147.971 Y48.976 E158.08364
G1 X147.971 Y47.562 E158.15419
G1 X152.027 Y51.618 E158.44036
G1 X152.027 Y50.203 E158.51095
G1 X147.971 Y46.147 E158.79713
G1 X147.971 Y44.733 E158.86767
G1 X152.027 Y48.789 E159.15384
G1 X152.027 Y47.375 E159.22439
G1 X147.971 Y43.319 E159.51056
G1 X147.971 Y41.905 E159.5811
G1 X152.027 Y45.961 E159.86728
G1 X152.027 Y44.547 E159.93782
G1 X147.971 Y40.491 E160.22399
G1 X147.971 Y39.076 E160.29459
G1 X152.027 Y43.132 E160.58076
G1 X152.027 Y41.718 E160.65131
G1 X147.971 Y37.662 E160.93748
G1 X147.971 Y36.248 E161.00802
G1 X152.027 Y40.304 E161.2942
G1 X152.027 Y38.89 E161.36474
G1 X147.971 Y34.834 E161.65091
G1 X147.971 Y33.419 E161.72151
G1 X152.027 Y37.475 E162.00768
G1 X152.027 Y36.061 E162.07823
G1 X147.971 Y32.005 E162.3644
G1 X147.971 Y30.591 E162.43494
G1 X152.027 Y34.647 E162.72112
G1 X152.027 Y33.233 E162.79166
G1 X147.971 Y29.177 E163.07783
G1 X147.971 Y29.12 E163.08068
G1 X147.981 Y28.91 E163.09117
G1 X148.053 Y28.201 E163.12672
G1 X148.054 Y28.158 E163.12887
G1 X148.044 Y27.835 E163.14499
G1 X152.027 Y31.819 E163.42605
G1 X152.027 Y30.404 E163.49664
G1 X147.971 Y26.348 E163.78281
G1 X147.971 Y25.124 E163.84388
G1 X147.979 Y24.943 E163.85292
G1 X152.02 Y28.983 E164.138
G1 X152.016 Y28.91 E164.14164
