;FLAVOR:Marlin
;TIME:1737
;Filament used: 0.627382m
;Layer height: 0.1
;MINX:147.771
;MINY:18.199
;MINZ:0.24
;MAXX:152.228
;MAXY:281.8
;MAXZ:2.94
;Generated with Cura_SteamEngine 4.12.1
M140 S50
M105
M190 S50
M104 S235
M105
M109 S235
M82 ;absolute extrusion mode
M201 X500.00 Y500.00 Z100.00 E5000.00 ;Setup machine max acceleration
M203 X500.00 Y500.00 Z10.00 E50.00 ;Setup machine max feedrate
M204 P500.00 R1000.00 T500.00 ;Setup Print/Retract/Travel acceleration
M205 X8.00 Y8.00 Z0.40 E5.00 ;Setup Jerk
M220 S100 ;Reset Feedrate
M221 S100 ;Reset Flowrate

G28 ;Home

G92 E0 ;Reset Extruder
G1 Z2.0 F3000 ;Move Z Axis up
G1 X10.1 Y20 Z0.28 F5000.0 ;Move to start position
G1 X10.1 Y200.0 Z0.28 F1500.0 E15 ;Draw the first line
G1 X10.4 Y200.0 Z0.28 F5000.0 ;Move to side a little
G1 X10.4 Y20 Z0.28 F1500.0 E30 ;Draw the second line
G92 E0 ;Reset Extruder
G1 Z2.0 F3000 ;Move Z Axis up

G92 E0
G92 E0
G1 F2700 E-5
;LAYER_COUNT:19
;LAYER:-8
M107
G0 F9000 X147.992 Y19.816 Z0.24
;TYPE:SUPPORT-INTERFACE
G1 F2700 E0
G1 F900 X148.056 Y19.519 E0.02425
G1 X148.197 Y19.201 E0.05202
G1 X148.383 Y18.944 E0.07734
G1 X148.619 Y18.727 E0.10294
G1 X148.876 Y18.57 E0.12698
G1 X149.091 Y18.483 E0.14549
G1 X149.504 Y18.409 E0.17898
G1 X149.706 Y18.4 E0.19512
G1 X150.297 Y18.4 E0.2423
G1 X150.617 Y18.421 E0.2679
G1 X150.909 Y18.484 E0.29174
G1 X151.221 Y18.622 E0.31897
G1 X151.483 Y18.811 E0.34476
G1 X151.7 Y19.047 E0.37035
G1 X151.856 Y19.302 E0.39422
G1 X151.944 Y19.519 E0.41291
G1 X152.018 Y19.933 E0.44648
G1 X152.027 Y20.134 E0.46254
G1 X152.028 Y21.87 E0.60112
G1 X152.017 Y22.087 E0.61846
G1 X151.944 Y22.822 E0.67742
G1 X151.963 Y23.501 E0.73164
G1 X152.017 Y23.911 E0.76465
G1 X152.027 Y24.133 E0.78239
G1 X152.028 Y275.871 E20.87721
G1 X152.017 Y276.086 E20.89439
G1 X151.944 Y276.823 E20.95351
G1 X151.963 Y277.502 E21.00773
G1 X152.017 Y277.903 E21.04003
G1 X152.027 Y278.133 E21.05841
G1 X152.028 Y279.87 E21.19706
G1 X152.008 Y280.18 E21.22186
G1 X151.945 Y280.477 E21.24609
G1 X151.809 Y280.789 E21.27326
G1 X151.627 Y281.044 E21.29827
G1 X151.394 Y281.263 E21.3238
G1 X151.125 Y281.43 E21.34907
G1 X150.902 Y281.518 E21.36821
G1 X150.496 Y281.591 E21.40113
G1 X150.293 Y281.6 E21.41735
G1 X149.702 Y281.6 E21.46453
G1 X149.382 Y281.579 E21.49013
G1 X149.09 Y281.516 E21.51397
G1 X148.776 Y281.377 E21.54139
G1 X148.516 Y281.189 E21.567
G1 X148.308 Y280.966 E21.59134
G1 X148.142 Y280.696 E21.61664
G1 X148.054 Y280.477 E21.63548
G1 X147.981 Y280.068 E21.66864
G1 X147.972 Y279.859 E21.68534
G1 X147.972 Y278.128 E21.82352
G1 X147.983 Y277.911 E21.84086
G1 X148.054 Y277.202 E21.89774
G1 X148.055 Y277.158 E21.90125
G1 X148.034 Y276.48 E21.9554
G1 X147.981 Y276.094 E21.9865
G1 X147.972 Y275.867 E22.00464
G1 X147.972 Y24.121 E42.10009
G1 X147.983 Y23.911 E42.11688
G1 X148.054 Y23.202 E42.17376
G1 X148.055 Y23.158 E42.17727
G1 X148.034 Y22.48 E42.23142
G1 X147.981 Y22.094 E42.26252
G1 X147.972 Y21.867 E42.28065
G1 X147.972 Y20.124 E42.41979
G1 X147.992 Y19.816 E42.44442
G0 F9000 X148.8 Y18.616
G1 F900 X148.8 Y281.387 E63.41994
G1 F2700 E58.41994
G1 F300 Z0.44
G0 F9000 X150.4 Y281.596 Z0.44
G1 F300 Z0.24
G1 F2700 E63.41994
G1 F900 X150.4 Y18.407 E84.42882
G1 F2700 E79.42882
G1 F300 Z0.44
G0 F9000 X152 Y19.833 Z0.44
G1 F300 Z0.24
G1 F2700 E84.42882
G1 F900 X152 Y22.259 E84.62248
G1 F2700 E79.62248
G1 F300 Z0.44
G0 F9000 X152 Y23.782 Z0.44
G1 F300 Z0.24
G1 F2700 E84.62248
G1 F900 X152 Y276.258 E104.7762
G1 F2700 E99.7762
G1 F300 Z0.44
G0 F9000 X152 Y277.777 Z0.44
G1 F300 Z0.24
G1 F2700 E104.7762
G1 F900 X152 Y280.218 E104.97106
G1 F2700 E99.97106
G1 F300 Z0.44
G0 F9000 X150.077 Y281.598 Z0.44
;TIME_ELAPSED:94.198630
;LAYER:-7
G0 X150.077 Y281.598 Z0.59
;TYPE:SUPPORT
G1 F300 Z0.39
G1 F2700 E104.97106
G1 F900 X150.292 Y281.599 E104.98178
G1 X150.495 Y281.59 E104.99192
G1 X150.902 Y281.517 E105.01255
G1 X150.951 Y281.504 E105.01508
G1 X151.124 Y281.429 E105.02449
G1 X151.234 Y281.373 E105.03064
G1 X151.252 Y281.359 E105.03178
G1 X147.974 Y278.081 E105.26306
G1 X147.983 Y277.909 E105.27165
G1 X148.054 Y277.201 E105.30715
G1 X148.054 Y277.156 E105.3094
G1 X148.041 Y276.734 E105.33046
G1 X151.9 Y280.594 E105.60277
G1 X151.945 Y280.476 E105.60907
G1 X151.974 Y280.378 E105.61417
G1 X152.008 Y280.179 E105.62424
G1 X152.016 Y280.086 E105.6289
G1 X152.028 Y279.869 E105.63974
G1 X152.028 Y279.307 E105.66778
G1 X147.971 Y275.25 E105.95402
G1 X147.971 Y273.836 E106.02457
G1 X152.014 Y277.879 E106.30982
G1 X151.962 Y277.501 E106.32886
G1 X151.944 Y276.822 E106.36275
G1 X151.982 Y276.433 E106.38225
G1 X147.971 Y272.422 E106.66524
G1 X147.971 Y271.007 E106.73584
G1 X152.027 Y275.064 E107.02205
G1 X152.027 Y273.65 E107.09259
G1 X147.971 Y269.593 E107.3788
G1 X147.971 Y268.179 E107.44934
G1 X152.027 Y272.236 E107.73555
G1 X152.027 Y270.821 E107.80615
G1 X147.971 Y266.765 E108.09232
G1 X147.971 Y265.351 E108.16287
G1 X152.027 Y269.407 E108.44904
G1 X152.027 Y267.993 E108.51958
G1 X147.971 Y263.936 E108.80579
G1 X147.971 Y262.522 E108.87634
G1 X152.027 Y266.579 E109.16254
G1 X152.027 Y265.165 E109.23309
G1 X147.971 Y261.108 E109.5193
G1 X147.971 Y259.694 E109.58984
G1 X152.027 Y263.75 E109.87601
G1 X152.027 Y262.336 E109.94656
G1 X147.971 Y258.279 E110.23277
G1 X147.971 Y256.865 E110.30331
G1 X152.027 Y260.922 E110.58952
G1 X152.027 Y259.508 E110.66006
G1 X147.971 Y255.451 E110.94627
G1 X147.971 Y254.037 E111.01682
G1 X152.027 Y258.093 E111.30299
G1 X152.027 Y256.679 E111.37353
G1 X147.971 Y252.623 E111.65971
G1 X147.971 Y251.208 E111.7303
G1 X152.027 Y255.265 E112.01651
G1 X152.027 Y253.851 E112.08705
G1 X147.971 Y249.794 E112.37326
G1 X147.971 Y248.38 E112.44381
G1 X152.027 Y252.437 E112.73001
G1 X152.027 Y251.022 E112.80061
G1 X147.971 Y246.966 E113.08678
G1 X147.971 Y245.552 E113.15733
G1 X152.027 Y249.608 E113.4435
G1 X152.027 Y248.194 E113.51404
G1 X147.971 Y244.137 E113.80025
G1 X147.971 Y242.723 E113.8708
G1 X152.027 Y246.78 E114.157
G1 X152.027 Y245.366 E114.22755
G1 X147.971 Y241.309 E114.51376
G1 X147.971 Y239.895 E114.5843
G1 X152.027 Y243.951 E114.87048
G1 X152.027 Y242.537 E114.94102
G1 X147.971 Y238.48 E115.22723
G1 X147.971 Y237.066 E115.29777
G1 X152.027 Y241.123 E115.58398
G1 X152.027 Y239.709 E115.65453
G1 X147.971 Y235.652 E115.94073
G1 X147.971 Y234.238 E116.01128
G1 X152.027 Y238.294 E116.29745
G1 X152.027 Y236.88 E116.368
G1 X147.971 Y232.824 E116.65417
G1 X147.971 Y231.409 E116.72476
G1 X152.027 Y235.466 E117.01097
G1 X152.027 Y234.052 E117.08152
G1 X147.971 Y229.995 E117.36772
G1 X147.971 Y228.581 E117.43827
G1 X152.027 Y232.638 E117.72448
G1 X152.027 Y231.223 E117.79507
G1 X147.971 Y227.167 E118.08124
G1 X147.971 Y225.753 E118.15179
G1 X152.027 Y229.809 E118.43796
G1 X152.027 Y228.395 E118.50851
G1 X147.971 Y224.338 E118.79471
G1 X147.971 Y222.924 E118.86526
G1 X152.027 Y226.981 E119.15147
G1 X152.027 Y225.567 E119.22201
G1 X147.971 Y221.51 E119.50822
G1 X147.971 Y220.096 E119.57876
G1 X152.027 Y224.152 E119.86494
G1 X152.027 Y222.738 E119.93548
G1 X147.971 Y218.681 E120.22169
G1 X147.971 Y217.267 E120.29223
G1 X152.027 Y221.324 E120.57844
G1 X152.027 Y219.91 E120.64899
G1 X147.971 Y215.853 E120.93519
G1 X147.971 Y214.439 E121.00574
G1 X152.027 Y218.495 E121.29191
G1 X152.027 Y217.081 E121.36246
G1 X147.971 Y213.025 E121.64863
G1 X147.971 Y211.61 E121.71922
G1 X152.027 Y215.667 E122.00543
G1 X152.027 Y214.253 E122.07598
G1 X147.971 Y210.196 E122.36219
G1 X147.971 Y208.782 E122.43273
G1 X152.027 Y212.839 E122.71894
G1 X152.027 Y211.424 E122.78953
G1 X147.971 Y207.368 E123.07571
G1 X147.971 Y205.954 E123.14625
G1 X152.027 Y210.01 E123.43242
G1 X152.027 Y208.596 E123.50297
G1 X147.971 Y204.539 E123.78918
G1 X147.971 Y203.125 E123.85972
G1 X152.027 Y207.182 E124.14593
G1 X152.027 Y205.768 E124.21647
G1 X147.971 Y201.711 E124.50268
G1 X147.971 Y200.297 E124.57323
G1 X152.027 Y204.353 E124.8594
G1 X152.027 Y202.939 E124.92994
G1 X147.971 Y198.882 E125.21615
G1 X147.971 Y197.468 E125.2867
G1 X152.027 Y201.525 E125.5729
G1 X152.027 Y200.111 E125.64345
G1 X147.971 Y196.054 E125.92966
G1 X147.971 Y194.64 E126.0002
G1 X152.027 Y198.697 E126.28641
G1 X152.027 Y197.282 E126.357
G1 X147.971 Y193.226 E126.64318
G1 X147.971 Y191.811 E126.71377
G1 X152.027 Y195.868 E126.99998
G1 X152.027 Y194.454 E127.07052
G1 X147.971 Y190.397 E127.35673
G1 X147.971 Y188.983 E127.42728
G1 X152.027 Y193.04 E127.71348
G1 X152.027 Y191.625 E127.78408
G1 X147.971 Y187.569 E128.07025
G1 X147.971 Y186.155 E128.1408
G1 X152.027 Y190.211 E128.42697
G1 X152.027 Y188.796 E128.49756
G1 X147.971 Y184.74 E128.78374
G1 X147.971 Y183.326 E128.85428
G1 X152.027 Y187.382 E129.14045
G1 X152.027 Y185.968 E129.211
G1 X147.971 Y181.912 E129.49717
G1 X147.971 Y180.498 E129.56772
G1 X152.027 Y184.554 E129.85389
G1 X152.027 Y183.139 E129.92448
G1 X147.971 Y179.083 E130.21066
G1 X147.971 Y177.669 E130.2812
G1 X152.027 Y181.725 E130.56737
G1 X152.027 Y180.311 E130.63792
G1 X147.971 Y176.255 E130.92409
G1 X147.971 Y174.841 E130.99464
G1 X152.027 Y178.897 E131.28081
G1 X152.027 Y177.483 E131.35135
G1 X147.971 Y173.427 E131.63753
G1 X147.971 Y172.012 E131.70812
G1 X152.027 Y176.068 E131.99429
G1 X152.027 Y174.654 E132.06484
G1 X147.971 Y170.598 E132.35101
G1 X147.971 Y169.184 E132.42156
G1 X152.027 Y173.24 E132.70773
G1 X152.027 Y171.826 E132.77827
G1 X147.971 Y167.77 E133.06445
G1 X147.971 Y166.356 E133.13499
G1 X152.027 Y170.412 E133.42116
G1 X152.027 Y168.997 E133.49176
G1 X147.971 Y164.941 E133.77793
G1 X147.971 Y163.527 E133.84848
G1 X152.027 Y167.583 E134.13465
G1 X152.027 Y166.169 E134.20519
G1 X147.971 Y162.113 E134.49137
G1 X147.971 Y160.699 E134.56191
G1 X152.027 Y164.755 E134.84808
G1 X152.027 Y163.34 E134.91868
G1 X147.971 Y159.284 E135.20485
G1 X147.971 Y157.87 E135.2754
G1 X152.027 Y161.926 E135.56157
G1 X152.027 Y160.512 E135.63211
G1 X147.971 Y156.456 E135.91829
G1 X147.971 Y155.042 E135.98883
G1 X152.027 Y159.098 E136.275
G1 X152.027 Y157.684 E136.34555
G1 X147.971 Y153.628 E136.63172
G1 X147.971 Y152.213 E136.70232
G1 X152.027 Y156.269 E136.98849
G1 X152.027 Y154.855 E137.05903
G1 X147.971 Y150.799 E137.34521
G1 X147.971 Y149.385 E137.41575
G1 X152.027 Y153.441 E137.70192
G1 X152.027 Y152.027 E137.77247
G1 X147.971 Y147.971 E138.05864
G1 X147.971 Y146.557 E138.12918
G1 X152.027 Y150.613 E138.41536
G1 X152.027 Y149.198 E138.48595
G1 X147.971 Y145.142 E138.77212
G1 X147.971 Y143.728 E138.84267
G1 X152.027 Y147.784 E139.12884
G1 X152.027 Y146.37 E139.19939
G1 X147.971 Y142.314 E139.48556
G1 X147.971 Y140.9 E139.5561
G1 X152.027 Y144.956 E139.84228
G1 X152.027 Y143.541 E139.91287
G1 X147.971 Y139.486 E140.19901
G1 X147.971 Y138.071 E140.2696
G1 X152.027 Y142.127 E140.55578
G1 X152.027 Y140.713 E140.62632
G1 X147.971 Y136.657 E140.91249
G1 X147.971 Y135.243 E140.98304
G1 X152.027 Y139.299 E141.26921
G1 X152.027 Y137.885 E141.33976
G1 X147.971 Y133.829 E141.62593
G1 X147.971 Y132.414 E141.69652
G1 X152.027 Y136.47 E141.9827
G1 X152.027 Y135.056 E142.05324
G1 X147.971 Y131 E142.33941
G1 X147.971 Y129.586 E142.40996
G1 X152.027 Y133.642 E142.69613
G1 X152.027 Y132.228 E142.76668
G1 X147.971 Y128.172 E143.05285
G1 X147.971 Y126.758 E143.12339
G1 X152.027 Y130.814 E143.40957
G1 X152.027 Y129.399 E143.48016
G1 X147.971 Y125.343 E143.76633
G1 X147.971 Y123.929 E143.83688
G1 X152.027 Y127.985 E144.12305
G1 X152.027 Y126.571 E144.1936
G1 X147.971 Y122.515 E144.47977
G1 X147.971 Y121.101 E144.55031
G1 X152.027 Y125.157 E144.83649
G1 X152.027 Y123.742 E144.90708
G1 X147.971 Y119.687 E145.19322
G1 X147.971 Y118.272 E145.26381
G1 X152.027 Y122.328 E145.54999
G1 X152.027 Y120.914 E145.62053
G1 X147.971 Y116.858 E145.9067
G1 X147.971 Y115.444 E145.97725
G1 X152.027 Y119.5 E146.26342
G1 X152.027 Y118.086 E146.33396
G1 X147.971 Y114.03 E146.62014
G1 X147.971 Y112.615 E146.69073
G1 X152.027 Y116.671 E146.9769
G1 X152.027 Y115.257 E147.04745
G1 X147.971 Y111.201 E147.33362
G1 X147.971 Y109.787 E147.40417
G1 X152.027 Y113.843 E147.69034
G1 X152.027 Y112.429 E147.76088
G1 X147.971 Y108.373 E148.04706
G1 X147.971 Y106.959 E148.1176
G1 X152.027 Y111.015 E148.40377
G1 X152.027 Y109.6 E148.47437
G1 X147.971 Y105.544 E148.76054
G1 X147.971 Y104.13 E148.83109
G1 X152.027 Y108.186 E149.11726
G1 X152.026 Y106.771 E149.18785
G1 X147.971 Y102.716 E149.47396
G1 X147.971 Y101.302 E149.5445
G1 X152.026 Y105.357 E149.8306
G1 X152.026 Y103.943 E149.90115
G1 X147.971 Y99.888 E150.18725
G1 X147.971 Y98.473 E150.25784
G1 X152.026 Y102.529 E150.54398
G1 X152.026 Y101.114 E150.61458
G1 X147.971 Y97.059 E150.90068
G1 X147.971 Y95.645 E150.97122
G1 X152.026 Y99.7 E151.25733
G1 X152.026 Y98.286 E151.32787
G1 X147.971 Y94.231 E151.61397
G1 X147.971 Y92.816 E151.68457
G1 X152.026 Y96.872 E151.9707
G1 X152.026 Y95.458 E152.04125
G1 X147.971 Y91.402 E152.32739
G1 X147.971 Y89.988 E152.39793
G1 X152.026 Y94.043 E152.68403
G1 X152.026 Y92.629 E152.75458
G1 X147.971 Y88.574 E153.04068
G1 X147.971 Y87.16 E153.11123
G1 X152.026 Y91.215 E153.39733
G1 X152.026 Y89.801 E153.46787
G1 X147.971 Y85.745 E153.75401
G1 X147.971 Y84.331 E153.82455
G1 X152.026 Y88.386 E154.11066
G1 X152.026 Y86.972 E154.1812
G1 X147.971 Y82.917 E154.4673
G1 X147.971 Y81.503 E154.53785
G1 X152.026 Y85.558 E154.82395
G1 X152.026 Y84.144 E154.8945
G1 X147.971 Y80.089 E155.1806
G1 X147.971 Y78.674 E155.25119
G1 X152.026 Y82.73 E155.53733
G1 X152.026 Y81.315 E155.60792
G1 X147.971 Y77.26 E155.89403
G1 X147.971 Y75.846 E155.96457
G1 X152.026 Y79.901 E156.25067
G1 X152.026 Y78.487 E156.32122
G1 X147.971 Y74.432 E156.60732
G1 X147.971 Y73.017 E156.67791
G1 X152.026 Y77.073 E156.96405
G1 X152.026 Y75.659 E157.0346
G1 X147.971 Y71.603 E157.32073
G1 X147.971 Y70.189 E157.39128
G1 X152.026 Y74.244 E157.67738
G1 X152.026 Y72.83 E157.74793
G1 X147.971 Y68.775 E158.03403
G1 X147.971 Y67.361 E158.10457
G1 X152.026 Y71.416 E158.39068
G1 X152.026 Y70.002 E158.46122
G1 X147.971 Y65.946 E158.74736
G1 X147.971 Y64.532 E158.8179
G1 X152.026 Y68.587 E159.104
G1 X152.026 Y67.173 E159.17455
G1 X147.971 Y63.118 E159.46065
G1 X147.971 Y61.704 E159.5312
G1 X152.026 Y65.759 E159.8173
G1 X152.026 Y64.345 E159.88784
G1 X147.971 Y60.29 E160.17394
G1 X147.971 Y58.875 E160.24454
G1 X152.026 Y62.931 E160.53068
G1 X152.026 Y61.516 E160.60127
G1 X147.971 Y57.461 E160.88737
G1 X147.971 Y56.047 E160.95792
G1 X152.026 Y60.102 E161.24402
G1 X152.026 Y58.688 E161.31457
G1 X147.971 Y54.633 E161.60067
G1 X147.971 Y53.218 E161.67126
G1 X152.026 Y57.274 E161.9574
G1 X152.026 Y55.86 E162.02794
G1 X147.971 Y51.804 E162.31408
G1 X147.971 Y50.39 E162.38463
G1 X152.026 Y54.445 E162.67073
G1 X152.026 Y53.031 E162.74127
G1 X147.971 Y48.976 E163.02738
G1 X147.971 Y47.562 E163.09792
G1 X152.026 Y51.617 E163.38402
G1 X152.026 Y50.203 E163.45457
G1 X147.971 Y46.147 E163.7407
G1 X147.971 Y44.733 E163.81125
G1 X152.026 Y48.788 E164.09735
G1 X152.026 Y47.374 E164.1679
G1 X147.971 Y43.319 E164.454
G1 X147.971 Y41.905 E164.52454
G1 X152.026 Y45.96 E164.81065
G1 X152.026 Y44.546 E164.88119
G1 X147.971 Y40.491 E165.16729
G1 X147.971 Y39.076 E165.23789
G1 X152.026 Y43.132 E165.52402
G1 X152.026 Y41.717 E165.59462
G1 X147.971 Y37.662 E165.88072
G1 X147.971 Y36.248 E165.95127
G1 X152.026 Y40.303 E166.23737
G1 X152.026 Y38.889 E166.30791
G1 X147.971 Y34.834 E166.59401
G1 X147.971 Y33.419 E166.66461
G1 X152.026 Y37.475 E166.95075
G1 X152.026 Y36.061 E167.02129
G1 X147.971 Y32.005 E167.30743
G1 X147.971 Y30.591 E167.37797
G1 X152.026 Y34.646 E167.66408
G1 X152.026 Y33.232 E167.73462
G1 X147.971 Y29.177 E168.02072
G1 X147.971 Y27.763 E168.09127
G1 X152.026 Y31.818 E168.37737
G1 X152.026 Y30.404 E168.44791
G1 X147.971 Y26.348 E168.73405
G1 X147.971 Y24.934 E168.8046
G1 X152.026 Y28.989 E169.0907
G1 X152.026 Y27.575 E169.16124
G1 X148.016 Y23.565 E169.44417
G1 X148.053 Y23.202 E169.46237
G1 X148.054 Y23.157 E169.46462
G1 X148.033 Y22.479 E169.49846
G1 X147.983 Y22.118 E169.51664
G1 X152.026 Y26.161 E169.8019
G1 X152.026 Y24.747 E169.87244
G1 X147.971 Y20.692 E170.15855
G1 X147.971 Y20.123 E170.18693
G1 X147.982 Y19.91 E170.19758
G1 X147.991 Y19.815 E170.20234
G1 X148.022 Y19.631 E170.21165
G1 X148.055 Y19.518 E170.21752
