;FLAVOR:Marlin
;TIME:1788
;Filament used: 0.651474m
;Layer height: 0.1
;MINX:147.771
;MINY:13.199
;MINZ:0.24
;MAXX:152.228
;MAXY:286.8
;MAXZ:2.94
;Generated with Cura_SteamEngine 4.12.1
M140 S50
M105
M190 S50
M104 S235
M105
M109 S235
M82 ;absolute extrusion mode
M201 X500.00 Y500.00 Z100.00 E5000.00 ;Setup machine max acceleration
M203 X500.00 Y500.00 Z10.00 E50.00 ;Setup machine max feedrate
M204 P500.00 R1000.00 T500.00 ;Setup Print/Retract/Travel acceleration
M205 X8.00 Y8.00 Z0.40 E5.00 ;Setup Jerk
M220 S100 ;Reset Feedrate
M221 S100 ;Reset Flowrate

G28 ;Home

G92 E0 ;Reset Extruder
G1 Z2.0 F3000 ;Move Z Axis up
G1 X10.1 Y20 Z0.28 F5000.0 ;Move to start position
G1 X10.1 Y200.0 Z0.28 F1500.0 E15 ;Draw the first line
G1 X10.4 Y200.0 Z0.28 F5000.0 ;Move to side a little
G1 X10.4 Y20 Z0.28 F1500.0 E30 ;Draw the second line
G92 E0 ;Reset Extruder
G1 Z2.0 F3000 ;Move Z Axis up

G92 E0
G92 E0
G1 F2700 E-5
;LAYER_COUNT:19
;LAYER:-8
M107
G0 F9000 X147.992 Y14.816 Z0.24
;TYPE:SUPPORT-INTERFACE
G1 F2700 E0
G1 F900 X148.056 Y14.519 E0.02425
G1 X148.197 Y14.201 E0.05202
G1 X148.383 Y13.944 E0.07734
G1 X148.619 Y13.727 E0.10294
G1 X148.876 Y13.57 E0.12698
G1 X149.091 Y13.483 E0.14549
G1 X149.504 Y13.409 E0.17898
G1 X149.706 Y13.4 E0.19512
G1 X150.297 Y13.4 E0.2423
G1 X150.617 Y13.421 E0.2679
G1 X150.909 Y13.484 E0.29174
G1 X151.221 Y13.622 E0.31897
G1 X151.483 Y13.811 E0.34476
G1 X151.7 Y14.047 E0.37035
G1 X151.856 Y14.302 E0.39422
G1 X151.944 Y14.519 E0.41291
G1 X152.018 Y14.933 E0.44648
G1 X152.027 Y15.134 E0.46254
G1 X152.028 Y16.87 E0.60112
G1 X152.017 Y17.087 E0.61846
G1 X151.944 Y17.822 E0.67742
G1 X151.963 Y18.501 E0.73164
G1 X152.017 Y18.911 E0.76465
G1 X152.027 Y19.133 E0.78239
G1 X152.028 Y280.871 E21.67545
G1 X152.017 Y281.086 E21.69263
G1 X151.944 Y281.823 E21.75175
G1 X151.963 Y282.502 E21.80597
G1 X152.017 Y282.903 E21.83827
G1 X152.027 Y283.133 E21.85665
G1 X152.028 Y284.87 E21.9953
G1 X152.008 Y285.18 E22.0201
G1 X151.945 Y285.477 E22.04434
G1 X151.809 Y285.789 E22.07151
G1 X151.627 Y286.044 E22.09651
G1 X151.394 Y286.263 E22.12204
G1 X151.125 Y286.43 E22.14731
G1 X150.902 Y286.518 E22.16645
G1 X150.496 Y286.591 E22.19938
G1 X150.293 Y286.6 E22.2156
G1 X149.702 Y286.6 E22.26277
G1 X149.382 Y286.579 E22.28837
G1 X149.09 Y286.516 E22.31222
G1 X148.776 Y286.377 E22.33963
G1 X148.516 Y286.189 E22.36524
G1 X148.308 Y285.966 E22.38958
G1 X148.142 Y285.696 E22.41488
G1 X148.054 Y285.477 E22.43372
G1 X147.981 Y285.068 E22.46689
G1 X147.972 Y284.859 E22.48359
G1 X147.972 Y283.128 E22.62176
G1 X147.983 Y282.911 E22.63911
G1 X148.054 Y282.202 E22.69598
G1 X148.055 Y282.158 E22.6995
G1 X148.034 Y281.48 E22.75364
G1 X147.981 Y281.094 E22.78475
G1 X147.972 Y280.867 E22.80288
G1 X147.972 Y19.121 E43.69658
G1 X147.983 Y18.911 E43.71336
G1 X148.054 Y18.202 E43.77024
G1 X148.055 Y18.158 E43.77376
G1 X148.034 Y17.48 E43.8279
G1 X147.981 Y17.094 E43.859
G1 X147.972 Y16.867 E43.87714
G1 X147.972 Y15.124 E44.01627
G1 X147.992 Y14.816 E44.04091
G0 F9000 X148.8 Y13.616
G1 F900 X148.8 Y286.387 E65.81467
G1 F2700 E60.81467
G1 F300 Z0.44
G0 F9000 X150.4 Y286.596 Z0.44
G1 F300 Z0.24
G1 F2700 E65.81467
G1 F900 X150.4 Y13.407 E87.6218
G1 F2700 E82.6218
G1 F300 Z0.44
G0 F9000 X152 Y14.833 Z0.44
G1 F300 Z0.24
G1 F2700 E87.6218
G1 F900 X152 Y17.259 E87.81545
G1 F2700 E82.81545
G1 F300 Z0.44
G0 F9000 X152 Y18.782 Z0.44
G1 F300 Z0.24
G1 F2700 E87.81545
G1 F900 X152 Y281.258 E108.76742
G1 F2700 E103.76742
G1 F300 Z0.44
G0 F9000 X152 Y282.777 Z0.44
G1 F300 Z0.24
G1 F2700 E108.76742
G1 F900 X152 Y285.218 E108.96227
G1 F2700 E103.96227
G1 F300 Z0.44
G0 F9000 X149.4 Y286.579 Z0.44
;TIME_ELAPSED:97.542977
;LAYER:-7
G0 X149.4 Y286.579 Z0.59
;TYPE:SUPPORT
G1 F300 Z0.39
G1 F2700 E108.96227
G1 F900 X149.484 Y286.588 E108.96649
G1 X149.702 Y286.599 E108.97738
G1 X150.293 Y286.599 E109.00686
G1 X150.496 Y286.59 E109.017
G1 X150.774 Y286.539 E109.0311
G1 X147.971 Y283.736 E109.22887
G1 X147.971 Y283.126 E109.2593
G1 X147.983 Y282.91 E109.27009
G1 X148.034 Y282.385 E109.29641
G1 X151.657 Y286.007 E109.552
G1 X151.711 Y285.941 E109.55625
G1 X151.808 Y285.788 E109.56529
G1 X151.866 Y285.684 E109.57123
G1 X151.945 Y285.476 E109.58233
G1 X151.974 Y285.377 E109.58748
G1 X152.008 Y285.178 E109.59755
G1 X152.017 Y285.086 E109.60216
G1 X152.023 Y284.959 E109.6085
G1 X147.973 Y280.909 E109.89425
G1 X147.971 Y280.865 E109.89645
G1 X147.971 Y279.493 E109.9649
G1 X152.027 Y283.549 E110.25107
G1 X152.027 Y283.131 E110.27193
G1 X152.016 Y282.902 E110.28336
G1 X151.962 Y282.501 E110.30355
G1 X151.95 Y282.058 E110.32566
G1 X147.971 Y278.078 E110.60643
G1 X147.971 Y276.664 E110.67698
G1 X152.027 Y280.721 E110.96319
G1 X152.027 Y279.307 E111.03373
G1 X147.971 Y275.25 E111.31994
G1 X147.971 Y273.836 E111.39049
G1 X152.027 Y277.892 E111.67666
G1 X152.027 Y276.478 E111.7472
G1 X147.971 Y272.422 E112.03338
G1 X147.971 Y271.007 E112.10397
G1 X152.027 Y275.064 E112.39018
G1 X152.027 Y273.65 E112.46072
G1 X147.971 Y269.593 E112.74693
G1 X147.971 Y268.179 E112.81748
G1 X152.027 Y272.236 E113.10368
G1 X152.027 Y270.821 E113.17428
G1 X147.971 Y266.765 E113.46045
G1 X147.971 Y265.351 E113.531
G1 X152.027 Y269.407 E113.81717
G1 X152.027 Y267.993 E113.88771
G1 X147.971 Y263.936 E114.17392
G1 X147.971 Y262.522 E114.24447
G1 X152.027 Y266.579 E114.53067
G1 X152.027 Y265.165 E114.60122
G1 X147.971 Y261.108 E114.88743
G1 X147.971 Y259.694 E114.95797
G1 X152.027 Y263.75 E115.24414
G1 X152.027 Y262.336 E115.31469
G1 X147.971 Y258.279 E115.6009
G1 X147.971 Y256.865 E115.67144
G1 X152.027 Y260.922 E115.95765
G1 X152.027 Y259.508 E116.02819
G1 X147.971 Y255.451 E116.3144
G1 X147.971 Y254.037 E116.38495
G1 X152.027 Y258.093 E116.67112
G1 X152.027 Y256.679 E116.74166
G1 X147.971 Y252.623 E117.02784
G1 X147.971 Y251.208 E117.09843
G1 X152.027 Y255.265 E117.38464
G1 X152.027 Y253.851 E117.45518
G1 X147.971 Y249.794 E117.74139
G1 X147.971 Y248.38 E117.81194
G1 X152.027 Y252.437 E118.09814
G1 X152.027 Y251.022 E118.16874
G1 X147.971 Y246.966 E118.45491
G1 X147.971 Y245.552 E118.52546
G1 X152.027 Y249.608 E118.81163
G1 X152.027 Y248.194 E118.88217
G1 X147.971 Y244.137 E119.16838
G1 X147.971 Y242.723 E119.23893
G1 X152.027 Y246.78 E119.52514
G1 X152.027 Y245.366 E119.59568
G1 X147.971 Y241.309 E119.88189
G1 X147.971 Y239.895 E119.95243
G1 X152.027 Y243.951 E120.23861
G1 X152.027 Y242.537 E120.30915
G1 X147.971 Y238.48 E120.59536
G1 X147.971 Y237.066 E120.6659
G1 X152.027 Y241.123 E120.95211
G1 X152.027 Y239.709 E121.02266
G1 X147.971 Y235.652 E121.30886
G1 X147.971 Y234.238 E121.37941
G1 X152.027 Y238.294 E121.66558
G1 X152.027 Y236.88 E121.73613
G1 X147.971 Y232.824 E122.0223
G1 X147.971 Y231.409 E122.09289
G1 X152.027 Y235.466 E122.3791
G1 X152.027 Y234.052 E122.44965
G1 X147.971 Y229.995 E122.73585
G1 X147.971 Y228.581 E122.8064
G1 X152.027 Y232.638 E123.09261
G1 X152.027 Y231.223 E123.1632
G1 X147.971 Y227.167 E123.44937
G1 X147.971 Y225.753 E123.51992
G1 X152.027 Y229.809 E123.80609
G1 X152.027 Y228.395 E123.87664
G1 X147.971 Y224.338 E124.16284
G1 X147.971 Y222.924 E124.23339
G1 X152.027 Y226.981 E124.5196
G1 X152.027 Y225.567 E124.59014
G1 X147.971 Y221.51 E124.87635
G1 X147.971 Y220.096 E124.94689
G1 X152.027 Y224.152 E125.23307
G1 X152.027 Y222.738 E125.30361
G1 X147.971 Y218.681 E125.58982
G1 X147.971 Y217.267 E125.66036
G1 X152.027 Y221.324 E125.94657
G1 X152.027 Y219.91 E126.01712
G1 X147.971 Y215.853 E126.30333
G1 X147.971 Y214.439 E126.37387
G1 X152.027 Y218.495 E126.66004
G1 X152.027 Y217.081 E126.73059
G1 X147.971 Y213.025 E127.01676
G1 X147.971 Y211.61 E127.08735
G1 X152.027 Y215.667 E127.37356
G1 X152.027 Y214.253 E127.44411
G1 X147.971 Y210.196 E127.73032
G1 X147.971 Y208.782 E127.80086
G1 X152.027 Y212.839 E128.08707
G1 X152.027 Y211.424 E128.15766
G1 X147.971 Y207.368 E128.44384
G1 X147.971 Y205.954 E128.51438
G1 X152.027 Y210.01 E128.80055
G1 X152.027 Y208.596 E128.8711
G1 X147.971 Y204.539 E129.15731
G1 X147.971 Y203.125 E129.22785
G1 X152.027 Y207.182 E129.51406
G1 X152.027 Y205.768 E129.5846
G1 X147.971 Y201.711 E129.87081
G1 X147.971 Y200.297 E129.94136
G1 X152.027 Y204.353 E130.22753
G1 X152.027 Y202.939 E130.29807
G1 X147.971 Y198.882 E130.58428
G1 X147.971 Y197.468 E130.65483
G1 X152.027 Y201.525 E130.94103
G1 X152.027 Y200.111 E131.01158
G1 X147.971 Y196.054 E131.29779
G1 X147.971 Y194.64 E131.36833
G1 X152.027 Y198.697 E131.65454
G1 X152.027 Y197.282 E131.72513
G1 X147.971 Y193.226 E132.01131
G1 X147.971 Y191.811 E132.0819
G1 X152.027 Y195.868 E132.36811
G1 X152.027 Y194.454 E132.43865
G1 X147.971 Y190.397 E132.72486
G1 X147.971 Y188.983 E132.79541
G1 X152.027 Y193.04 E133.08162
G1 X152.027 Y191.625 E133.15221
G1 X147.971 Y187.569 E133.43838
G1 X147.971 Y186.155 E133.50893
G1 X152.027 Y190.211 E133.7951
G1 X152.027 Y188.797 E133.86564
G1 X147.971 Y184.74 E134.15185
G1 X147.971 Y183.326 E134.2224
G1 X152.027 Y187.383 E134.50861
G1 X152.027 Y185.969 E134.57915
G1 X147.971 Y181.912 E134.86536
G1 X147.971 Y180.498 E134.9359
G1 X152.027 Y184.554 E135.22208
G1 X152.027 Y183.14 E135.29262
G1 X147.971 Y179.083 E135.57883
G1 X147.971 Y177.669 E135.64937
G1 X152.027 Y181.726 E135.93558
G1 X152.027 Y180.312 E136.00613
G1 X147.971 Y176.255 E136.29233
G1 X147.971 Y174.841 E136.36288
G1 X152.027 Y178.898 E136.64909
G1 X152.027 Y177.483 E136.71968
G1 X147.971 Y173.427 E137.00585
G1 X147.971 Y172.012 E137.07645
G1 X152.027 Y176.069 E137.36266
G1 X152.027 Y174.655 E137.4332
G1 X147.971 Y170.598 E137.71941
G1 X147.971 Y169.184 E137.78995
G1 X152.027 Y173.241 E138.07616
G1 X152.027 Y171.826 E138.14676
G1 X147.971 Y167.77 E138.43293
G1 X147.971 Y166.356 E138.50347
G1 X152.027 Y170.412 E138.78965
G1 X152.027 Y168.998 E138.86019
G1 X147.971 Y164.941 E139.1464
G1 X147.971 Y163.527 E139.21694
G1 X152.027 Y167.584 E139.50315
G1 X152.027 Y166.17 E139.5737
G1 X147.971 Y162.113 E139.8599
G1 X147.971 Y160.699 E139.93045
G1 X152.027 Y164.755 E140.21662
G1 X152.027 Y163.341 E140.28717
G1 X147.971 Y159.284 E140.57338
G1 X147.971 Y157.87 E140.64392
G1 X152.027 Y161.927 E140.93013
G1 X152.027 Y160.513 E141.00067
G1 X147.971 Y156.456 E141.28688
G1 X147.971 Y155.042 E141.35743
G1 X152.027 Y159.099 E141.64363
G1 X152.027 Y157.684 E141.71423
G1 X147.971 Y153.628 E142.0004
G1 X147.971 Y152.213 E142.071
G1 X152.027 Y156.27 E142.3572
G1 X152.027 Y154.856 E142.42775
G1 X147.971 Y150.799 E142.71396
G1 X147.971 Y149.385 E142.7845
G1 X152.027 Y153.442 E143.07071
G1 X152.027 Y152.027 E143.1413
G1 X147.971 Y147.971 E143.42748
G1 X147.971 Y146.557 E143.49802
G1 X152.027 Y150.613 E143.78419
G1 X152.027 Y149.198 E143.85479
G1 X147.971 Y145.142 E144.14096
G1 X147.971 Y143.728 E144.21151
G1 X152.027 Y147.784 E144.49768
G1 X152.027 Y146.37 E144.56822
G1 X147.971 Y142.314 E144.8544
G1 X147.971 Y140.9 E144.92494
G1 X152.027 Y144.956 E145.21111
G1 X152.027 Y143.541 E145.28171
G1 X147.971 Y139.486 E145.56785
G1 X147.971 Y138.071 E145.63844
G1 X152.027 Y142.127 E145.92461
G1 X152.027 Y140.713 E145.99516
G1 X147.971 Y136.657 E146.28133
G1 X147.971 Y135.243 E146.35187
G1 X152.027 Y139.299 E146.63805
G1 X152.027 Y137.885 E146.70859
G1 X147.971 Y133.829 E146.99476
G1 X147.971 Y132.414 E147.06536
G1 X152.027 Y136.47 E147.35153
G1 X152.027 Y135.056 E147.42208
G1 X147.971 Y131 E147.70825
G1 X147.971 Y129.586 E147.77879
G1 X152.027 Y133.642 E148.06497
G1 X152.027 Y132.228 E148.13551
G1 X147.971 Y128.172 E148.42168
G1 X147.971 Y126.758 E148.49223
G1 X152.027 Y130.814 E148.7784
G1 X152.027 Y129.399 E148.849
G1 X147.971 Y125.343 E149.13517
G1 X147.971 Y123.929 E149.20571
G1 X152.027 Y127.985 E149.49189
G1 X152.027 Y126.571 E149.56243
G1 X147.971 Y122.515 E149.8486
G1 X147.971 Y121.101 E149.91915
G1 X152.027 Y125.157 E150.20532
G1 X152.027 Y123.742 E150.27592
G1 X147.971 Y119.687 E150.56205
G1 X147.971 Y118.272 E150.63265
G1 X152.027 Y122.328 E150.91882
G1 X152.027 Y120.914 E150.98937
G1 X147.971 Y116.858 E151.27554
G1 X147.971 Y115.444 E151.34608
G1 X152.027 Y119.5 E151.63226
G1 X152.027 Y118.086 E151.7028
G1 X147.971 Y114.03 E151.98897
G1 X147.971 Y112.615 E152.05957
G1 X152.027 Y116.671 E152.34574
G1 X152.027 Y115.257 E152.41629
G1 X147.971 Y111.201 E152.70246
G1 X147.971 Y109.787 E152.773
G1 X152.027 Y113.843 E153.05918
G1 X152.027 Y112.429 E153.12972
G1 X147.971 Y108.373 E153.41589
G1 X147.971 Y106.959 E153.48644
G1 X152.027 Y111.015 E153.77261
G1 X152.027 Y109.6 E153.84321
G1 X147.971 Y105.544 E154.12938
G1 X147.971 Y104.13 E154.19992
G1 X152.027 Y108.186 E154.4861
G1 X152.027 Y106.772 E154.55664
G1 X147.971 Y102.716 E154.84281
G1 X147.971 Y101.302 E154.91336
G1 X152.027 Y105.358 E155.19953
G1 X152.027 Y103.943 E155.27013
G1 X147.971 Y99.888 E155.55626
G1 X147.971 Y98.473 E155.62686
G1 X152.027 Y102.529 E155.91303
G1 X152.027 Y101.115 E155.98357
G1 X147.971 Y97.059 E156.26975
G1 X147.971 Y95.645 E156.34029
G1 X152.027 Y99.701 E156.62646
G1 X152.027 Y98.287 E156.69701
G1 X147.971 Y94.231 E156.98318
G1 X147.971 Y92.816 E157.05378
G1 X152.027 Y96.872 E157.33995
G1 X152.027 Y95.458 E157.41049
G1 X147.971 Y91.402 E157.69667
G1 X147.971 Y89.988 E157.76721
G1 X152.027 Y94.044 E158.05338
G1 X152.027 Y92.63 E158.12393
G1 X147.971 Y88.574 E158.4101
G1 X147.971 Y87.16 E158.48065
G1 X152.027 Y91.216 E158.76682
G1 X152.027 Y89.801 E158.83741
G1 X147.971 Y85.745 E159.12359
G1 X147.971 Y84.331 E159.19413
G1 X152.027 Y88.387 E159.4803
G1 X152.027 Y86.973 E159.55085
G1 X147.971 Y82.917 E159.83702
G1 X147.971 Y81.503 E159.90757
G1 X152.027 Y85.559 E160.19374
G1 X152.027 Y84.144 E160.26433
G1 X147.971 Y80.089 E160.55047
G1 X147.971 Y78.674 E160.62107
G1 X152.027 Y82.73 E160.90724
G1 X152.027 Y81.316 E160.97778
G1 X147.971 Y77.26 E161.26396
G1 X147.971 Y75.846 E161.3345
G1 X152.027 Y79.902 E161.62067
G1 X152.027 Y78.488 E161.69122
G1 X147.971 Y74.432 E161.97739
G1 X147.971 Y73.017 E162.04799
G1 X152.027 Y77.073 E162.33416
G1 X152.027 Y75.659 E162.4047
G1 X147.971 Y71.603 E162.69088
G1 X147.971 Y70.189 E162.76142
G1 X152.027 Y74.245 E163.04759
G1 X152.027 Y72.831 E163.11814
G1 X147.971 Y68.775 E163.40431
G1 X147.971 Y67.361 E163.47486
G1 X152.027 Y71.417 E163.76103
G1 X152.027 Y70.002 E163.83162
G1 X147.971 Y65.946 E164.1178
G1 X147.971 Y64.532 E164.18834
G1 X152.027 Y68.588 E164.47451
G1 X152.027 Y67.174 E164.54506
G1 X147.971 Y63.118 E164.83123
G1 X147.971 Y61.704 E164.90177
G1 X152.027 Y65.76 E165.18795
G1 X152.027 Y64.346 E165.25849
G1 X147.971 Y60.29 E165.54467
G1 X147.971 Y58.875 E165.61526
G1 X152.027 Y62.931 E165.90143
G1 X152.027 Y61.517 E165.97198
G1 X147.971 Y57.461 E166.25815
G1 X147.971 Y56.047 E166.32869
G1 X152.027 Y60.103 E166.61487
G1 X152.027 Y58.689 E166.68541
G1 X147.971 Y54.633 E166.97158
G1 X147.971 Y53.218 E167.04218
G1 X152.027 Y57.274 E167.32835
G1 X152.027 Y55.86 E167.3989
G1 X147.971 Y51.804 E167.68507
G1 X147.971 Y50.39 E167.75561
G1 X152.027 Y54.446 E168.04179
G1 X152.027 Y53.032 E168.11233
G1 X147.971 Y48.976 E168.3985
G1 X147.971 Y47.562 E168.46905
G1 X152.027 Y51.618 E168.75522
G1 X152.027 Y50.203 E168.82582
G1 X147.971 Y46.147 E169.11199
G1 X147.971 Y44.733 E169.18253
G1 X152.027 Y48.789 E169.46871
G1 X152.027 Y47.375 E169.53925
G1 X147.971 Y43.319 E169.82542
G1 X147.971 Y41.905 E169.89597
G1 X152.027 Y45.961 E170.18214
G1 X152.027 Y44.547 E170.25269
G1 X147.971 Y40.491 E170.53886
G1 X147.971 Y39.076 E170.60945
G1 X152.027 Y43.132 E170.89563
G1 X152.027 Y41.718 E170.96617
G1 X147.971 Y37.662 E171.25234
G1 X147.971 Y36.248 E171.32289
G1 X152.027 Y40.304 E171.60906
G1 X152.027 Y38.89 E171.67961
G1 X147.971 Y34.834 E171.96578
G1 X147.971 Y33.419 E172.03637
G1 X152.027 Y37.475 E172.32255
G1 X152.027 Y36.061 E172.39309
G1 X147.971 Y32.005 E172.67926
G1 X147.971 Y30.591 E172.74981
G1 X152.027 Y34.647 E173.03598
G1 X152.027 Y33.233 E173.10653
G1 X147.971 Y29.177 E173.3927
G1 X147.971 Y27.763 E173.46324
G1 X152.027 Y31.819 E173.74942
G1 X152.027 Y30.404 E173.82001
G1 X147.971 Y26.348 E174.10618
G1 X147.971 Y24.934 E174.17673
G1 X152.027 Y28.99 E174.4629
G1 X152.027 Y27.576 E174.53345
G1 X147.971 Y23.52 E174.81962
G1 X147.971 Y22.106 E174.89016
G1 X152.027 Y26.162 E175.17634
G1 X152.027 Y24.748 E175.24688
