;FLAVOR:Marlin
;TIME:1859
;Filament used: 0.675621m
;Layer height: 0.1
;MINX:147.771
;MINY:8.199
;MINZ:0.24
;MAXX:152.228
;MAXY:291.8
;MAXZ:2.94
;Generated with Cura_SteamEngine 4.12.1
M140 S50
M105
M190 S50
M104 S235
M105
M109 S235
M82 ;absolute extrusion mode
M201 X500.00 Y500.00 Z100.00 E5000.00 ;Setup machine max acceleration
M203 X500.00 Y500.00 Z10.00 E50.00 ;Setup machine max feedrate
M204 P500.00 R1000.00 T500.00 ;Setup Print/Retract/Travel acceleration
M205 X8.00 Y8.00 Z0.40 E5.00 ;Setup Jerk
M220 S100 ;Reset Feedrate
M221 S100 ;Reset Flowrate

G28 ;Home

G92 E0 ;Reset Extruder
G1 Z2.0 F3000 ;Move Z Axis up
G1 X10.1 Y20 Z0.28 F5000.0 ;Move to start position
G1 X10.1 Y200.0 Z0.28 F1500.0 E15 ;Draw the first line
G1 X10.4 Y200.0 Z0.28 F5000.0 ;Move to side a little
G1 X10.4 Y20 Z0.28 F1500.0 E30 ;Draw the second line
G92 E0 ;Reset Extruder
G1 Z2.0 F3000 ;Move Z Axis up

G92 E0
G92 E0
G1 F2700 E-5
;LAYER_COUNT:19
;LAYER:-8
M107
G0 F9000 X147.992 Y9.816 Z0.24
;TYPE:SUPPORT-INTERFACE
G1 F2700 E0
G1 F900 X148.056 Y9.519 E0.02425
G1 X148.197 Y9.201 E0.05202
G1 X148.383 Y8.944 E0.07734
G1 X148.619 Y8.727 E0.10294
G1 X148.876 Y8.57 E0.12698
G1 X149.091 Y8.483 E0.14549
G1 X149.504 Y8.409 E0.17898
G1 X149.706 Y8.4 E0.19512
G1 X150.297 Y8.4 E0.2423
G1 X150.617 Y8.421 E0.2679
G1 X150.909 Y8.484 E0.29174
G1 X151.221 Y8.622 E0.31897
G1 X151.483 Y8.811 E0.34476
G1 X151.7 Y9.047 E0.37035
G1 X151.856 Y9.302 E0.39422
G1 X151.944 Y9.519 E0.41291
G1 X152.018 Y9.933 E0.44648
G1 X152.027 Y10.134 E0.46254
G1 X152.028 Y11.87 E0.60112
G1 X152.017 Y12.087 E0.61846
G1 X151.944 Y12.822 E0.67742
G1 X151.963 Y13.501 E0.73164
G1 X152.017 Y13.911 E0.76465
G1 X152.027 Y14.133 E0.78239
G1 X152.028 Y285.871 E22.47369
G1 X152.017 Y286.086 E22.49088
G1 X151.944 Y286.823 E22.55
G1 X151.963 Y287.502 E22.60422
G1 X152.017 Y287.903 E22.63652
G1 X152.027 Y288.133 E22.65489
G1 X152.028 Y289.87 E22.79355
G1 X152.008 Y290.18 E22.81834
G1 X151.945 Y290.477 E22.84258
G1 X151.809 Y290.789 E22.86975
G1 X151.627 Y291.044 E22.89476
G1 X151.394 Y291.263 E22.92028
G1 X151.125 Y291.43 E22.94556
G1 X150.902 Y291.518 E22.96469
G1 X150.496 Y291.591 E22.99762
G1 X150.293 Y291.6 E23.01384
G1 X149.702 Y291.6 E23.06102
G1 X149.382 Y291.579 E23.08662
G1 X149.09 Y291.516 E23.11046
G1 X148.776 Y291.377 E23.13787
G1 X148.516 Y291.189 E23.16348
G1 X148.308 Y290.966 E23.18783
G1 X148.142 Y290.696 E23.21313
G1 X148.054 Y290.477 E23.23197
G1 X147.981 Y290.068 E23.26513
G1 X147.972 Y289.859 E23.28183
G1 X147.972 Y288.128 E23.42
G1 X147.983 Y287.911 E23.43735
G1 X148.054 Y287.202 E23.49423
G1 X148.055 Y287.158 E23.49774
G1 X148.034 Y286.48 E23.55189
G1 X147.981 Y286.094 E23.58299
G1 X147.972 Y285.867 E23.60112
G1 X147.972 Y14.121 E45.29306
G1 X147.983 Y13.911 E45.30985
G1 X148.054 Y13.202 E45.36673
G1 X148.055 Y13.158 E45.37024
G1 X148.034 Y12.48 E45.42439
G1 X147.981 Y12.094 E45.45549
G1 X147.972 Y11.867 E45.47362
G1 X147.972 Y10.124 E45.61276
G1 X147.992 Y9.816 E45.6374
G0 F9000 X148.8 Y8.616
G1 F900 X148.8 Y291.387 E68.2094
G1 F2700 E63.2094
G1 F300 Z0.44
G0 F9000 X150.4 Y291.596 Z0.44
G1 F300 Z0.24
G1 F2700 E68.2094
G1 F900 X150.4 Y8.407 E90.81477
G1 F2700 E85.81477
G1 F300 Z0.44
G0 F9000 X152 Y9.833 Z0.44
G1 F300 Z0.24
G1 F2700 E90.81477
G1 F900 X152 Y12.259 E91.00842
G1 F2700 E86.00842
G1 F300 Z0.44
G0 F9000 X152 Y13.782 Z0.44
G1 F300 Z0.24
G1 F2700 E91.00842
G1 F900 X152 Y286.258 E112.75864
G1 F2700 E107.75864
G1 F300 Z0.44
G0 F9000 X152 Y287.777 Z0.44
G1 F300 Z0.24
G1 F2700 E112.75864
G1 F900 X152 Y290.218 E112.95349
G1 F2700 E107.95349
G1 F300 Z0.44
G0 F9000 X147.971 Y289.858 Z0.44
;TIME_ELAPSED:100.894912
;LAYER:-7
G0 X147.971 Y289.858 Z0.59
;TYPE:SUPPORT
G1 F300 Z0.39
G1 F2700 E112.95349
G1 F900 X147.981 Y290.067 E112.96393
G1 X148.054 Y290.476 E112.98465
G1 X148.068 Y290.523 E112.9871
G1 X148.142 Y290.695 E112.99644
G1 X148.198 Y290.806 E113.00265
G1 X148.307 Y290.965 E113.01226
G1 X148.389 Y291.067 E113.01879
G1 X148.515 Y291.188 E113.02751
G1 X148.624 Y291.28 E113.03462
G1 X148.775 Y291.376 E113.04355
G1 X148.888 Y291.438 E113.04998
G1 X149.089 Y291.515 E113.06072
G1 X149.2 Y291.547 E113.06648
G1 X149.381 Y291.578 E113.07564
G1 X149.483 Y291.588 E113.08076
G1 X149.701 Y291.599 E113.09165
G1 X150.178 Y291.599 E113.11545
G1 X147.971 Y289.393 E113.27113
G1 X147.971 Y288.127 E113.33429
G1 X147.978 Y287.985 E113.34138
G1 X151.311 Y291.318 E113.57654
G1 X151.393 Y291.262 E113.58149
G1 X151.491 Y291.183 E113.58777
G1 X151.627 Y291.043 E113.59751
G1 X151.711 Y290.942 E113.60407
G1 X151.809 Y290.788 E113.61317
G1 X151.866 Y290.683 E113.61913
G1 X151.928 Y290.521 E113.62779
G1 X148.037 Y286.63 E113.90232
G1 X148.033 Y286.479 E113.90985
G1 X147.981 Y286.093 E113.92929
G1 X147.971 Y285.866 E113.94062
G1 X147.971 Y285.15 E113.97634
G1 X152.027 Y289.206 E114.26252
G1 X152.027 Y288.132 E114.3161
G1 X152.017 Y287.902 E114.32758
G1 X151.998 Y287.763 E114.33458
G1 X147.971 Y283.735 E114.61875
G1 X147.971 Y282.321 E114.68929
G1 X151.991 Y286.342 E114.97296
G1 X152.016 Y286.085 E114.98584
G1 X152.027 Y285.87 E114.99658
G1 X152.027 Y284.964 E115.04178
G1 X147.971 Y280.907 E115.32799
G1 X147.971 Y279.493 E115.39853
G1 X152.027 Y283.549 E115.68471
G1 X152.027 Y282.135 E115.75525
G1 X147.971 Y278.078 E116.04146
G1 X147.971 Y276.664 E116.112
G1 X152.027 Y280.721 E116.39821
G1 X152.027 Y279.307 E116.46876
G1 X147.971 Y275.25 E116.75496
G1 X147.971 Y273.836 E116.82551
G1 X152.027 Y277.892 E117.11168
G1 X152.027 Y276.478 E117.18223
G1 X147.971 Y272.422 E117.4684
G1 X147.971 Y271.007 E117.53899
G1 X152.027 Y275.064 E117.8252
G1 X152.027 Y273.65 E117.89575
G1 X147.971 Y269.593 E118.18196
G1 X147.971 Y268.179 E118.2525
G1 X152.027 Y272.236 E118.53871
G1 X152.027 Y270.821 E118.6093
G1 X147.971 Y266.765 E118.89548
G1 X147.971 Y265.351 E118.96602
G1 X152.027 Y269.407 E119.25219
G1 X152.027 Y267.993 E119.32274
G1 X147.971 Y263.936 E119.60895
G1 X147.971 Y262.522 E119.67949
G1 X152.027 Y266.579 E119.9657
G1 X152.027 Y265.165 E120.03624
G1 X147.971 Y261.108 E120.32245
G1 X147.971 Y259.694 E120.393
G1 X152.027 Y263.75 E120.67917
G1 X152.027 Y262.336 E120.74971
G1 X147.971 Y258.279 E121.03592
G1 X147.971 Y256.865 E121.10647
G1 X152.027 Y260.922 E121.39267
G1 X152.027 Y259.508 E121.46322
G1 X147.971 Y255.451 E121.74943
G1 X147.971 Y254.037 E121.81997
G1 X152.027 Y258.093 E122.10614
G1 X152.027 Y256.679 E122.17669
G1 X147.971 Y252.623 E122.46286
G1 X147.971 Y251.208 E122.53346
G1 X152.027 Y255.265 E122.81966
G1 X152.027 Y253.851 E122.89021
G1 X147.971 Y249.794 E123.17642
G1 X147.971 Y248.38 E123.24696
G1 X152.027 Y252.437 E123.53317
G1 X152.027 Y251.022 E123.60376
G1 X147.971 Y246.966 E123.88994
G1 X147.971 Y245.552 E123.96048
G1 X152.027 Y249.608 E124.24665
G1 X152.027 Y248.194 E124.3172
G1 X147.971 Y244.137 E124.60341
G1 X147.971 Y242.723 E124.67395
G1 X152.027 Y246.78 E124.96016
G1 X152.027 Y245.366 E125.0307
G1 X147.971 Y241.309 E125.31691
G1 X147.971 Y239.895 E125.38746
G1 X152.027 Y243.951 E125.67363
G1 X152.027 Y242.537 E125.74417
G1 X147.971 Y238.48 E126.03038
G1 X147.971 Y237.066 E126.10093
G1 X152.027 Y241.123 E126.38714
G1 X152.027 Y239.709 E126.45768
G1 X147.971 Y235.652 E126.74389
G1 X147.971 Y234.238 E126.81443
G1 X152.027 Y238.294 E127.10061
G1 X152.027 Y236.88 E127.17115
G1 X147.971 Y232.824 E127.45732
G1 X147.971 Y231.409 E127.52792
G1 X152.027 Y235.466 E127.81413
G1 X152.027 Y234.052 E127.88467
G1 X147.971 Y229.995 E128.17088
G1 X147.971 Y228.581 E128.24142
G1 X152.027 Y232.638 E128.52763
G1 X152.027 Y231.223 E128.59823
G1 X147.971 Y227.167 E128.8844
G1 X147.971 Y225.753 E128.95494
G1 X152.027 Y229.809 E129.24112
G1 X152.027 Y228.395 E129.31166
G1 X147.971 Y224.338 E129.59787
G1 X147.971 Y222.924 E129.66841
G1 X152.027 Y226.981 E129.95462
G1 X152.027 Y225.567 E130.02517
G1 X147.971 Y221.51 E130.31137
G1 X147.971 Y220.096 E130.38192
G1 X152.027 Y224.152 E130.66809
G1 X152.027 Y222.738 E130.73864
G1 X147.971 Y218.681 E131.02484
G1 X147.971 Y217.267 E131.09539
G1 X152.027 Y221.324 E131.3816
G1 X152.027 Y219.91 E131.45214
G1 X147.971 Y215.853 E131.73835
G1 X147.971 Y214.439 E131.80889
G1 X152.027 Y218.495 E132.09507
G1 X152.027 Y217.081 E132.16561
G1 X147.971 Y213.025 E132.45178
G1 X147.971 Y211.61 E132.52238
G1 X152.027 Y215.667 E132.80859
G1 X152.027 Y214.253 E132.87913
G1 X147.971 Y210.196 E133.16534
G1 X147.971 Y208.782 E133.23588
G1 X152.027 Y212.839 E133.52209
G1 X152.027 Y211.424 E133.59269
G1 X147.971 Y207.368 E133.87886
G1 X147.971 Y205.954 E133.94941
G1 X152.027 Y210.01 E134.23558
G1 X152.027 Y208.596 E134.30612
G1 X147.971 Y204.539 E134.59233
G1 X147.971 Y203.125 E134.66288
G1 X152.027 Y207.182 E134.94908
G1 X152.027 Y205.768 E135.01963
G1 X147.971 Y201.711 E135.30584
G1 X147.971 Y200.297 E135.37638
G1 X152.027 Y204.353 E135.66255
G1 X152.027 Y202.939 E135.7331
G1 X147.971 Y198.882 E136.01931
G1 X147.971 Y197.468 E136.08985
G1 X152.027 Y201.525 E136.37606
G1 X152.027 Y200.111 E136.4466
G1 X147.971 Y196.054 E136.73281
G1 X147.971 Y194.64 E136.80336
G1 X152.027 Y198.697 E137.08956
G1 X152.027 Y197.282 E137.16016
G1 X147.971 Y193.226 E137.44633
G1 X147.971 Y191.811 E137.51693
G1 X152.027 Y195.868 E137.80313
G1 X152.027 Y194.453 E137.87373
G1 X147.971 Y190.397 E138.1599
G1 X147.971 Y188.983 E138.23045
G1 X152.027 Y193.039 E138.51662
G1 X152.027 Y191.625 E138.58716
G1 X147.971 Y187.569 E138.87334
G1 X147.971 Y186.155 E138.94388
G1 X152.027 Y190.211 E139.23005
G1 X152.027 Y188.796 E139.30065
G1 X147.971 Y184.74 E139.58682
G1 X147.971 Y183.326 E139.65737
G1 X152.027 Y187.382 E139.94354
G1 X152.027 Y185.968 E140.01408
G1 X147.971 Y181.912 E140.30026
G1 X147.971 Y180.498 E140.3708
G1 X152.027 Y184.554 E140.65697
G1 X152.027 Y183.139 E140.72757
G1 X147.971 Y179.083 E141.01374
G1 X147.971 Y177.669 E141.08429
G1 X152.027 Y181.725 E141.37046
G1 X152.027 Y180.311 E141.441
G1 X147.971 Y176.255 E141.72718
G1 X147.971 Y174.841 E141.79772
G1 X152.027 Y178.897 E142.08389
G1 X152.027 Y177.483 E142.15444
G1 X147.971 Y173.427 E142.44061
G1 X147.971 Y172.012 E142.51121
G1 X152.027 Y176.068 E142.79738
G1 X152.027 Y174.654 E142.86792
G1 X147.971 Y170.598 E143.1541
G1 X147.971 Y169.184 E143.22464
G1 X152.027 Y173.24 E143.51081
G1 X152.027 Y171.826 E143.58136
G1 X147.971 Y167.77 E143.86753
G1 X147.971 Y166.356 E143.93808
G1 X152.027 Y170.412 E144.22425
G1 X152.027 Y168.997 E144.29484
G1 X147.971 Y164.941 E144.58102
G1 X147.971 Y163.527 E144.65156
G1 X152.027 Y167.583 E144.93773
G1 X152.027 Y166.169 E145.00828
G1 X147.971 Y162.113 E145.29445
G1 X147.971 Y160.699 E145.36499
G1 X152.027 Y164.755 E145.65117
G1 X152.027 Y163.34 E145.72176
G1 X147.971 Y159.284 E146.00794
G1 X147.971 Y157.87 E146.07848
G1 X152.027 Y161.926 E146.36465
G1 X152.027 Y160.512 E146.4352
G1 X147.971 Y156.456 E146.72137
G1 X147.971 Y155.042 E146.79191
G1 X152.027 Y159.098 E147.07809
G1 X152.027 Y157.684 E147.14863
G1 X147.971 Y153.628 E147.4348
G1 X147.971 Y152.213 E147.5054
G1 X152.027 Y156.269 E147.79157
G1 X152.027 Y154.855 E147.86212
G1 X147.971 Y150.799 E148.14829
G1 X147.971 Y149.385 E148.21883
G1 X152.027 Y153.441 E148.50501
G1 X152.027 Y152.027 E148.57555
G1 X147.971 Y147.971 E148.86172
G1 X147.971 Y146.557 E148.93227
G1 X152.027 Y150.613 E149.21844
G1 X152.027 Y149.198 E149.28904
G1 X147.971 Y145.142 E149.57521
G1 X147.971 Y143.728 E149.64575
G1 X152.027 Y147.784 E149.93193
G1 X152.027 Y146.37 E150.00247
G1 X147.971 Y142.314 E150.28864
G1 X147.971 Y140.9 E150.35919
G1 X152.027 Y144.956 E150.64536
G1 X152.027 Y143.541 E150.71596
G1 X147.971 Y139.486 E151.00209
G1 X147.971 Y138.071 E151.07269
G1 X152.027 Y142.127 E151.35886
G1 X152.027 Y140.713 E151.42941
G1 X147.971 Y136.657 E151.71558
G1 X147.971 Y135.243 E151.78612
G1 X152.027 Y139.299 E152.0723
G1 X152.027 Y137.885 E152.14284
G1 X147.971 Y133.829 E152.42901
G1 X147.971 Y132.414 E152.49961
G1 X152.027 Y136.47 E152.78578
G1 X152.027 Y135.056 E152.85633
G1 X147.971 Y131 E153.1425
G1 X147.971 Y129.586 E153.21304
G1 X152.027 Y133.642 E153.49922
G1 X152.027 Y132.228 E153.56976
G1 X147.971 Y128.172 E153.85593
G1 X147.971 Y126.758 E153.92648
G1 X152.027 Y130.814 E154.21265
G1 X152.027 Y129.399 E154.28325
G1 X147.971 Y125.343 E154.56942
G1 X147.971 Y123.929 E154.63996
G1 X152.027 Y127.985 E154.92614
G1 X152.027 Y126.571 E154.99668
G1 X147.971 Y122.515 E155.28285
G1 X147.971 Y121.101 E155.3534
G1 X152.027 Y125.157 E155.63957
G1 X152.027 Y123.742 E155.71016
G1 X147.971 Y119.687 E155.9963
G1 X147.971 Y118.272 E156.0669
G1 X152.027 Y122.328 E156.35307
G1 X152.027 Y120.914 E156.42361
G1 X147.971 Y116.858 E156.70979
G1 X147.971 Y115.444 E156.78033
G1 X152.027 Y119.5 E157.0665
G1 X152.027 Y118.086 E157.13705
G1 X147.971 Y114.03 E157.42322
G1 X147.971 Y112.615 E157.49382
G1 X152.027 Y116.671 E157.77999
G1 X152.027 Y115.257 E157.85053
G1 X147.971 Y111.201 E158.13671
G1 X147.971 Y109.787 E158.20725
G1 X152.027 Y113.843 E158.49342
G1 X152.027 Y112.429 E158.56397
G1 X147.971 Y108.373 E158.85014
G1 X147.971 Y106.959 E158.92069
G1 X152.027 Y111.015 E159.20686
G1 X152.027 Y109.6 E159.27745
G1 X147.971 Y105.544 E159.56363
G1 X147.971 Y104.13 E159.63417
G1 X152.027 Y108.186 E159.92034
G1 X152.027 Y106.772 E159.99089
G1 X147.971 Y102.716 E160.27706
G1 X147.971 Y101.302 E160.34761
G1 X152.027 Y105.358 E160.63378
G1 X152.026 Y103.943 E160.70437
G1 X147.971 Y99.888 E160.99048
G1 X147.971 Y98.473 E161.06107
G1 X152.026 Y102.529 E161.34721
G1 X152.026 Y101.114 E161.4178
G1 X147.971 Y97.059 E161.7039
G1 X147.971 Y95.645 E161.77445
G1 X152.026 Y99.7 E162.06055
G1 X152.026 Y98.286 E162.1311
G1 X147.971 Y94.231 E162.4172
G1 X147.971 Y92.816 E162.48779
G1 X152.026 Y96.872 E162.77393
G1 X152.026 Y95.458 E162.84448
G1 X147.971 Y91.402 E163.13061
G1 X147.971 Y89.988 E163.20116
G1 X152.026 Y94.043 E163.48726
G1 X152.026 Y92.629 E163.5578
G1 X147.971 Y88.574 E163.84391
G1 X147.971 Y87.16 E163.91445
G1 X152.026 Y91.215 E164.20055
G1 X152.026 Y89.801 E164.2711
G1 X147.971 Y85.745 E164.55724
G1 X147.971 Y84.331 E164.62778
G1 X152.026 Y88.386 E164.91388
G1 X152.026 Y86.972 E164.98443
G1 X147.971 Y82.917 E165.27053
G1 X147.971 Y81.503 E165.34107
G1 X152.026 Y85.558 E165.62718
G1 X152.026 Y84.144 E165.69772
G1 X147.971 Y80.089 E165.98382
G1 X147.971 Y78.674 E166.05442
G1 X152.026 Y82.73 E166.34056
G1 X152.026 Y81.315 E166.41115
G1 X147.971 Y77.26 E166.69725
G1 X147.971 Y75.846 E166.7678
G1 X152.026 Y79.901 E167.0539
G1 X152.026 Y78.487 E167.12444
G1 X147.971 Y74.432 E167.41055
G1 X147.971 Y73.017 E167.48114
G1 X152.026 Y77.073 E167.76728
G1 X152.026 Y75.659 E167.83782
G1 X147.971 Y71.603 E168.12396
G1 X147.971 Y70.189 E168.1945
G1 X152.026 Y74.244 E168.48061
G1 X152.026 Y72.83 E168.55115
G1 X147.971 Y68.775 E168.83725
G1 X147.971 Y67.361 E168.9078
G1 X152.026 Y71.416 E169.1939
G1 X152.026 Y70.002 E169.26445
G1 X147.971 Y65.946 E169.55058
G1 X147.971 Y64.532 E169.62113
G1 X152.026 Y68.587 E169.90723
G1 X152.026 Y67.173 E169.97777
G1 X147.971 Y63.118 E170.26388
G1 X147.971 Y61.704 E170.33442
G1 X152.026 Y65.759 E170.62052
G1 X152.026 Y64.345 E170.69107
G1 X147.971 Y60.29 E170.97717
G1 X147.971 Y58.875 E171.04777
G1 X152.026 Y62.931 E171.3339
G1 X152.026 Y61.516 E171.4045
G1 X147.971 Y57.461 E171.6906
G1 X147.971 Y56.047 E171.76114
G1 X152.026 Y60.102 E172.04725
G1 X152.026 Y58.688 E172.11779
G1 X147.971 Y54.633 E172.40389
G1 X147.971 Y53.218 E172.47449
G1 X152.026 Y57.274 E172.76063
G1 X152.026 Y55.86 E172.83117
G1 X147.971 Y51.804 E173.11731
G1 X147.971 Y50.39 E173.18785
G1 X152.026 Y54.445 E173.47395
G1 X152.026 Y53.031 E173.5445
G1 X147.971 Y48.976 E173.8306
G1 X147.971 Y47.562 E173.90115
G1 X152.026 Y51.617 E174.18725
G1 X152.026 Y50.203 E174.25779
G1 X147.971 Y46.147 E174.54393
G1 X147.971 Y44.733 E174.61448
G1 X152.026 Y48.788 E174.90058
G1 X152.026 Y47.374 E174.97112
G1 X147.971 Y43.319 E175.25722
G1 X147.971 Y41.905 E175.32777
G1 X152.026 Y45.96 E175.61387
G1 X152.026 Y44.546 E175.68442
G1 X147.971 Y40.491 E175.97052
G1 X147.971 Y39.076 E176.04111
G1 X152.026 Y43.132 E176.32725
G1 X152.026 Y41.717 E176.39784
G1 X147.971 Y37.662 E176.68395
G1 X147.971 Y36.248 E176.75449
