;FLAVOR:Marlin
;TIME:1929
;Filament used: 0.699773m
;Layer height: 0.1
;MINX:147.771
;MINY:3.199
;MINZ:0.24
;MAXX:152.228
;MAXY:296.8
;MAXZ:2.94
;Generated with Cura_SteamEngine 4.12.1
M140 S50
M105
M190 S50
M104 S235
M105
M109 S235
M82 ;absolute extrusion mode
M201 X500.00 Y500.00 Z100.00 E5000.00 ;Setup machine max acceleration
M203 X500.00 Y500.00 Z10.00 E50.00 ;Setup machine max feedrate
M204 P500.00 R1000.00 T500.00 ;Setup Print/Retract/Travel acceleration
M205 X8.00 Y8.00 Z0.40 E5.00 ;Setup Jerk
M220 S100 ;Reset Feedrate
M221 S100 ;Reset Flowrate

G28 ;Home

G92 E0 ;Reset Extruder
G1 Z2.0 F3000 ;Move Z Axis up
G1 X10.1 Y20 Z0.28 F5000.0 ;Move to start position
G1 X10.1 Y200.0 Z0.28 F1500.0 E15 ;Draw the first line
G1 X10.4 Y200.0 Z0.28 F5000.0 ;Move to side a little
G1 X10.4 Y20 Z0.28 F1500.0 E30 ;Draw the second line
G92 E0 ;Reset Extruder
G1 Z2.0 F3000 ;Move Z Axis up

G92 E0
G92 E0
G1 F2700 E-5
;LAYER_COUNT:19
;LAYER:-8
M107
G0 F9000 X147.972 Y5.124 Z0.24
;TYPE:SUPPORT-INTERFACE
G1 F2700 E0
G1 F900 X147.992 Y4.816 E0.02464
G1 X148.056 Y4.519 E0.04889
G1 X148.197 Y4.201 E0.07666
G1 X148.383 Y3.944 E0.10198
G1 X148.619 Y3.727 E0.12757
G1 X148.876 Y3.57 E0.15161
G1 X149.091 Y3.483 E0.17013
G1 X149.504 Y3.409 E0.20362
G1 X149.706 Y3.4 E0.21976
G1 X150.297 Y3.4 E0.26694
G1 X150.617 Y3.421 E0.29253
G1 X150.909 Y3.484 E0.31638
G1 X151.221 Y3.622 E0.34361
G1 X151.483 Y3.811 E0.3694
G1 X151.7 Y4.047 E0.39499
G1 X151.856 Y4.302 E0.41885
G1 X151.944 Y4.519 E0.43755
G1 X152.018 Y4.933 E0.47112
G1 X152.027 Y5.134 E0.48718
G1 X152.028 Y6.87 E0.62575
G1 X152.017 Y7.087 E0.6431
G1 X151.944 Y7.822 E0.70206
G1 X151.963 Y8.501 E0.75628
G1 X152.017 Y8.911 E0.78929
G1 X152.027 Y9.133 E0.80703
G1 X152.028 Y290.871 E23.29657
G1 X152.017 Y291.086 E23.31376
G1 X151.944 Y291.823 E23.37288
G1 X151.963 Y292.502 E23.4271
G1 X152.017 Y292.903 E23.4594
G1 X152.027 Y293.133 E23.47777
G1 X152.028 Y294.87 E23.61643
G1 X152.008 Y295.18 E23.64123
G1 X151.945 Y295.477 E23.66546
G1 X151.809 Y295.789 E23.69263
G1 X151.627 Y296.044 E23.71764
G1 X151.394 Y296.263 E23.74316
G1 X151.125 Y296.43 E23.76844
G1 X150.902 Y296.518 E23.78757
G1 X150.496 Y296.591 E23.8205
G1 X150.293 Y296.6 E23.83672
G1 X149.702 Y296.6 E23.8839
G1 X149.382 Y296.579 E23.9095
G1 X149.09 Y296.516 E23.93334
G1 X148.776 Y296.377 E23.96075
G1 X148.516 Y296.189 E23.98636
G1 X148.308 Y295.966 E24.01071
G1 X148.142 Y295.696 E24.03601
G1 X148.054 Y295.477 E24.05485
G1 X147.981 Y295.068 E24.08801
G1 X147.972 Y294.859 E24.10471
G1 X147.972 Y293.128 E24.24289
G1 X147.983 Y292.911 E24.26023
G1 X148.054 Y292.202 E24.31711
G1 X148.055 Y292.158 E24.32062
G1 X148.034 Y291.48 E24.37477
G1 X147.981 Y291.094 E24.40587
G1 X147.972 Y290.867 E24.424
G1 X147.972 Y9.121 E46.91419
G1 X147.983 Y8.911 E46.93097
G1 X148.054 Y8.202 E46.98785
G1 X148.055 Y8.158 E46.99137
G1 X148.034 Y7.48 E47.04551
G1 X147.981 Y7.094 E47.07661
G1 X147.972 Y6.867 E47.09475
G1 X147.972 Y5.124 E47.23388
G1 F2700 E42.23388
G1 F300 Z0.44
G0 F9000 X148.8 Y3.616 Z0.44
G1 F300 Z0.24
G1 F2700 E47.23388
G1 F900 X148.8 Y296.387 E70.60413
G1 F2700 E65.60413
G1 F300 Z0.44
G0 F9000 X150.4 Y296.596 Z0.44
G1 F300 Z0.24
G1 F2700 E70.60413
G1 F900 X150.4 Y3.407 E94.00774
G1 F2700 E89.00774
G1 F300 Z0.44
G0 F9000 X152 Y4.833 Z0.44
G1 F300 Z0.24
G1 F2700 E94.00774
G1 F900 X152 Y7.259 E94.2014
G1 F2700 E89.2014
G1 F300 Z0.44
G0 F9000 X152 Y8.782 Z0.44
G1 F300 Z0.24
G1 F2700 E94.2014
G1 F900 X152 Y291.258 E116.74985
G1 F2700 E111.74985
G1 F300 Z0.44
G0 F9000 X152 Y292.777 Z0.44
G1 F300 Z0.24
G1 F2700 E116.74985
G1 F900 X152 Y295.218 E116.9447
G1 F2700 E111.9447
G1 F300 Z0.44
G0 F9000 X147.98 Y295.067 Z0.44
;TIME_ELAPSED:104.550189
;LAYER:-7
G0 X147.98 Y295.067 Z0.59
;TYPE:SUPPORT
G1 F300 Z0.39
G1 F2700 E116.9447
G1 F900 X148.054 Y295.475 E116.96539
G1 X148.067 Y295.523 E116.96787
G1 X148.141 Y295.695 E116.97721
G1 X148.198 Y295.806 E116.98344
G1 X148.308 Y295.965 E116.99308
G1 X148.389 Y296.067 E116.99958
G1 X148.515 Y296.187 E117.00826
G1 X148.625 Y296.28 E117.01545
G1 X148.775 Y296.376 E117.02434
G1 X148.889 Y296.438 E117.03081
G1 X149.09 Y296.515 E117.04155
G1 X149.2 Y296.548 E117.04728
G1 X149.382 Y296.578 E117.05648
G1 X149.484 Y296.588 E117.06159
G1 X149.51 Y296.588 E117.06289
G1 X147.979 Y295.057 E117.17091
G1 X147.971 Y294.857 E117.1809
G1 X147.971 Y293.635 E117.24186
G1 X150.86 Y296.524 E117.4457
G1 X150.901 Y296.517 E117.44777
G1 X150.951 Y296.504 E117.45035
G1 X151.124 Y296.429 E117.45976
G1 X151.233 Y296.373 E117.46587
G1 X151.394 Y296.262 E117.47563
G1 X151.491 Y296.184 E117.48184
G1 X151.627 Y296.043 E117.49161
G1 X151.703 Y295.953 E117.49749
G1 X148.044 Y292.293 E117.75568
G1 X148.054 Y292.201 E117.7603
G1 X148.054 Y292.157 E117.7625
G1 X148.034 Y291.479 E117.79634
G1 X147.98 Y291.093 E117.81578
G1 X147.971 Y290.866 E117.82712
G1 X147.971 Y290.806 E117.83011
G1 X152.027 Y294.863 E118.11632
G1 X152.027 Y293.448 E118.18691
G1 X147.971 Y289.392 E118.47309
G1 X147.971 Y287.978 E118.54363
G1 X151.948 Y291.955 E118.82423
G1 X151.943 Y291.822 E118.83087
G1 X152.017 Y291.085 E118.86782
G1 X152.027 Y290.869 E118.87861
G1 X152.027 Y290.62 E118.89103
G1 X147.971 Y286.564 E119.17721
G1 X147.971 Y285.15 E119.24775
G1 X152.027 Y289.206 E119.53392
G1 X152.027 Y287.792 E119.60447
G1 X147.971 Y283.735 E119.89068
G1 X147.971 Y282.321 E119.96122
G1 X152.027 Y286.378 E120.24743
G1 X152.027 Y284.964 E120.31797
G1 X147.971 Y280.907 E120.60418
G1 X147.971 Y279.493 E120.67473
G1 X152.027 Y283.549 E120.9609
G1 X152.027 Y282.135 E121.03144
G1 X147.971 Y278.078 E121.31765
G1 X147.971 Y276.664 E121.3882
G1 X152.027 Y280.721 E121.6744
G1 X152.027 Y279.307 E121.74495
G1 X147.971 Y275.25 E122.03116
G1 X147.971 Y273.836 E122.1017
G1 X152.027 Y277.892 E122.38787
G1 X152.027 Y276.478 E122.45842
G1 X147.971 Y272.422 E122.74459
G1 X147.971 Y271.007 E122.81519
G1 X152.027 Y275.064 E123.10139
G1 X152.027 Y273.65 E123.17194
G1 X147.971 Y269.593 E123.45815
G1 X147.971 Y268.179 E123.52869
G1 X152.027 Y272.236 E123.8149
G1 X152.027 Y270.821 E123.88549
G1 X147.971 Y266.765 E124.17167
G1 X147.971 Y265.351 E124.24221
G1 X152.027 Y269.407 E124.52839
G1 X152.027 Y267.993 E124.59893
G1 X147.971 Y263.936 E124.88514
G1 X147.971 Y262.522 E124.95568
G1 X152.027 Y266.579 E125.24189
G1 X152.027 Y265.165 E125.31244
G1 X147.971 Y261.108 E125.59864
G1 X147.971 Y259.694 E125.66919
G1 X152.027 Y263.75 E125.95536
G1 X152.027 Y262.336 E126.02591
G1 X147.971 Y258.279 E126.31211
G1 X147.971 Y256.865 E126.38266
G1 X152.027 Y260.922 E126.66887
G1 X152.027 Y259.508 E126.73941
G1 X147.971 Y255.451 E127.02562
G1 X147.971 Y254.037 E127.09616
G1 X152.027 Y258.093 E127.38234
G1 X152.027 Y256.679 E127.45288
G1 X147.971 Y252.623 E127.73905
G1 X147.971 Y251.208 E127.80965
G1 X152.027 Y255.265 E128.09586
G1 X152.027 Y253.851 E128.1664
G1 X147.971 Y249.794 E128.45261
G1 X147.971 Y248.38 E128.52315
G1 X152.027 Y252.437 E128.80936
G1 X152.027 Y251.022 E128.87996
G1 X147.971 Y246.966 E129.16613
G1 X147.971 Y245.552 E129.23667
G1 X152.027 Y249.608 E129.52285
G1 X152.027 Y248.194 E129.59339
G1 X147.971 Y244.137 E129.8796
G1 X147.971 Y242.723 E129.95014
G1 X152.027 Y246.78 E130.23635
G1 X152.027 Y245.366 E130.3069
G1 X147.971 Y241.309 E130.5931
G1 X147.971 Y239.895 E130.66365
G1 X152.027 Y243.951 E130.94982
G1 X152.027 Y242.537 E131.02037
G1 X147.971 Y238.48 E131.30658
G1 X147.971 Y237.066 E131.37712
G1 X152.027 Y241.123 E131.66333
G1 X152.027 Y239.709 E131.73387
G1 X147.971 Y235.652 E132.02008
G1 X147.971 Y234.238 E132.09063
G1 X152.027 Y238.294 E132.3768
G1 X152.027 Y236.88 E132.44734
G1 X147.971 Y232.824 E132.73352
G1 X147.971 Y231.409 E132.80411
G1 X152.027 Y235.466 E133.09032
G1 X152.027 Y234.052 E133.16086
G1 X147.971 Y229.995 E133.44707
G1 X147.971 Y228.581 E133.51762
G1 X152.027 Y232.638 E133.80382
G1 X152.027 Y231.223 E133.87442
G1 X147.971 Y227.167 E134.16059
G1 X147.971 Y225.753 E134.23114
G1 X152.027 Y229.809 E134.51731
G1 X152.027 Y228.395 E134.58785
G1 X147.971 Y224.338 E134.87406
G1 X147.971 Y222.924 E134.94461
G1 X152.027 Y226.981 E135.23081
G1 X152.027 Y225.567 E135.30136
G1 X147.971 Y221.51 E135.58757
G1 X147.971 Y220.096 E135.65811
G1 X152.027 Y224.152 E135.94428
G1 X152.027 Y222.738 E136.01483
G1 X147.971 Y218.681 E136.30104
G1 X147.971 Y217.267 E136.37158
G1 X152.027 Y221.324 E136.65779
G1 X152.027 Y219.91 E136.72833
G1 X147.971 Y215.853 E137.01454
G1 X147.971 Y214.439 E137.08509
G1 X152.027 Y218.495 E137.37126
G1 X152.027 Y217.081 E137.4418
G1 X147.971 Y213.025 E137.72798
G1 X147.971 Y211.61 E137.79857
G1 X152.027 Y215.667 E138.08478
G1 X152.027 Y214.253 E138.15532
G1 X147.971 Y210.196 E138.44153
G1 X147.971 Y208.782 E138.51208
G1 X152.027 Y212.839 E138.79829
G1 X152.027 Y211.424 E138.86888
G1 X147.971 Y207.368 E139.15505
G1 X147.971 Y205.954 E139.2256
G1 X152.027 Y210.01 E139.51177
G1 X152.027 Y208.596 E139.58231
G1 X147.971 Y204.539 E139.86852
G1 X147.971 Y203.125 E139.93907
G1 X152.027 Y207.182 E140.22528
G1 X152.027 Y205.768 E140.29582
G1 X147.971 Y201.711 E140.58203
G1 X147.971 Y200.297 E140.65257
G1 X152.027 Y204.353 E140.93875
G1 X152.027 Y202.939 E141.00929
G1 X147.971 Y198.882 E141.2955
G1 X147.971 Y197.468 E141.36604
G1 X152.027 Y201.525 E141.65225
G1 X152.027 Y200.111 E141.7228
G1 X147.971 Y196.054 E142.009
G1 X147.971 Y194.64 E142.07955
G1 X152.027 Y198.697 E142.36576
G1 X152.027 Y197.282 E142.43635
G1 X147.971 Y193.226 E142.72252
G1 X147.971 Y191.811 E142.79312
G1 X152.027 Y195.868 E143.07933
G1 X152.027 Y194.454 E143.14987
G1 X147.971 Y190.397 E143.43608
G1 X147.971 Y188.983 E143.50662
G1 X152.027 Y193.04 E143.79283
G1 X152.027 Y191.625 E143.86343
G1 X147.971 Y187.569 E144.1496
G1 X147.971 Y186.155 E144.22014
G1 X152.027 Y190.211 E144.50632
G1 X152.027 Y188.797 E144.57686
G1 X147.971 Y184.74 E144.86307
G1 X147.971 Y183.326 E144.93361
G1 X152.027 Y187.383 E145.21982
G1 X152.027 Y185.969 E145.29037
G1 X147.971 Y181.912 E145.57657
G1 X147.971 Y180.498 E145.64712
G1 X152.027 Y184.554 E145.93329
G1 X152.027 Y183.14 E146.00384
G1 X147.971 Y179.083 E146.29005
G1 X147.971 Y177.669 E146.36059
G1 X152.027 Y181.726 E146.6468
G1 X152.027 Y180.312 E146.71734
G1 X147.971 Y176.255 E147.00355
G1 X147.971 Y174.841 E147.0741
G1 X152.027 Y178.898 E147.3603
G1 X152.027 Y177.483 E147.4309
G1 X147.971 Y173.427 E147.71707
G1 X147.971 Y172.012 E147.78767
G1 X152.027 Y176.069 E148.07387
G1 X152.027 Y174.655 E148.14442
G1 X147.971 Y170.598 E148.43063
G1 X147.971 Y169.184 E148.50117
G1 X152.027 Y173.241 E148.78738
G1 X152.027 Y171.826 E148.85797
G1 X147.971 Y167.77 E149.14415
G1 X147.971 Y166.356 E149.21469
G1 X152.027 Y170.412 E149.50086
G1 X152.027 Y168.998 E149.57141
G1 X147.971 Y164.941 E149.85762
G1 X147.971 Y163.527 E149.92816
G1 X152.027 Y167.584 E150.21437
G1 X152.027 Y166.17 E150.28491
G1 X147.971 Y162.113 E150.57112
G1 X147.971 Y160.699 E150.64167
G1 X152.027 Y164.755 E150.92784
G1 X152.027 Y163.341 E150.99838
G1 X147.971 Y159.284 E151.28459
G1 X147.971 Y157.87 E151.35514
G1 X152.027 Y161.927 E151.64134
G1 X152.027 Y160.513 E151.71189
G1 X147.971 Y156.456 E151.9981
G1 X147.971 Y155.042 E152.06864
G1 X152.027 Y159.099 E152.35485
G1 X152.027 Y157.684 E152.42544
G1 X147.971 Y153.628 E152.71162
G1 X147.971 Y152.213 E152.78221
G1 X152.027 Y156.27 E153.06842
G1 X152.027 Y154.856 E153.13896
G1 X147.971 Y150.799 E153.42517
G1 X147.971 Y149.385 E153.49572
G1 X152.027 Y153.442 E153.78193
G1 X152.027 Y152.027 E153.85252
G1 X147.971 Y147.971 E154.13869
G1 X147.971 Y146.557 E154.20924
G1 X152.027 Y150.613 E154.49541
G1 X152.027 Y149.198 E154.56601
G1 X147.971 Y145.142 E154.85218
G1 X147.971 Y143.728 E154.92272
G1 X152.027 Y147.784 E155.2089
G1 X152.027 Y146.37 E155.27944
G1 X147.971 Y142.314 E155.56561
G1 X147.971 Y140.9 E155.63616
G1 X152.027 Y144.956 E155.92233
G1 X152.027 Y143.541 E155.99292
G1 X147.971 Y139.486 E156.27906
G1 X147.971 Y138.071 E156.34966
G1 X152.027 Y142.127 E156.63583
G1 X152.027 Y140.713 E156.70637
G1 X147.971 Y136.657 E156.99255
G1 X147.971 Y135.243 E157.06309
G1 X152.027 Y139.299 E157.34926
G1 X152.027 Y137.885 E157.41981
G1 X147.971 Y133.829 E157.70598
G1 X147.971 Y132.414 E157.77658
G1 X152.027 Y136.47 E158.06275
G1 X152.027 Y135.056 E158.13329
G1 X147.971 Y131 E158.41947
G1 X147.971 Y129.586 E158.49001
G1 X152.027 Y133.642 E158.77618
G1 X152.027 Y132.228 E158.84673
G1 X147.971 Y128.172 E159.1329
G1 X147.971 Y126.758 E159.20345
G1 X152.027 Y130.814 E159.48962
G1 X152.027 Y129.399 E159.56021
G1 X147.971 Y125.343 E159.84639
G1 X147.971 Y123.929 E159.91693
G1 X152.027 Y127.985 E160.2031
G1 X152.027 Y126.571 E160.27365
G1 X147.971 Y122.515 E160.55982
G1 X147.971 Y121.101 E160.63037
G1 X152.027 Y125.157 E160.91654
G1 X152.027 Y123.742 E160.98713
G1 X147.971 Y119.687 E161.27327
G1 X147.971 Y118.272 E161.34387
G1 X152.027 Y122.328 E161.63004
G1 X152.027 Y120.914 E161.70058
G1 X147.971 Y116.858 E161.98676
G1 X147.971 Y115.444 E162.0573
G1 X152.027 Y119.5 E162.34347
G1 X152.027 Y118.086 E162.41402
G1 X147.971 Y114.03 E162.70019
G1 X147.971 Y112.615 E162.77079
G1 X152.027 Y116.671 E163.05696
G1 X152.027 Y115.257 E163.1275
G1 X147.971 Y111.201 E163.41368
G1 X147.971 Y109.787 E163.48422
G1 X152.027 Y113.843 E163.77039
G1 X152.027 Y112.429 E163.84094
G1 X147.971 Y108.373 E164.12711
G1 X147.971 Y106.959 E164.19765
G1 X152.027 Y111.015 E164.48383
G1 X152.027 Y109.6 E164.55442
G1 X147.971 Y105.544 E164.8406
G1 X147.971 Y104.13 E164.91114
G1 X152.027 Y108.186 E165.19731
G1 X152.027 Y106.772 E165.26786
G1 X147.971 Y102.716 E165.55403
G1 X147.971 Y101.302 E165.62457
G1 X152.027 Y105.358 E165.91075
G1 X152.027 Y103.943 E165.98134
G1 X147.971 Y99.888 E166.26748
G1 X147.971 Y98.473 E166.33807
G1 X152.027 Y102.529 E166.62425
G1 X152.027 Y101.115 E166.69479
G1 X147.971 Y97.059 E166.98096
G1 X147.971 Y95.645 E167.05151
G1 X152.027 Y99.701 E167.33768
G1 X152.027 Y98.287 E167.40823
G1 X147.971 Y94.231 E167.6944
G1 X147.971 Y92.816 E167.76499
G1 X152.027 Y96.872 E168.05117
G1 X152.027 Y95.458 E168.12171
G1 X147.971 Y91.402 E168.40788
G1 X147.971 Y89.988 E168.47843
G1 X152.027 Y94.044 E168.7646
G1 X152.027 Y92.63 E168.83515
G1 X147.971 Y88.574 E169.12132
G1 X147.971 Y87.16 E169.19186
G1 X152.027 Y91.216 E169.47804
G1 X152.027 Y89.801 E169.54863
G1 X147.971 Y85.745 E169.8348
G1 X147.971 Y84.331 E169.90535
G1 X152.027 Y88.387 E170.19152
G1 X152.027 Y86.973 E170.26207
G1 X147.971 Y82.917 E170.54824
G1 X147.971 Y81.503 E170.61878
G1 X152.027 Y85.559 E170.90496
G1 X152.027 Y84.144 E170.97555
G1 X147.971 Y80.089 E171.26169
G1 X147.971 Y78.674 E171.33228
G1 X152.027 Y82.73 E171.61846
G1 X152.027 Y81.316 E171.689
G1 X147.971 Y77.26 E171.97517
G1 X147.971 Y75.846 E172.04572
G1 X152.027 Y79.902 E172.33189
G1 X152.027 Y78.488 E172.40244
G1 X147.971 Y74.432 E172.68861
G1 X147.971 Y73.017 E172.7592
G1 X152.027 Y77.073 E173.04538
G1 X152.027 Y75.659 E173.11592
G1 X147.971 Y71.603 E173.40209
G1 X147.971 Y70.189 E173.47264
G1 X152.027 Y74.245 E173.75881
G1 X152.027 Y72.831 E173.82935
G1 X147.971 Y68.775 E174.11553
G1 X147.971 Y67.361 E174.18607
G1 X152.027 Y71.417 E174.47224
G1 X152.027 Y70.002 E174.54284
G1 X147.971 Y65.946 E174.82901
G1 X147.971 Y64.532 E174.89956
G1 X152.027 Y68.588 E175.18573
G1 X152.027 Y67.174 E175.25627
G1 X147.971 Y63.118 E175.54245
G1 X147.971 Y61.704 E175.61299
G1 X152.027 Y65.76 E175.89916
G1 X152.027 Y64.346 E175.96971
G1 X147.971 Y60.29 E176.25588
G1 X147.971 Y58.875 E176.32648
G1 X152.027 Y62.931 E176.61265
G1 X152.027 Y61.517 E176.68319
G1 X147.971 Y57.461 E176.96937
G1 X147.971 Y56.047 E177.03991
G1 X152.027 Y60.103 E177.32608
G1 X152.027 Y58.689 E177.39663
G1 X147.971 Y54.633 E177.6828
G1 X147.971 Y53.218 E177.7534
G1 X152.027 Y57.274 E178.03957
G1 X152.027 Y55.86 E178.11011
G1 X147.971 Y51.804 E178.39629
G1 X147.971 Y50.39 E178.46683
G1 X152.027 Y54.446 E178.753
G1 X152.027 Y53.032 E178.82355
G1 X147.971 Y48.976 E179.10972
G1 X147.971 Y47.562 E179.18027
G1 X152.027 Y51.618 E179.46644
G1 X152.027 Y50.203 E179.53703
G1 X147.971 Y46.147 E179.82321
G1 X147.971 Y44.733 E179.89375
G1 X152.027 Y48.789 E180.17992
G1 X152.027 Y47.375 E180.25047
