;FLAVOR:Marlin
;TIME:6071
;Filament used: 2.06574m
;Layer height: 0.1
;MINX:143.271
;MINY:3.199
;MINZ:0.24
;MAXX:156.728
;MAXY:296.8
;MAXZ:2.94
;Generated with Cura_SteamEngine 4.12.1
M140 S50
M105
M190 S50
M104 S235
M105
M109 S235
M82 ;absolute extrusion mode
M201 X500.00 Y500.00 Z100.00 E5000.00 ;Setup machine max acceleration
M203 X500.00 Y500.00 Z10.00 E50.00 ;Setup machine max feedrate
M204 P500.00 R1000.00 T500.00 ;Setup Print/Retract/Travel acceleration
M205 X8.00 Y8.00 Z0.40 E5.00 ;Setup Jerk
M220 S100 ;Reset Feedrate
M221 S100 ;Reset Flowrate

G28 ;Home

G92 E0 ;Reset Extruder
G1 Z2.0 F3000 ;Move Z Axis up
G1 X10.1 Y20 Z0.28 F5000.0 ;Move to start position
G1 X10.1 Y200.0 Z0.28 F1500.0 E15 ;Draw the first line
G1 X10.4 Y200.0 Z0.28 F5000.0 ;Move to side a little
G1 X10.4 Y20 Z0.28 F1500.0 E30 ;Draw the second line
G92 E0 ;Reset Extruder
G1 Z2.0 F3000 ;Move Z Axis up

G92 E0
G92 E0
G1 F2700 E-5
;LAYER_COUNT:19
;LAYER:-8
M107
G0 F9000 X143.472 Y5.124 Z0.24
;TYPE:SUPPORT-INTERFACE
G1 F2700 E0
G1 F900 X143.492 Y4.816 E0.02464
G1 X143.556 Y4.519 E0.04889
G1 X143.697 Y4.201 E0.07666
G1 X143.883 Y3.944 E0.10198
G1 X144.119 Y3.727 E0.12757
G1 X144.376 Y3.57 E0.15161
G1 X144.591 Y3.483 E0.17013
G1 X145.004 Y3.409 E0.20362
G1 X145.206 Y3.4 E0.21976
G1 X145.797 Y3.4 E0.26694
G1 X146.117 Y3.421 E0.29253
G1 X146.409 Y3.484 E0.31638
G1 X146.721 Y3.622 E0.34361
G1 X146.983 Y3.811 E0.3694
G1 X147.2 Y4.047 E0.39499
G1 X147.356 Y4.302 E0.41885
G1 X147.444 Y4.519 E0.43755
G1 X147.518 Y4.933 E0.47112
G1 X147.527 Y5.134 E0.48718
G1 X147.528 Y6.87 E0.62575
G1 X147.517 Y7.087 E0.6431
G1 X147.444 Y7.822 E0.70206
G1 X147.463 Y8.501 E0.75628
G1 X147.517 Y8.911 E0.78929
G1 X147.527 Y9.273 E0.8182
G1 X147.569 Y9.941 E0.87162
G1 X147.698 Y10.612 E0.92617
G1 X147.911 Y11.261 E0.98069
G1 X148.203 Y11.878 E1.03518
G1 X148.571 Y12.453 E1.08968
G1 X149.009 Y12.977 E1.14419
G1 X149.321 Y13.267 E1.17819
G1 X149.509 Y13.441 E1.19864
G1 X149.642 Y13.536 E1.21169
G1 X149.855 Y13.703 E1.23329
G1 X150.102 Y13.926 E1.25986
G1 X150.299 Y14.191 E1.28622
G1 X150.433 Y14.481 E1.31172
G1 X150.444 Y14.522 E1.3151
G1 X150.518 Y14.933 E1.34844
G1 X150.527 Y15.134 E1.3645
G1 X150.528 Y16.87 E1.50308
G1 X150.517 Y17.087 E1.52042
G1 X150.444 Y17.822 E1.57938
G1 X150.463 Y18.501 E1.6336
G1 X150.517 Y18.911 E1.66661
G1 X150.527 Y19.133 E1.68435
G1 X150.527 Y28.095 E2.39974
G1 X150.569 Y28.763 E2.45316
G1 X150.698 Y29.434 E2.50771
G1 X150.911 Y30.083 E2.56223
G1 X151.203 Y30.7 E2.61672
G1 X151.571 Y31.275 E2.67122
G1 X152.009 Y31.799 E2.72573
G1 X152.509 Y32.263 E2.78018
G1 X153.065 Y32.662 E2.83481
G1 X153.665 Y32.986 E2.88924
G1 X154.303 Y33.233 E2.94385
G1 X155.035 Y33.407 E3.00391
G1 X155.307 Y33.453 E3.02593
G1 X155.61 Y33.561 E3.05161
G1 X155.874 Y33.719 E3.07617
G1 X156.102 Y33.926 E3.10075
G1 X156.299 Y34.191 E3.12711
G1 X156.433 Y34.481 E3.15261
G1 X156.444 Y34.522 E3.156
G1 X156.518 Y34.933 E3.18933
G1 X156.527 Y35.134 E3.20539
G1 X156.528 Y36.87 E3.34397
G1 X156.517 Y37.087 E3.36131
G1 X156.444 Y37.822 E3.42027
G1 X156.463 Y38.501 E3.4745
G1 X156.517 Y38.911 E3.50751
G1 X156.527 Y39.133 E3.52524
G1 X156.528 Y260.871 E21.22533
G1 X156.517 Y261.086 E21.24252
G1 X156.444 Y261.823 E21.30163
G1 X156.463 Y262.502 E21.35586
G1 X156.517 Y262.903 E21.38815
G1 X156.527 Y263.133 E21.40653
G1 X156.528 Y264.87 E21.54519
G1 X156.508 Y265.18 E21.56998
G1 X156.445 Y265.477 E21.59422
G1 X156.309 Y265.789 E21.62139
G1 X156.127 Y266.044 E21.64639
G1 X155.894 Y266.263 E21.67192
G1 X155.619 Y266.432 E21.69769
G1 X155.405 Y266.517 E21.71607
G1 X154.953 Y266.6 E21.75275
G1 X154.302 Y266.761 E21.80628
G1 X153.666 Y267.007 E21.86071
G1 X153.064 Y267.331 E21.91529
G1 X152.51 Y267.73 E21.96979
G1 X152.009 Y268.194 E22.02429
G1 X151.572 Y268.718 E22.07876
G1 X151.204 Y269.294 E22.13332
G1 X150.912 Y269.91 E22.18774
G1 X150.699 Y270.56 E22.24234
G1 X150.57 Y271.229 E22.29672
G1 X150.528 Y271.898 E22.35023
G1 X150.528 Y280.871 E23.06649
G1 X150.517 Y281.086 E23.08368
G1 X150.444 Y281.823 E23.1428
G1 X150.463 Y282.502 E23.19702
G1 X150.517 Y282.903 E23.22932
G1 X150.527 Y283.133 E23.2477
G1 X150.528 Y284.87 E23.38635
G1 X150.508 Y285.18 E23.41115
G1 X150.445 Y285.477 E23.43538
G1 X150.309 Y285.789 E23.46255
G1 X150.127 Y286.044 E23.48756
G1 X149.887 Y286.269 E23.51382
G1 X149.833 Y286.306 E23.51904
G1 X149.308 Y286.723 E23.57256
G1 X148.832 Y287.212 E23.62704
G1 X148.42 Y287.756 E23.68151
G1 X148.081 Y288.349 E23.73603
G1 X147.819 Y288.979 E23.7905
G1 X147.638 Y289.638 E23.84505
G1 X147.544 Y290.309 E23.89914
G1 X147.528 Y290.723 E23.93221
G1 X147.517 Y291.086 E23.9612
G1 X147.444 Y291.823 E24.02032
G1 X147.463 Y292.502 E24.07454
G1 X147.517 Y292.903 E24.10684
G1 X147.527 Y293.133 E24.12521
G1 X147.528 Y294.87 E24.26387
G1 X147.508 Y295.18 E24.28867
G1 X147.445 Y295.477 E24.3129
G1 X147.309 Y295.789 E24.34007
G1 X147.127 Y296.044 E24.36508
G1 X146.894 Y296.263 E24.3906
G1 X146.625 Y296.43 E24.41588
G1 X146.402 Y296.518 E24.43501
G1 X145.996 Y296.591 E24.46794
G1 X145.793 Y296.6 E24.48416
G1 X145.202 Y296.6 E24.53134
G1 X144.882 Y296.579 E24.55694
G1 X144.59 Y296.516 E24.58078
G1 X144.276 Y296.377 E24.60819
G1 X144.016 Y296.189 E24.6338
G1 X143.808 Y295.966 E24.65815
G1 X143.642 Y295.696 E24.68345
G1 X143.554 Y295.477 E24.70229
G1 X143.481 Y295.068 E24.73545
G1 X143.472 Y294.859 E24.75215
G1 X143.472 Y293.128 E24.89033
G1 X143.483 Y292.911 E24.90767
G1 X143.554 Y292.202 E24.96455
G1 X143.555 Y292.158 E24.96806
G1 X143.534 Y291.48 E25.02221
G1 X143.481 Y291.094 E25.05331
G1 X143.472 Y290.867 E25.07144
G1 X143.472 Y9.121 E47.56163
G1 X143.483 Y8.911 E47.57841
G1 X143.554 Y8.202 E47.63529
G1 X143.555 Y8.158 E47.63881
G1 X143.534 Y7.48 E47.69295
G1 X143.481 Y7.094 E47.72405
G1 X143.472 Y6.867 E47.74219
G1 X143.472 Y5.124 E47.88132
G0 F9000 X144 Y3.836
G1 F900 X144 Y296.171 E71.21677
G1 F2700 E66.21677
G1 F300 Z0.44
G0 F9000 X145.6 Y296.6 Z0.44
G1 F300 Z0.24
G1 F2700 E71.21677
G1 F900 X145.6 Y3.4 E94.62126
G1 F2700 E89.62126
G1 F300 Z0.44
G0 F9000 X147.2 Y4.047 Z0.44
G1 F300 Z0.24
G1 F2700 E94.62126
G1 F900 X147.2 Y295.942 E117.92158
G1 F2700 E112.92158
G1 F300 Z0.44
G0 F9000 X148.8 Y287.255 Z0.44
G1 F300 Z0.24
G1 F2700 E117.92158
G1 F900 X148.8 Y12.727 E139.83559
G1 F2700 E134.83559
G1 F300 Z0.44
G0 F9000 X150.4 Y14.41 Z0.44
G1 F300 Z0.24
G1 F2700 E139.83559
G1 F900 X150.4 Y285.581 E161.48163
G1 F2700 E156.48163
G1 F300 Z0.44
G0 F9000 X152 Y268.205 Z0.44
G1 F300 Z0.24
G1 F2700 E161.48163
G1 F900 X152 Y31.789 E180.35338
G1 F2700 E175.35338
G1 F300 Z0.44
G0 F9000 X153.6 Y32.951 Z0.44
G1 F300 Z0.24
G1 F2700 E180.35338
G1 F900 X153.6 Y267.043 E199.03962
G1 F2700 E194.03962
G1 F300 Z0.44
G0 F9000 X155.2 Y266.555 Z0.44
G1 F300 Z0.24
G1 F2700 E199.03962
G1 F900 X155.2 Y33.435 E217.64826
G0 F300 X155.2 Y33.435 Z0.39
G0 F9000 X154.302 Y33.232
;TIME_ELAPSED:189.772071
;LAYER:-7
;TYPE:SUPPORT
G1 F900 X153.664 Y32.986 E217.68238
G1 X153.063 Y32.661 E217.71646
G1 X152.508 Y32.263 E217.75054
G1 X152.008 Y31.798 E217.7846
G1 X151.57 Y31.274 E217.81867
G1 X151.202 Y30.699 E217.85273
G1 X150.91 Y30.083 E217.88674
G1 X150.697 Y29.434 E217.92082
G1 X150.611 Y28.989 E217.94343
G1 X143.471 Y21.848 E218.44723
G1 X143.471 Y20.434 E218.51778
G1 X150.526 Y27.489 E219.01555
G1 X150.526 Y26.075 E219.08609
G1 X143.471 Y19.02 E219.58386
G1 X143.471 Y17.606 E219.65441
G1 X150.526 Y24.661 E220.15217
G1 X150.526 Y23.246 E220.22277
G1 X143.471 Y16.192 E220.7205
G1 X143.471 Y14.777 E220.7911
G1 X150.526 Y21.832 E221.28886
G1 X150.526 Y20.418 E221.35941
G1 X143.471 Y13.363 E221.85718
G1 X143.471 Y11.949 E221.92772
G1 X150.52 Y18.998 E222.42507
G1 X150.516 Y18.91 E222.42946
G1 X150.462 Y18.5 E222.45009
G1 X150.443 Y17.822 E222.48393
G1 X150.472 Y17.536 E222.49827
G1 X143.471 Y10.535 E222.99223
G1 X143.471 Y9.12 E223.06283
G1 X150.527 Y16.177 E223.5607
G1 X150.526 Y15.134 E223.61274
G1 X150.517 Y14.932 E223.62282
G1 X150.477 Y14.713 E223.63393
G1 X143.542 Y7.778 E224.12323
G1 X143.533 Y7.48 E224.13811
G1 X143.48 Y7.093 E224.1576
G1 X143.471 Y6.866 E224.16893
G1 X143.471 Y6.292 E224.19757
G1 X147.675 Y10.497 E224.49422
G1 X147.568 Y9.941 E224.52246
G1 X147.526 Y9.272 E224.55591
G1 X147.526 Y9.132 E224.56289
G1 X147.517 Y8.924 E224.57328
G1 X143.483 Y4.89 E224.8579
G1 X143.491 Y4.816 E224.86161
G1 X143.522 Y4.63 E224.87102
G1 X143.555 Y4.518 E224.87684
G1 X143.632 Y4.316 E224.88763
G1 X143.696 Y4.2 E224.89424
G1 X143.79 Y4.053 E224.90294
G1 X143.882 Y3.944 E224.91006
G1 X143.916 Y3.908 E224.91253
G1 X147.478 Y7.471 E225.16388
G1 X147.516 Y7.086 E225.18319
G1 X147.527 Y6.869 E225.19403
G1 X147.527 Y6.105 E225.23214
G1 X144.857 Y3.435 E225.42052
G1 X145.002 Y3.408 E225.42788
G1 X145.205 Y3.4 E225.43802
G1 X145.796 Y3.4 E225.4675
G1 X146.014 Y3.411 E225.47839
G1 X146.116 Y3.42 E225.4835
G1 X146.284 Y3.449 E225.49201
G1 X147.463 Y4.628 E225.57519
G0 F9000 X147.443 Y4.519
G1 F900 X147.432 Y4.48 E225.57721
G1 X147.355 Y4.302 E225.58689
G1 X147.298 Y4.191 E225.59312
G1 X147.199 Y4.046 E225.60187
G1 X147.112 Y3.937 E225.60883
G1 X146.982 Y3.811 E225.61786
G1 X146.873 Y3.719 E225.62498
G1 X146.72 Y3.621 E225.63405
G1 X146.608 Y3.56 E225.64041
G1 X146.408 Y3.483 E225.6511
G1 X146.298 Y3.451 E225.65682
G1 X146.284 Y3.449 E225.65752
G1 F2700 E220.65752
G1 F300 Z0.59
G0 F9000 X156.443 Y34.522 Z0.59
G1 F300 Z0.39
G1 F2700 E225.65752
G1 F900 X156.432 Y34.48 E225.65969
G1 X156.356 Y34.303 E225.6693
G1 X156.298 Y34.19 E225.67563
G1 X156.199 Y34.046 E225.68435
G1 X156.112 Y33.938 E225.69127
G1 X155.982 Y33.811 E225.70034
G1 X155.873 Y33.719 E225.70745
G1 X155.72 Y33.621 E225.71652
G1 X155.609 Y33.561 E225.72281
G1 X155.407 Y33.484 E225.7336
G1 X155.306 Y33.453 E225.73887
G1 X155.033 Y33.407 E225.75268
G1 X155.028 Y33.406 E225.75294
G1 X156.509 Y34.887 E225.85743
G1 X156.517 Y34.933 E225.85976
G1 X156.525 Y35.134 E225.86979
G1 X156.527 Y36.319 E225.92891
G1 X143.471 Y23.263 E226.85009
G1 X143.471 Y24.677 E226.92063
G1 X156.459 Y37.665 E227.837
G1 X156.443 Y37.821 E227.84483
G1 X156.462 Y38.501 E227.87877
G1 X156.516 Y38.91 E227.89935
G1 X156.526 Y39.132 E227.91044
G1 X156.527 Y39.147 E227.91119
G1 X143.471 Y26.091 E228.83236
G1 X143.471 Y27.505 E228.9029
G1 X156.527 Y40.561 E229.82407
G1 X156.527 Y41.975 E229.89462
G1 X143.471 Y28.919 E230.81579
G1 X143.471 Y30.334 E230.88638
G1 X156.527 Y43.39 E231.80756
G1 X156.527 Y44.804 E231.8781
G1 X143.471 Y31.748 E232.79927
G1 X143.471 Y33.162 E232.86982
G1 X156.527 Y46.218 E233.79099
G1 X156.527 Y47.632 E233.86153
G1 X143.471 Y34.576 E234.7827
G1 X143.471 Y35.991 E234.8533
G1 X156.527 Y49.047 E235.77447
G1 X156.527 Y50.461 E235.84501
G1 X143.471 Y37.405 E236.76619
G1 X143.471 Y38.819 E236.83673
G1 X156.527 Y51.875 E237.7579
G1 X156.527 Y53.289 E237.82845
G1 X143.471 Y40.233 E238.74962
G1 X143.471 Y41.647 E238.82016
G1 X156.527 Y54.703 E239.74133
G1 X156.527 Y56.118 E239.81193
G1 X143.471 Y43.062 E240.7331
G1 X143.471 Y44.476 E240.80364
G1 X156.527 Y57.532 E241.72482
G1 X156.527 Y58.946 E241.79536
G1 X143.471 Y45.89 E242.71653
G1 X143.471 Y47.304 E242.78708
G1 X156.527 Y60.36 E243.70825
G1 X156.527 Y61.774 E243.77879
G1 X143.471 Y48.718 E244.69996
G1 X143.471 Y50.133 E244.77056
G1 X156.527 Y63.189 E245.69173
G1 X156.527 Y64.603 E245.76227
G1 X143.471 Y51.547 E246.68345
G1 X143.471 Y52.961 E246.75399
G1 X156.527 Y66.017 E247.67516
G1 X156.527 Y67.431 E247.74571
G1 X143.471 Y54.375 E248.66688
G1 X143.471 Y55.79 E248.73747
G1 X156.527 Y68.846 E249.65864
G1 X156.527 Y70.26 E249.72919
G1 X143.471 Y57.204 E250.65036
G1 X143.471 Y58.618 E250.7209
G1 X156.527 Y71.674 E251.64208
G1 X156.527 Y73.088 E251.71262
G1 X143.471 Y60.032 E252.63379
G1 X143.471 Y61.446 E252.70434
G1 X156.527 Y74.502 E253.62551
G1 X156.527 Y75.917 E253.6961
G1 X143.471 Y62.861 E254.61727
G1 X143.471 Y64.275 E254.68782
G1 X156.527 Y77.331 E255.60899
G1 X156.527 Y78.745 E255.67953
G1 X143.471 Y65.689 E256.60071
G1 X143.471 Y67.103 E256.67125
G1 X156.527 Y80.159 E257.59242
G1 X156.527 Y81.573 E257.66297
G1 X143.471 Y68.517 E258.58414
G1 X143.471 Y69.932 E258.65473
G1 X156.527 Y82.988 E259.5759
G1 X156.527 Y84.402 E259.64645
G1 X143.471 Y71.346 E260.56762
G1 X143.471 Y72.76 E260.63817
G1 X156.527 Y85.816 E261.55934
G1 X156.527 Y87.23 E261.62988
G1 X143.471 Y74.174 E262.55105
G1 X143.471 Y75.589 E262.62165
G1 X156.527 Y88.645 E263.54282
G1 X156.527 Y90.059 E263.61336
G1 X143.471 Y77.003 E264.53453
G1 X143.471 Y78.417 E264.60508
G1 X156.527 Y91.473 E265.52625
G1 X156.527 Y92.887 E265.5968
G1 X143.471 Y79.831 E266.51797
G1 X143.471 Y81.245 E266.58851
G1 X156.527 Y94.301 E267.50968
G1 X156.527 Y95.716 E267.58028
G1 X143.471 Y82.66 E268.50145
G1 X143.471 Y84.074 E268.57199
G1 X156.527 Y97.13 E269.49316
G1 X156.527 Y98.544 E269.56371
G1 X143.471 Y85.488 E270.48488
G1 X143.471 Y86.902 E270.55543
G1 X156.527 Y99.958 E271.4766
G1 X156.527 Y101.372 E271.54714
G1 X143.471 Y88.316 E272.46831
G1 X143.471 Y89.731 E272.53891
G1 X156.527 Y102.787 E273.46008
G1 X156.527 Y104.201 E273.53062
G1 X143.471 Y91.145 E274.45179
G1 X143.471 Y92.559 E274.52234
G1 X156.527 Y105.615 E275.44351
G1 X156.527 Y107.029 E275.51406
G1 X143.471 Y93.973 E276.43523
G1 X143.471 Y95.387 E276.50577
G1 X156.527 Y108.444 E277.42698
G1 X156.527 Y109.858 E277.49752
G1 X143.471 Y96.802 E278.41869
G1 X143.471 Y98.216 E278.48924
G1 X156.527 Y111.272 E279.41041
G1 X156.527 Y112.686 E279.48096
G1 X143.471 Y99.63 E280.40213
G1 X143.471 Y101.044 E280.47267
G1 X156.527 Y114.1 E281.39384
G1 X156.527 Y115.515 E281.46444
G1 X143.471 Y102.459 E282.38561
G1 X143.471 Y103.873 E282.45615
G1 X156.527 Y116.929 E283.37732
G1 X156.527 Y118.343 E283.44787
G1 X143.471 Y105.287 E284.36904
G1 X143.471 Y106.701 E284.43959
G1 X156.527 Y119.757 E285.36076
G1 X156.527 Y121.171 E285.4313
G1 X143.471 Y108.115 E286.35247
G1 X143.471 Y109.53 E286.42307
G1 X156.527 Y122.586 E287.34424
G1 X156.527 Y124 E287.41478
G1 X143.471 Y110.944 E288.33595
G1 X143.471 Y112.358 E288.4065
G1 X156.527 Y125.414 E289.32767
G1 X156.527 Y126.828 E289.39822
G1 X143.471 Y113.772 E290.31939
G1 X143.471 Y115.186 E290.38993
G1 X156.527 Y128.243 E291.31114
G1 X156.527 Y129.657 E291.38168
G1 X143.471 Y116.601 E292.30285
G1 X143.471 Y118.015 E292.3734
G1 X156.527 Y131.071 E293.29457
G1 X156.527 Y132.485 E293.36512
G1 X143.471 Y119.429 E294.28629
G1 X143.471 Y120.843 E294.35683
G1 X156.527 Y133.899 E295.278
G1 X156.527 Y135.314 E295.3486
G1 X143.471 Y122.258 E296.26977
G1 X143.471 Y123.672 E296.34031
G1 X156.527 Y136.728 E297.26148
G1 X156.527 Y138.142 E297.33203
G1 X143.471 Y125.086 E298.2532
G1 X143.471 Y126.5 E298.32375
G1 X156.527 Y139.556 E299.24492
G1 X156.527 Y140.97 E299.31546
G1 X143.471 Y127.914 E300.23663
G1 X143.471 Y129.329 E300.30723
G1 X156.527 Y142.385 E301.2284
G1 X156.527 Y143.799 E301.29894
G1 X143.471 Y130.743 E302.22011
G1 X143.471 Y132.157 E302.29066
G1 X156.527 Y145.213 E303.21183
G1 X156.527 Y146.627 E303.28238
G1 X143.471 Y133.571 E304.20355
G1 X143.471 Y134.985 E304.27409
G1 X156.527 Y148.041 E305.19526
G1 X156.527 Y149.456 E305.26586
G1 X143.471 Y136.4 E306.18703
G1 X143.471 Y137.814 E306.25757
G1 X156.527 Y150.871 E307.17878
G1 X156.527 Y152.285 E307.24933
G1 X143.471 Y139.228 E308.17053
G1 X143.471 Y140.642 E308.24108
G1 X156.527 Y153.699 E309.16228
G1 X156.527 Y155.113 E309.23283
G1 X143.471 Y142.057 E310.154
G1 X143.471 Y143.471 E310.22454
G1 X156.527 Y156.527 E311.14572
G1 X156.527 Y157.942 E311.21631
G1 X143.471 Y144.885 E312.13752
G1 X143.471 Y146.299 E312.20806
G1 X156.527 Y159.356 E313.12927
G1 X156.527 Y160.77 E313.19981
G1 X143.471 Y147.713 E314.12102
G1 X143.471 Y149.128 E314.19161
G1 X156.527 Y162.184 E315.11279
G1 X156.527 Y163.599 E315.18338
G1 X143.471 Y150.542 E316.10459
G1 X143.471 Y151.956 E316.17513
G1 X156.527 Y165.013 E317.09634
G1 X156.527 Y166.427 E317.16688
G1 X143.471 Y153.37 E318.08809
G1 X143.471 Y154.784 E318.15863
G1 X156.527 Y167.841 E319.07984
G1 X156.527 Y169.255 E319.15039
G1 X143.471 Y156.199 E320.07156
G1 X143.471 Y157.613 E320.1421
G1 X156.527 Y170.67 E321.06331
G1 X156.527 Y172.084 E321.13385
G1 X143.471 Y159.027 E322.05506
G1 X143.471 Y160.441 E322.1256
