;FLAVOR:Marlin
;TIME:11217
;Filament used: 5.00568m
;Layer height: 0.2
;MINX:88.535
;MINY:15.928
;MINZ:0.2
;MAXX:208.802
;MAXY:77.128
;MAXZ:12.2
;Generated with Cura_SteamEngine 4.12.1
M140 S60
M105
M190 S60
M104 S235
M105
M109 S235
M82 ;absolute extrusion mode
M201 X500.00 Y500.00 Z100.00 E5000.00 ;Setup machine max acceleration
M203 X500.00 Y500.00 Z10.00 E50.00 ;Setup machine max feedrate
M204 P500.00 R1000.00 T500.00 ;Setup Print/Retract/Travel acceleration
M205 X8.00 Y8.00 Z0.40 E5.00 ;Setup Jerk
M220 S100 ;Reset Feedrate
M221 S100 ;Reset Flowrate

G28 ;Home

G92 E0 ;Reset Extruder
G1 Z2.0 F3000 ;Move Z Axis up
G1 X10.1 Y20 Z0.28 F5000.0 ;Move to start position
G1 X10.1 Y200.0 Z0.28 F1500.0 E15 ;Draw the first line
G1 X10.4 Y200.0 Z0.28 F5000.0 ;Move to side a little
G1 X10.4 Y20 Z0.28 F1500.0 E30 ;Draw the second line
G92 E0 ;Reset Extruder
G1 Z2.0 F3000 ;Move Z Axis up

G92 E0
G92 E0
G1 F2700 E-5
;LAYER_COUNT:60
;LAYER:0
M107
G1 F300 Z0.4
G0 F6000 X88.946 Y23.652 Z0.4
;TYPE:SKIRT
G1 F300 Z0.2
G1 F2700 E0
G1 F1200 X89.235 Y22.778 E0.03062
G1 X89.599 Y21.932 E0.06125
G1 X90.034 Y21.121 E0.09186
G1 X90.539 Y20.351 E0.12249
G1 X91.108 Y19.628 E0.15309
G1 X91.738 Y18.956 E0.18372
G1 X92.424 Y18.342 E0.21434
G1 X93.16 Y17.79 E0.24494
G1 X93.942 Y17.303 E0.27558
G1 X94.763 Y16.887 E0.3062
G1 X95.617 Y16.543 E0.33682
G1 X96.498 Y16.274 E0.36746
G1 X97.398 Y16.083 E0.39806
G1 X98.312 Y15.971 E0.42868
G1 X98.818 Y15.943 E0.44554
G1 X99.141 Y15.933 E0.45629
G1 X99.469 Y15.928 E0.4672
G1 X116.119 Y15.929 E1.02098
G1 X116.827 Y15.939 E1.04453
G1 X117.127 Y15.948 E1.05451
G1 X118.369 Y16.001 E1.09586
G1 X121.029 Y16.076 E1.18437
G1 X123.54 Y16.076 E1.26788
G1 X126.104 Y16.003 E1.3532
G1 X127.087 Y15.954 E1.38593
G1 X127.311 Y15.945 E1.39339
G1 X127.758 Y15.932 E1.40826
G1 X128.066 Y15.928 E1.41851
G1 X145.42 Y15.929 E1.9957
G1 X146.126 Y15.939 E2.01919
G1 X146.424 Y15.947 E2.0291
G1 X147.383 Y15.989 E2.06103
G1 X148.421 Y16.048 E2.09561
G1 X150.956 Y16.12 E2.17996
G1 X153.473 Y16.12 E2.26367
G1 X156.029 Y16.049 E2.34872
G1 X157.454 Y15.977 E2.39617
G1 X157.83 Y15.955 E2.4087
G1 X158.148 Y15.941 E2.41929
G1 X158.466 Y15.932 E2.42987
G1 X158.766 Y15.928 E2.43985
G1 X174.721 Y15.929 E2.97051
G1 X175.423 Y15.939 E2.99386
G1 X176.342 Y15.992 E3.02448
G1 X177.253 Y16.125 E3.0551
G1 X178.149 Y16.336 E3.08572
G1 X179.024 Y16.624 E3.11636
G1 X179.87 Y16.987 E3.14698
G1 X180.681 Y17.422 E3.17759
G1 X181.452 Y17.926 E3.20822
G1 X182.176 Y18.494 E3.23883
G1 X182.848 Y19.124 E3.26947
G1 X183.323 Y19.643 E3.29287
G1 X183.772 Y20.167 E3.31582
G1 X185.488 Y22.112 E3.40209
G1 X187.204 Y23.953 E3.48579
G1 X188.976 Y25.746 E3.56964
G1 X190.826 Y27.515 E3.65477
G1 X192.66 Y29.174 E3.73703
G1 X194.635 Y30.859 E3.82337
G1 X196.591 Y32.436 E3.90694
G1 X198.587 Y33.954 E3.99035
G1 X200.646 Y35.43 E4.07461
G1 X202.743 Y36.846 E4.15877
G1 X202.996 Y37.007 E4.16874
G1 X204.003 Y37.667 E4.20878
G1 X204.75 Y38.205 E4.2394
G1 X205.448 Y38.806 E4.27004
G1 X206.091 Y39.464 E4.30064
G1 X206.675 Y40.176 E4.33127
G1 X207.194 Y40.936 E4.36188
G1 X207.646 Y41.739 E4.39252
G1 X208.026 Y42.577 E4.42313
G1 X208.332 Y43.445 E4.45374
G1 X208.562 Y44.337 E4.48438
G1 X208.713 Y45.245 E4.51499
G1 X208.787 Y46.207 E4.54708
G1 X208.797 Y46.532 E4.5579
G1 X208.802 Y46.858 E4.56874
G1 X208.801 Y65.923 E5.20285
G1 X208.792 Y66.65 E5.22703
G1 X208.741 Y67.569 E5.25764
G1 X208.61 Y68.481 E5.28829
G1 X208.4 Y69.377 E5.31889
G1 X208.114 Y70.252 E5.34951
G1 X207.753 Y71.099 E5.38014
G1 X207.319 Y71.911 E5.41076
G1 X206.817 Y72.683 E5.44139
G1 X206.249 Y73.408 E5.47202
G1 X205.621 Y74.081 E5.50264
G1 X204.937 Y74.697 E5.53325
G1 X204.202 Y75.251 E5.56386
G1 X203.422 Y75.74 E5.59448
G1 X202.602 Y76.159 E5.62511
G1 X201.749 Y76.505 E5.65573
G1 X200.869 Y76.776 E5.68635
G1 X199.969 Y76.969 E5.71697
G1 X199.055 Y77.084 E5.74761
G1 X198.49 Y77.115 E5.76643
G1 X198.169 Y77.124 E5.77711
G1 X197.872 Y77.128 E5.78699
G1 X194.469 Y77.127 E5.90017
G1 X194.191 Y77.123 E5.90942
G1 X191.961 Y77.124 E5.98359
G1 X191.876 Y77.12 E5.98642
G1 X190.9 Y77.128 E6.01888
G1 X189.693 Y77.127 E6.05903
G1 X188.988 Y77.117 E6.08248
G1 X188.675 Y77.108 E6.09289
G1 X188.379 Y77.094 E6.10275
G1 X186.102 Y76.965 E6.1786
G1 X183.543 Y76.892 E6.26375
G1 X181.032 Y76.89 E6.34727
G1 X178.482 Y76.961 E6.43211
G1 X177.018 Y77.035 E6.48087
G1 X175.882 Y77.101 E6.51871
G1 X175.561 Y77.115 E6.5294
G1 X175.238 Y77.124 E6.54015
G1 X174.943 Y77.128 E6.54996
G1 X158.993 Y77.127 E7.08046
G1 X158.288 Y77.117 E7.10391
G1 X157.992 Y77.109 E7.11376
G1 X157.029 Y77.067 E7.14582
G1 X155.969 Y77.007 E7.18113
G1 X153.437 Y76.936 E7.26538
G1 X150.926 Y76.936 E7.3489
G1 X148.342 Y77.01 E7.43488
G1 X147.022 Y77.076 E7.47883
G1 X146.583 Y77.101 E7.49346
G1 X146.294 Y77.113 E7.50308
G1 X145.96 Y77.123 E7.51419
G1 X145.643 Y77.128 E7.52474
G1 X128.293 Y77.127 E8.1018
G1 X127.586 Y77.117 E8.12532
G1 X127.287 Y77.108 E8.13527
G1 X126.046 Y77.055 E8.17658
G1 X123.383 Y76.98 E8.26519
G1 X120.873 Y76.98 E8.34867
G1 X118.31 Y77.053 E8.43395
G1 X117.326 Y77.102 E8.46672
G1 X117.101 Y77.111 E8.47421
G1 X116.654 Y77.124 E8.48908
G1 X116.346 Y77.128 E8.49933
G1 X99.705 Y77.127 E9.05281
G1 X99.007 Y77.118 E9.07603
G1 X98.088 Y77.066 E9.10664
G1 X97.177 Y76.935 E9.13725
G1 X96.281 Y76.725 E9.16786
G1 X95.406 Y76.438 E9.19849
G1 X94.559 Y76.076 E9.22913
G1 X93.747 Y75.642 E9.25975
G1 X92.976 Y75.14 E9.29035
G1 X92.251 Y74.572 E9.32098
G1 X91.578 Y73.943 E9.35162
G1 X90.963 Y73.259 E9.38221
G1 X90.409 Y72.524 E9.41283
G1 X89.921 Y71.743 E9.44346
G1 X89.502 Y70.923 E9.47408
G1 X89.156 Y70.07 E9.5047
G1 X88.886 Y69.19 E9.53532
G1 X88.693 Y68.289 E9.56596
G1 X88.579 Y67.376 E9.59657
G1 X88.547 Y66.786 E9.61622
G1 X88.538 Y66.429 E9.6281
G1 X88.535 Y66.162 E9.63698
G1 X88.537 Y27.042 E10.93811
G1 X88.547 Y26.378 E10.9602
G1 X88.601 Y25.459 E10.99082
G1 X88.734 Y24.548 E11.02144
G1 X88.946 Y23.652 E11.05206
G0 F6000 X89.345 Y23.712
G1 F1200 X89.634 Y22.856 E11.08211
G1 X89.997 Y22.029 E11.11215
G1 X90.431 Y21.237 E11.14219
G1 X90.935 Y20.487 E11.17225
G1 X91.502 Y19.785 E11.20226
G1 X92.129 Y19.135 E11.2323
G1 X92.812 Y18.543 E11.26236
G1 X93.544 Y18.014 E11.2924
G1 X94.319 Y17.552 E11.32241
G1 X95.133 Y17.161 E11.35244
G1 X95.978 Y16.842 E11.38248
G1 X96.848 Y16.6 E11.41252
G1 X97.736 Y16.436 E11.44255
G1 X98.83 Y16.343 E11.47907
G1 X99.153 Y16.333 E11.48982
G1 X99.469 Y16.328 E11.50033
G1 X115.969 Y16.328 E12.04912
G1 X116.821 Y16.339 E12.07746
G1 X117.11 Y16.347 E12.08708
G1 X118.411 Y16.402 E12.13039
G1 X121.018 Y16.476 E12.21713
G1 X123.551 Y16.476 E12.30138
G1 X126.135 Y16.403 E12.38736
G1 X127.107 Y16.354 E12.41973
G1 X127.322 Y16.345 E12.42689
G1 X127.769 Y16.332 E12.44176
G1 X128.066 Y16.328 E12.45164
G1 X145.414 Y16.329 E13.02864
G1 X146.12 Y16.339 E13.05212
G1 X146.407 Y16.347 E13.06167
G1 X147.36 Y16.389 E13.0934
G1 X148.387 Y16.448 E13.12761
G1 X150.945 Y16.52 E13.21272
G1 X153.484 Y16.52 E13.29717
G1 X156.06 Y16.448 E13.38288
G1 X157.391 Y16.381 E13.42721
G1 X157.853 Y16.354 E13.4426
G1 X158.159 Y16.341 E13.45279
G1 X158.477 Y16.332 E13.46337
G1 X158.766 Y16.328 E13.47298
G1 X174.715 Y16.329 E14.00345
G1 X175.417 Y16.339 E14.0268
G1 X176.319 Y16.392 E14.05685
G1 X177.212 Y16.524 E14.08687
G1 X178.09 Y16.735 E14.11691
G1 X178.946 Y17.023 E14.14695
G1 X179.774 Y17.385 E14.177
G1 X180.566 Y17.819 E14.20704
G1 X181.316 Y18.322 E14.23708
G1 X182.019 Y18.888 E14.2671
G1 X182.669 Y19.515 E14.29713
G1 X183.019 Y19.903 E14.31451
G1 X183.452 Y20.409 E14.33666
G1 X185.195 Y22.384 E14.42428
G1 X186.911 Y24.224 E14.50796
G1 X188.716 Y26.051 E14.59338
G1 X190.527 Y27.783 E14.67673
G1 X192.435 Y29.509 E14.7623
G1 X194.369 Y31.16 E14.84687
G1 X196.321 Y32.733 E14.93025
G1 X198.358 Y34.282 E15.01537
G1 X200.411 Y35.754 E15.09939
G1 X202.535 Y37.188 E15.18463
G1 X202.776 Y37.342 E15.19414
G1 X203.783 Y38.002 E15.23419
G1 X204.516 Y38.53 E15.26423
G1 X205.199 Y39.121 E15.29427
G1 X205.827 Y39.77 E15.32431
G1 X206.396 Y40.472 E15.35437
G1 X206.9 Y41.221 E15.38439
G1 X207.335 Y42.012 E15.41442
G1 X207.699 Y42.838 E15.44444
G1 X207.989 Y43.694 E15.4745
G1 X208.202 Y44.572 E15.50455
G1 X208.336 Y45.465 E15.53458
G1 X208.387 Y46.219 E15.55972
G1 X208.397 Y46.544 E15.57053
G1 X208.402 Y46.858 E15.58098
G1 X208.401 Y65.918 E16.21492
G1 X208.392 Y66.645 E16.2391
G1 X208.341 Y67.547 E16.26915
G1 X208.21 Y68.441 E16.2992
G1 X208.001 Y69.319 E16.32922
G1 X207.715 Y70.176 E16.35927
G1 X207.354 Y71.004 E16.38931
G1 X206.922 Y71.796 E16.41931
G1 X206.421 Y72.548 E16.44937
G1 X205.855 Y73.252 E16.47941
G1 X205.23 Y73.903 E16.50943
G1 X204.549 Y74.497 E16.53948
G1 X203.818 Y75.028 E16.56954
G1 X203.044 Y75.492 E16.59955
G1 X202.231 Y75.886 E16.6296
G1 X201.387 Y76.206 E16.65962
G1 X200.517 Y76.451 E16.68968
G1 X199.63 Y76.617 E16.7197
G1 X198.479 Y76.715 E16.75812
G1 X198.158 Y76.724 E16.7688
G1 X197.872 Y76.728 E16.77831
G1 X194.475 Y76.727 E16.8913
G1 X194.197 Y76.723 E16.90054
G1 X191.96 Y76.724 E16.97495
G1 X191.876 Y76.72 E16.97774
G1 X190.897 Y76.728 E17.01031
G1 X189.698 Y76.727 E17.05018
G1 X188.993 Y76.717 E17.07364
G1 X188.692 Y76.708 E17.08365
G1 X188.402 Y76.695 E17.09331
G1 X186.1 Y76.565 E17.16999
G1 X183.555 Y76.492 E17.25467
G1 X181.021 Y76.49 E17.33896
G1 X178.45 Y76.562 E17.4245
G1 X177.078 Y76.631 E17.47019
G1 X175.859 Y76.702 E17.5108
G1 X175.55 Y76.715 E17.52109
G1 X175.227 Y76.724 E17.53184
G1 X174.943 Y76.728 E17.54129
G1 X158.998 Y76.727 E18.07162
G1 X158.293 Y76.717 E18.09507
G1 X158.009 Y76.709 E18.10452
G1 X157.052 Y76.668 E18.13638
G1 X155.969 Y76.606 E18.17246
G1 X153.448 Y76.536 E18.25634
G1 X150.915 Y76.536 E18.34059
G1 X148.31 Y76.611 E18.42726
G1 X146.979 Y76.677 E18.47159
G1 X146.56 Y76.701 E18.48555
G1 X146.282 Y76.713 E18.4948
G1 X145.948 Y76.723 E18.50592
G1 X145.643 Y76.728 E18.51606
G1 X128.299 Y76.727 E19.09293
G1 X127.592 Y76.717 E19.11644
G1 X127.304 Y76.709 E19.12603
G1 X126.004 Y76.654 E19.1693
G1 X123.394 Y76.58 E19.25615
G1 X120.861 Y76.58 E19.34039
G1 X118.279 Y76.653 E19.42631
G1 X117.306 Y76.702 E19.45871
G1 X117.09 Y76.711 E19.4659
G1 X116.643 Y76.724 E19.48077
G1 X116.346 Y76.728 E19.49065
G1 X99.71 Y76.727 E20.04397
G1 X99.012 Y76.718 E20.06719
G1 X98.111 Y76.667 E20.0972
G1 X97.217 Y76.535 E20.12726
G1 X96.339 Y76.326 E20.15728
G1 X95.482 Y76.039 E20.18734
G1 X94.655 Y75.678 E20.21735
G1 X93.862 Y75.245 E20.2474
G1 X93.111 Y74.744 E20.27743
G1 X92.407 Y74.178 E20.30747
G1 X91.756 Y73.552 E20.33751
G1 X91.163 Y72.871 E20.36754
G1 X90.633 Y72.14 E20.39757
G1 X90.169 Y71.365 E20.42762
G1 X89.775 Y70.552 E20.45767
G1 X89.455 Y69.708 E20.48769
G1 X89.211 Y68.838 E20.51774
G1 X89.045 Y67.95 E20.54779
G1 X88.947 Y66.776 E20.58697
G1 X88.938 Y66.419 E20.59885
G1 X88.935 Y66.162 E20.6074
G1 X88.937 Y27.048 E21.90833
G1 X88.947 Y26.384 E21.93042
G1 X89.001 Y25.483 E21.96044
G1 X89.134 Y24.59 E21.99047
G1 X89.345 Y23.712 E22.0205
G1 F2700 E17.0205
G1 F300 Z0.4
;MESH:extended_finger.stl
G0 F6000 X145.776 Y66.328 Z0.4
;TYPE:WALL-OUTER
G1 F300 Z0.2
G1 F2700 E22.0205
G1 F1200 X127.936 Y66.328 E22.61387
G1 X127.936 Y26.728 E23.93097
G1 X145.777 Y26.728 E24.52436
G1 X145.776 Y66.328 E25.84146
G0 F6000 X145.386 Y65.938
;TYPE:SKIN
G1 F1200 X128.326 Y65.938 E26.40888
G1 X128.326 Y27.118 E27.70004
G1 X145.387 Y27.118 E28.26749
G1 X145.386 Y65.938 E29.55865
G1 F2700 E24.55865
G1 F300 Z0.4
G0 F6000 X128.568 Y65.777 Z0.4
G1 F300 Z0.2
G1 F2700 E29.55865
G1 F1200 X128.484 Y65.693 E29.5626
G0 F6000 X128.484 Y65.128
G1 F1200 X129.134 Y65.777 E29.59315
G0 F6000 X129.7 Y65.777
G1 F1200 X128.484 Y64.562 E29.65032
G0 F6000 X128.484 Y63.996
G1 F1200 X130.266 Y65.777 E29.73412
G0 F6000 X130.831 Y65.777
G1 F1200 X128.484 Y63.431 E29.84449
G0 F6000 X128.484 Y62.865
G1 F1200 X131.397 Y65.777 E29.98149
G0 F6000 X131.963 Y65.777
G1 F1200 X128.484 Y62.299 E30.1451
G0 F6000 X128.484 Y61.733
G1 F1200 X132.528 Y65.777 E30.33532
G0 F6000 X133.094 Y65.777
G1 F1200 X128.484 Y61.168 E30.55214
G0 F6000 X128.484 Y60.602
G1 F1200 X133.66 Y65.777 E30.79558
G0 F6000 X134.225 Y65.777
G1 F1200 X128.484 Y60.036 E31.06562
G0 F6000 X128.484 Y59.471
G1 F1200 X134.791 Y65.777 E31.36226
G0 F6000 X135.357 Y65.777
G1 F1200 X128.484 Y58.905 E31.68552
G0 F6000 X128.484 Y58.339
G1 F1200 X135.922 Y65.777 E32.03538
G0 F6000 X136.488 Y65.777
G1 F1200 X128.484 Y57.774 E32.41184
G0 F6000 X128.484 Y57.208
G1 F1200 X137.054 Y65.777 E32.81492
G0 F6000 X137.619 Y65.777
G1 F1200 X128.484 Y56.642 E33.2446
G0 F6000 X128.484 Y56.077
G1 F1200 X138.185 Y65.777 E33.70088
G0 F6000 X138.751 Y65.777
G1 F1200 X128.484 Y55.511 E34.18379
G0 F6000 X128.484 Y54.945
G1 F1200 X139.317 Y65.777 E34.69332
G0 F6000 X139.882 Y65.777
G1 F1200 X128.484 Y54.38 E35.22942
G0 F6000 X128.484 Y53.814
G1 F1200 X140.448 Y65.777 E35.79215
G0 F6000 X141.014 Y65.777
G1 F1200 X128.484 Y53.248 E36.3815
G0 F6000 X128.484 Y52.682
G1 F1200 X141.579 Y65.777 E36.99744
G0 F6000 X142.145 Y65.777
G1 F1200 X128.484 Y52.117 E37.63999
G0 F6000 X128.484 Y51.551
G1 F1200 X142.711 Y65.777 E38.30916
G0 F6000 X143.276 Y65.777
G1 F1200 X128.484 Y50.985 E39.00493
G0 F6000 X128.484 Y50.42
G1 F1200 X143.842 Y65.777 E39.7273
G0 F6000 X144.408 Y65.777
G1 F1200 X128.484 Y49.854 E40.4763
G0 F6000 X128.484 Y49.288
G1 F1200 X144.973 Y65.777 E41.25189
G0 F6000 X145.226 Y65.464
G1 F1200 X128.484 Y48.723 E42.03936
G0 F6000 X128.484 Y48.157
G1 F1200 X145.226 Y64.898 E42.82683
G0 F6000 X145.226 Y64.333
G1 F1200 X128.484 Y47.591 E43.61432
G0 F6000 X128.484 Y47.026
G1 F1200 X145.226 Y63.767 E44.40179
G0 F6000 X145.226 Y63.201
G1 F1200 X128.484 Y46.46 E45.18926
G0 F6000 X128.484 Y45.894
G1 F1200 X145.226 Y62.636 E45.97675
G0 F6000 X145.226 Y62.07
G1 F1200 X128.484 Y45.329 E46.76422
G0 F6000 X128.484 Y44.763
G1 F1200 X145.226 Y61.504 E47.55169
G0 F6000 X145.226 Y60.939
G1 F1200 X128.484 Y44.197 E48.33918
G0 F6000 X128.484 Y43.632
G1 F1200 X145.226 Y60.373 E49.12665
G0 F6000 X145.226 Y59.807
G1 F1200 X128.484 Y43.066 E49.91412
G0 F6000 X128.484 Y42.5
G1 F1200 X145.226 Y59.242 E50.70161
G0 F6000 X145.226 Y58.676
G1 F1200 X128.484 Y41.934 E51.4891
G0 F6000 X128.484 Y41.369
G1 F1200 X145.226 Y58.11 E52.27657
G0 F6000 X145.226 Y57.545
G1 F1200 X128.484 Y40.803 E53.06406
G0 F6000 X128.484 Y40.237
G1 F1200 X145.226 Y56.979 E53.85155
G0 F6000 X145.226 Y56.413
G1 F1200 X128.484 Y39.672 E54.63902
G0 F6000 X128.484 Y39.106
G1 F1200 X145.226 Y55.848 E55.42652
G0 F6000 X145.226 Y55.282
G1 F1200 X128.484 Y38.54 E56.21401
G0 F6000 X128.484 Y37.975
G1 F1200 X145.226 Y54.716 E57.00148
G0 F6000 X145.226 Y54.15
G1 F1200 X128.484 Y37.409 E57.78895
G0 F6000 X128.484 Y36.843
G1 F1200 X145.226 Y53.585 E58.57644
G0 F6000 X145.226 Y53.019
G1 F1200 X128.484 Y36.278 E59.36391
G0 F6000 X128.484 Y35.712
G1 F1200 X145.226 Y52.453 E60.15138
G0 F6000 X145.226 Y51.888
G1 F1200 X128.484 Y35.146 E60.93887
G0 F6000 X128.484 Y34.581
G1 F1200 X145.226 Y51.322 E61.72634
G0 F6000 X145.226 Y50.756
G1 F1200 X128.484 Y34.015 E62.51381
G0 F6000 X128.484 Y33.449
G1 F1200 X145.226 Y50.191 E63.3013
G0 F6000 X145.226 Y49.625
G1 F1200 X128.484 Y32.884 E64.08877
G0 F6000 X128.484 Y32.318
G1 F1200 X145.226 Y49.059 E64.87624
G0 F6000 X145.226 Y48.494
G1 F1200 X128.484 Y31.752 E65.66373
G0 F6000 X128.484 Y31.186
G1 F1200 X145.226 Y47.928 E66.45122
G0 F6000 X145.226 Y47.362
G1 F1200 X128.484 Y30.621 E67.23869
G0 F6000 X128.484 Y30.055
G1 F1200 X145.226 Y46.797 E68.02618
G0 F6000 X145.226 Y46.231
G1 F1200 X128.484 Y29.489 E68.81367
G0 F6000 X128.484 Y28.924
G1 F1200 X145.226 Y45.665 E69.60114
G0 F6000 X145.226 Y45.099
G1 F1200 X128.484 Y28.358 E70.38861
G0 F6000 X128.484 Y27.792
G1 F1200 X145.226 Y44.534 E71.1761
G0 F6000 X145.226 Y43.968
G1 F1200 X128.535 Y27.278 E71.96117
G0 F6000 X129.101 Y27.278
G1 F1200 X145.226 Y43.402 E72.71962
G0 F6000 X145.226 Y42.837
G1 F1200 X129.667 Y27.278 E73.45147
G0 F6000 X130.232 Y27.278
G1 F1200 X145.226 Y42.271 E74.15672
G0 F6000 X145.226 Y41.705
G1 F1200 X130.798 Y27.278 E74.83534
G0 F6000 X131.364 Y27.278
G1 F1200 X145.226 Y41.14 E75.48737
G0 F6000 X145.226 Y40.574
G1 F1200 X131.929 Y27.278 E76.11279
G0 F6000 X132.495 Y27.278
