;FLAVOR:Marlin
;TIME:11145
;Filament used: 5.02362m
;Layer height: 0.2
;MINX:94.303
;MINY:16.451
;MINZ:0.2
;MAXX:214.57
;MAXY:77.651
;MAXZ:12.2
;Generated with Cura_SteamEngine 4.12.1
M140 S60
M105
M190 S60
M104 S235
M105
M109 S235
M82 ;absolute extrusion mode
M201 X500.00 Y500.00 Z100.00 E5000.00 ;Setup machine max acceleration
M203 X500.00 Y500.00 Z10.00 E50.00 ;Setup machine max feedrate
M204 P500.00 R1000.00 T500.00 ;Setup Print/Retract/Travel acceleration
M205 X8.00 Y8.00 Z0.40 E5.00 ;Setup Jerk
M220 S100 ;Reset Feedrate
M221 S100 ;Reset Flowrate

G28 ;Home

G92 E0 ;Reset Extruder
G1 Z2.0 F3000 ;Move Z Axis up
G1 X10.1 Y20 Z0.28 F5000.0 ;Move to start position
G1 X10.1 Y200.0 Z0.28 F1500.0 E15 ;Draw the first line
G1 X10.4 Y200.0 Z0.28 F5000.0 ;Move to side a little
G1 X10.4 Y20 Z0.28 F1500.0 E30 ;Draw the second line
G92 E0 ;Reset Extruder
G1 Z2.0 F3000 ;Move Z Axis up

G92 E0
G92 E0
G1 F2700 E-5
;LAYER_COUNT:60
;LAYER:0
M107
G1 F300 Z0.4
G0 F6000 X94.714 Y24.175 Z0.4
;TYPE:SKIRT
G1 F300 Z0.2
G1 F2700 E0
G1 F1200 X95.003 Y23.301 E0.03062
G1 X95.367 Y22.455 E0.06125
G1 X95.802 Y21.644 E0.09186
G1 X96.307 Y20.874 E0.12249
G1 X96.876 Y20.151 E0.15309
G1 X97.506 Y19.479 E0.18372
G1 X98.192 Y18.865 E0.21434
G1 X98.928 Y18.313 E0.24494
G1 X99.71 Y17.826 E0.27558
G1 X100.531 Y17.41 E0.3062
G1 X101.385 Y17.066 E0.33682
G1 X102.266 Y16.797 E0.36746
G1 X103.166 Y16.606 E0.39806
G1 X104.08 Y16.494 E0.42868
G1 X104.586 Y16.466 E0.44554
G1 X104.909 Y16.456 E0.45629
G1 X105.237 Y16.451 E0.4672
G1 X121.887 Y16.452 E1.02098
G1 X122.595 Y16.462 E1.04453
G1 X122.895 Y16.471 E1.05451
G1 X124.137 Y16.524 E1.09586
G1 X126.797 Y16.599 E1.18437
G1 X129.308 Y16.599 E1.26788
G1 X131.872 Y16.526 E1.3532
G1 X132.855 Y16.477 E1.38593
G1 X133.079 Y16.468 E1.39339
G1 X133.526 Y16.455 E1.40826
G1 X133.834 Y16.451 E1.41851
G1 X151.188 Y16.452 E1.9957
G1 X151.894 Y16.462 E2.01919
G1 X152.192 Y16.47 E2.0291
G1 X153.151 Y16.512 E2.06103
G1 X154.189 Y16.571 E2.09561
G1 X156.724 Y16.643 E2.17996
G1 X159.241 Y16.643 E2.26367
G1 X161.797 Y16.572 E2.34872
G1 X163.222 Y16.5 E2.39617
G1 X163.598 Y16.478 E2.4087
G1 X163.916 Y16.464 E2.41929
G1 X164.234 Y16.455 E2.42987
G1 X164.534 Y16.451 E2.43985
G1 X180.488 Y16.452 E2.97048
G1 X181.194 Y16.462 E2.99396
G1 X181.481 Y16.47 E3.00351
G1 X181.843 Y16.486 E3.01557
G1 X184.088 Y16.614 E3.09036
G1 X186.631 Y16.687 E3.17497
G1 X189.143 Y16.689 E3.25852
G1 X191.702 Y16.617 E3.34367
G1 X193.17 Y16.544 E3.39255
G1 X194.308 Y16.478 E3.43047
G1 X194.617 Y16.464 E3.44076
G1 X194.93 Y16.455 E3.45117
G1 X195.235 Y16.451 E3.46131
G1 X196.451 Y16.452 E3.50176
G1 X196.662 Y16.455 E3.50878
G1 X199.282 Y16.457 E3.59592
G1 X199.443 Y16.454 E3.60128
G1 X199.907 Y16.451 E3.61671
G1 X203.415 Y16.452 E3.73338
G1 X204.113 Y16.462 E3.7566
G1 X205.032 Y16.515 E3.78722
G1 X205.943 Y16.648 E3.81784
G1 X206.839 Y16.859 E3.84846
G1 X207.713 Y17.147 E3.87906
G1 X208.56 Y17.51 E3.90971
G1 X209.371 Y17.945 E3.94032
G1 X210.141 Y18.449 E3.97093
G1 X210.865 Y19.018 E4.00156
G1 X211.537 Y19.648 E4.0322
G1 X212.152 Y20.333 E4.06281
G1 X212.705 Y21.069 E4.09343
G1 X213.192 Y21.85 E4.12405
G1 X213.609 Y22.671 E4.15467
G1 X213.954 Y23.525 E4.18531
G1 X214.223 Y24.405 E4.21591
G1 X214.415 Y25.306 E4.24655
G1 X214.528 Y26.219 E4.27715
G1 X214.557 Y26.755 E4.295
G1 X214.566 Y27.067 E4.30539
G1 X214.57 Y27.373 E4.31556
G1 X214.569 Y46.495 E4.95156
G1 X214.559 Y47.196 E4.97488
G1 X214.506 Y48.115 E5.0055
G1 X214.373 Y49.026 E5.03612
G1 X214.162 Y49.922 E5.06674
G1 X213.874 Y50.797 E5.09738
G1 X213.511 Y51.643 E5.12799
G1 X213.076 Y52.454 E5.1586
G1 X212.572 Y53.225 E5.18924
G1 X212.003 Y53.949 E5.21987
G1 X211.374 Y54.621 E5.25048
G1 X210.689 Y55.236 E5.2811
G1 X209.662 Y55.981 E5.3233
G1 X209.573 Y56.037 E5.3268
G1 X207.383 Y57.475 E5.41393
G1 X205.305 Y58.925 E5.49821
G1 X203.28 Y60.423 E5.58199
G1 X201.29 Y61.985 E5.66613
G1 X199.34 Y63.607 E5.75049
G1 X197.466 Y65.259 E5.83358
G1 X195.577 Y67.019 E5.91946
G1 X193.808 Y68.763 E6.00208
G1 X192.055 Y70.593 E6.08636
G1 X190.344 Y72.484 E6.17118
G1 X189.538 Y73.427 E6.21244
G1 X188.998 Y74.041 E6.23964
G1 X188.36 Y74.706 E6.27029
G1 X187.667 Y75.312 E6.30091
G1 X186.925 Y75.856 E6.33151
G1 X186.138 Y76.334 E6.36214
G1 X185.312 Y76.741 E6.39276
G1 X184.454 Y77.075 E6.42339
G1 X183.571 Y77.334 E6.45399
G1 X182.668 Y77.515 E6.48462
G1 X181.362 Y77.636 E6.52825
G1 X181.035 Y77.646 E6.53913
G1 X180.711 Y77.651 E6.54991
G1 X164.761 Y77.65 E7.08041
G1 X164.056 Y77.64 E7.10386
G1 X163.76 Y77.632 E7.1137
G1 X162.797 Y77.59 E7.14576
G1 X161.737 Y77.53 E7.18108
G1 X159.205 Y77.459 E7.26532
G1 X156.694 Y77.459 E7.34884
G1 X154.11 Y77.533 E7.43482
G1 X152.79 Y77.599 E7.47878
G1 X152.351 Y77.624 E7.4934
G1 X152.062 Y77.636 E7.50302
G1 X151.728 Y77.646 E7.51414
G1 X151.411 Y77.651 E7.52468
G1 X134.061 Y77.65 E8.10175
G1 X133.354 Y77.64 E8.12526
G1 X133.055 Y77.631 E8.13521
G1 X131.814 Y77.578 E8.17653
G1 X129.151 Y77.503 E8.26513
G1 X126.641 Y77.503 E8.34862
G1 X124.078 Y77.576 E8.4339
G1 X123.094 Y77.625 E8.46666
G1 X122.869 Y77.634 E8.47415
G1 X122.422 Y77.647 E8.48903
G1 X122.114 Y77.651 E8.49927
G1 X105.473 Y77.65 E9.05275
G1 X104.775 Y77.641 E9.07597
G1 X103.856 Y77.589 E9.10659
G1 X102.945 Y77.458 E9.1372
G1 X102.049 Y77.248 E9.16781
G1 X101.174 Y76.961 E9.19844
G1 X100.327 Y76.599 E9.22907
G1 X99.515 Y76.165 E9.25969
G1 X98.744 Y75.663 E9.29029
G1 X98.019 Y75.095 E9.32093
G1 X97.346 Y74.466 E9.35157
G1 X96.731 Y73.782 E9.38216
G1 X96.177 Y73.047 E9.41277
G1 X95.689 Y72.266 E9.4434
G1 X95.27 Y71.446 E9.47403
G1 X94.924 Y70.593 E9.50465
G1 X94.654 Y69.713 E9.53526
G1 X94.461 Y68.812 E9.56591
G1 X94.347 Y67.899 E9.59651
G1 X94.315 Y67.302 E9.6164
G1 X94.306 Y66.935 E9.62861
G1 X94.303 Y66.675 E9.63725
G1 X94.305 Y27.565 E10.93806
G1 X94.315 Y26.901 E10.96015
G1 X94.369 Y25.982 E10.99076
G1 X94.502 Y25.071 E11.02139
G1 X94.714 Y24.175 E11.05201
G0 F6000 X95.113 Y24.235
G1 F1200 X95.402 Y23.379 E11.08206
G1 X95.765 Y22.552 E11.1121
G1 X96.199 Y21.76 E11.14214
G1 X96.703 Y21.01 E11.17219
G1 X97.27 Y20.308 E11.2022
G1 X97.897 Y19.658 E11.23224
G1 X98.58 Y19.066 E11.2623
G1 X99.312 Y18.537 E11.29234
G1 X100.087 Y18.075 E11.32235
G1 X100.901 Y17.684 E11.35239
G1 X101.746 Y17.365 E11.38243
G1 X102.616 Y17.123 E11.41246
G1 X103.504 Y16.959 E11.4425
G1 X104.598 Y16.866 E11.47901
G1 X104.921 Y16.856 E11.48976
G1 X105.237 Y16.851 E11.50027
G1 X121.737 Y16.851 E12.04907
G1 X122.589 Y16.862 E12.07741
G1 X122.878 Y16.87 E12.08702
G1 X124.179 Y16.925 E12.13033
G1 X126.786 Y16.999 E12.21708
G1 X129.319 Y16.999 E12.30132
G1 X131.903 Y16.926 E12.3873
G1 X132.875 Y16.877 E12.41967
G1 X133.09 Y16.868 E12.42683
G1 X133.537 Y16.855 E12.4417
G1 X133.834 Y16.851 E12.45158
G1 X151.182 Y16.852 E13.02858
G1 X151.888 Y16.862 E13.05206
G1 X152.175 Y16.87 E13.06161
G1 X153.128 Y16.912 E13.09334
G1 X154.155 Y16.971 E13.12756
G1 X156.713 Y17.043 E13.21267
G1 X159.252 Y17.043 E13.29712
G1 X161.828 Y16.971 E13.38283
G1 X163.159 Y16.904 E13.42715
G1 X163.621 Y16.877 E13.44254
G1 X163.927 Y16.864 E13.45273
G1 X164.245 Y16.855 E13.46331
G1 X164.534 Y16.851 E13.47293
G1 X180.482 Y16.852 E14.00336
G1 X181.188 Y16.862 E14.02684
G1 X181.658 Y16.878 E14.04248
G1 X184.053 Y17.014 E14.12227
G1 X186.62 Y17.087 E14.20768
G1 X189.154 Y17.089 E14.29196
G1 X191.733 Y17.017 E14.37778
G1 X193.108 Y16.948 E14.42357
G1 X194.331 Y16.877 E14.46431
G1 X194.629 Y16.864 E14.47423
G1 X194.942 Y16.855 E14.48465
G1 X195.235 Y16.851 E14.49439
G1 X196.445 Y16.852 E14.53464
G1 X196.656 Y16.855 E14.54166
G1 X199.291 Y16.857 E14.6293
G1 X199.446 Y16.854 E14.63445
G1 X199.91 Y16.851 E14.64989
G1 X203.409 Y16.852 E14.76626
G1 X204.107 Y16.862 E14.78948
G1 X205.009 Y16.915 E14.81953
G1 X205.902 Y17.047 E14.84956
G1 X206.78 Y17.258 E14.87959
G1 X207.636 Y17.546 E14.90963
G1 X208.463 Y17.908 E14.93966
G1 X209.255 Y18.343 E14.96971
G1 X210.006 Y18.845 E14.99976
G1 X210.709 Y19.412 E15.02979
G1 X211.359 Y20.039 E15.05983
G1 X211.951 Y20.721 E15.08987
G1 X212.481 Y21.452 E15.1199
G1 X212.943 Y22.228 E15.14994
G1 X213.336 Y23.041 E15.17997
G1 X213.654 Y23.886 E15.21
G1 X213.897 Y24.756 E15.24005
G1 X214.062 Y25.644 E15.27009
G1 X214.157 Y26.767 E15.30757
G1 X214.166 Y27.079 E15.31795
G1 X214.17 Y27.373 E15.32773
G1 X214.169 Y46.489 E15.96353
G1 X214.159 Y47.19 E15.98685
G1 X214.106 Y48.092 E16.0169
G1 X213.974 Y48.985 E16.04693
G1 X213.763 Y49.864 E16.07699
G1 X213.475 Y50.72 E16.10703
G1 X213.113 Y51.547 E16.13706
G1 X212.679 Y52.339 E16.1671
G1 X212.176 Y53.089 E16.19713
G1 X211.609 Y53.792 E16.22717
G1 X210.983 Y54.442 E16.25719
G1 X210.301 Y55.035 E16.28724
G1 X209.447 Y55.643 E16.32211
G1 X209.343 Y55.709 E16.32621
G1 X207.18 Y57.129 E16.41227
G1 X205.061 Y58.607 E16.4982
G1 X203.041 Y60.102 E16.58178
G1 X201.032 Y61.678 E16.66671
G1 X199.103 Y63.283 E16.75017
G1 X197.174 Y64.984 E16.83571
G1 X195.306 Y66.724 E16.92062
G1 X193.521 Y68.484 E17.00399
G1 X191.768 Y70.314 E17.08828
G1 X190.06 Y72.202 E17.17296
G1 X189.334 Y73.052 E17.21014
G1 X188.697 Y73.777 E17.24224
G1 X188.071 Y74.428 E17.27228
G1 X187.39 Y75.021 E17.30231
G1 X186.66 Y75.552 E17.33233
G1 X185.885 Y76.016 E17.36238
G1 X185.072 Y76.409 E17.39241
G1 X184.227 Y76.73 E17.42247
G1 X183.358 Y76.974 E17.4525
G1 X182.47 Y77.14 E17.48254
G1 X181.35 Y77.236 E17.51993
G1 X181.023 Y77.246 E17.53081
G1 X180.711 Y77.251 E17.54119
G1 X164.766 Y77.25 E18.07152
G1 X164.061 Y77.24 E18.09497
G1 X163.777 Y77.232 E18.10442
G1 X162.82 Y77.191 E18.13628
G1 X161.737 Y77.129 E18.17236
G1 X159.216 Y77.059 E18.25624
G1 X156.683 Y77.059 E18.34049
G1 X154.078 Y77.134 E18.42717
G1 X152.747 Y77.2 E18.47149
G1 X152.328 Y77.224 E18.48545
G1 X152.05 Y77.236 E18.49471
G1 X151.716 Y77.246 E18.50582
G1 X151.411 Y77.251 E18.51597
G1 X134.067 Y77.25 E19.09283
G1 X133.36 Y77.24 E19.11635
G1 X133.072 Y77.232 E19.12593
G1 X131.772 Y77.177 E19.16921
G1 X129.162 Y77.103 E19.25605
G1 X126.629 Y77.103 E19.3403
G1 X124.047 Y77.176 E19.42621
G1 X123.074 Y77.225 E19.45861
G1 X122.858 Y77.234 E19.4658
G1 X122.411 Y77.247 E19.48068
G1 X122.114 Y77.251 E19.49056
G1 X105.478 Y77.25 E20.04387
G1 X104.78 Y77.241 E20.06709
G1 X103.879 Y77.19 E20.09711
G1 X102.985 Y77.058 E20.12716
G1 X102.107 Y76.849 E20.15718
G1 X101.25 Y76.562 E20.18724
G1 X100.423 Y76.201 E20.21725
G1 X99.63 Y75.768 E20.2473
G1 X98.879 Y75.267 E20.27733
G1 X98.175 Y74.701 E20.30737
G1 X97.524 Y74.075 E20.33741
G1 X96.931 Y73.394 E20.36745
G1 X96.401 Y72.663 E20.39748
G1 X95.937 Y71.888 E20.42752
G1 X95.543 Y71.075 E20.45757
G1 X95.223 Y70.231 E20.48759
G1 X94.979 Y69.361 E20.51765
G1 X94.813 Y68.473 E20.54769
G1 X94.715 Y67.292 E20.58711
G1 X94.706 Y66.925 E20.59932
G1 X94.703 Y66.675 E20.60763
G1 X94.705 Y27.571 E21.90824
G1 X94.715 Y26.907 E21.93032
G1 X94.769 Y26.006 E21.96035
G1 X94.902 Y25.113 E21.99037
G1 X95.113 Y24.235 E22.02041
G1 F2700 E17.02041
G1 F300 Z0.4
;MESH:extended_finger_right.stl
G0 F6000 X151.544 Y66.851 Z0.4
;TYPE:WALL-OUTER
G1 F300 Z0.2
G1 F2700 E22.02041
G1 F1200 X133.704 Y66.851 E22.61377
G1 X133.704 Y27.251 E23.93087
G1 X151.545 Y27.251 E24.52426
G1 X151.544 Y66.851 E25.84137
G0 F6000 X151.154 Y66.461
;TYPE:SKIN
G1 F1200 X134.094 Y66.461 E26.40878
G1 X134.094 Y27.641 E27.69994
G1 X151.155 Y27.641 E28.26739
G1 X151.154 Y66.461 E29.55855
G1 F2700 E24.55855
G1 F300 Z0.4
G0 F6000 X134.748 Y66.3 Z0.4
G1 F300 Z0.2
G1 F2700 E29.55855
G1 F1200 X134.253 Y65.805 E29.58183
G0 F6000 X134.253 Y65.239
G1 F1200 X135.314 Y66.3 E29.63174
G0 F6000 X135.879 Y66.3
G1 F1200 X134.253 Y64.674 E29.70822
G0 F6000 X134.253 Y64.108
G1 F1200 X136.445 Y66.3 E29.81133
G0 F6000 X137.011 Y66.3
G1 F1200 X134.253 Y63.542 E29.94106
G0 F6000 X134.253 Y62.977
G1 F1200 X137.576 Y66.3 E30.09736
G0 F6000 X138.142 Y66.3
G1 F1200 X134.253 Y62.411 E30.28029
G0 F6000 X134.253 Y61.845
G1 F1200 X138.708 Y66.3 E30.48984
G0 F6000 X139.273 Y66.3
G1 F1200 X134.253 Y61.279 E30.72598
G0 F6000 X134.253 Y60.714
G1 F1200 X139.839 Y66.3 E30.98873
G0 F6000 X140.405 Y66.3
G1 F1200 X134.253 Y60.148 E31.2781
G0 F6000 X134.253 Y59.582
G1 F1200 X140.97 Y66.3 E31.59407
G0 F6000 X141.536 Y66.3
G1 F1200 X134.253 Y59.017 E31.93664
G0 F6000 X134.253 Y58.451
G1 F1200 X142.102 Y66.3 E32.30584
G0 F6000 X142.667 Y66.3
G1 F1200 X134.253 Y57.885 E32.70163
G0 F6000 X134.253 Y57.32
G1 F1200 X143.233 Y66.3 E33.12402
G0 F6000 X143.799 Y66.3
G1 F1200 X134.253 Y56.754 E33.57304
G0 F6000 X134.253 Y56.188
G1 F1200 X144.365 Y66.3 E34.04867
G0 F6000 X144.93 Y66.3
G1 F1200 X134.253 Y55.623 E34.55089
G0 F6000 X134.253 Y55.057
G1 F1200 X145.496 Y66.3 E35.07972
G0 F6000 X146.062 Y66.3
G1 F1200 X134.253 Y54.491 E35.63518
G0 F6000 X134.253 Y53.926
G1 F1200 X146.627 Y66.3 E36.21722
G0 F6000 X147.193 Y66.3
G1 F1200 X134.253 Y53.36 E36.82588
G0 F6000 X134.253 Y52.794
G1 F1200 X147.759 Y66.3 E37.46116
G0 F6000 X148.324 Y66.3
G1 F1200 X134.253 Y52.229 E38.12301
G0 F6000 X134.253 Y51.663
G1 F1200 X148.89 Y66.3 E38.81149
G0 F6000 X149.456 Y66.3
G1 F1200 X134.253 Y51.097 E39.5266
G0 F6000 X134.253 Y50.531
G1 F1200 X150.021 Y66.3 E40.2683
G0 F6000 X150.587 Y66.3
G1 F1200 X134.253 Y49.966 E41.0366
G0 F6000 X134.253 Y49.4
G1 F1200 X150.993 Y66.14 E41.824
G0 F6000 X150.993 Y65.574
G1 F1200 X134.253 Y48.834 E42.61139
G0 F6000 X134.253 Y48.269
G1 F1200 X150.993 Y65.009 E43.39879
G0 F6000 X150.993 Y64.443
G1 F1200 X134.253 Y47.703 E44.18619
G0 F6000 X134.253 Y47.137
G1 F1200 X150.993 Y63.877 E44.97359
G0 F6000 X150.993 Y63.312
G1 F1200 X134.253 Y46.572 E45.76099
G0 F6000 X134.253 Y46.006
G1 F1200 X150.993 Y62.746 E46.54839
G0 F6000 X150.993 Y62.18
G1 F1200 X134.253 Y45.44 E47.33578
G0 F6000 X134.253 Y44.875
G1 F1200 X150.993 Y61.615 E48.12318
G0 F6000 X150.993 Y61.049
G1 F1200 X134.253 Y44.309 E48.91058
G0 F6000 X134.253 Y43.743
G1 F1200 X150.993 Y60.483 E49.69798
G0 F6000 X150.993 Y59.918
G1 F1200 X134.253 Y43.178 E50.48538
G0 F6000 X134.253 Y42.612
G1 F1200 X150.993 Y59.352 E51.27278
G0 F6000 X150.993 Y58.786
G1 F1200 X134.253 Y42.046 E52.06017
G0 F6000 X134.253 Y41.481
G1 F1200 X150.993 Y58.221 E52.84757
G0 F6000 X150.993 Y57.655
G1 F1200 X134.253 Y40.915 E53.63497
G0 F6000 X134.253 Y40.349
G1 F1200 X150.993 Y57.089 E54.42237
G0 F6000 X150.993 Y56.523
G1 F1200 X134.253 Y39.783 E55.20977
G0 F6000 X134.253 Y39.218
G1 F1200 X150.993 Y55.958 E55.99717
G0 F6000 X150.993 Y55.392
G1 F1200 X134.253 Y38.652 E56.78456
G0 F6000 X134.253 Y38.086
G1 F1200 X150.993 Y54.826 E57.57196
G0 F6000 X150.993 Y54.261
G1 F1200 X134.253 Y37.521 E58.35936
G0 F6000 X134.253 Y36.955
G1 F1200 X150.993 Y53.695 E59.14676
G0 F6000 X150.993 Y53.129
G1 F1200 X134.253 Y36.389 E59.93416
G0 F6000 X134.253 Y35.824
G1 F1200 X150.993 Y52.564 E60.72156
G0 F6000 X150.993 Y51.998
G1 F1200 X134.253 Y35.258 E61.50895
G0 F6000 X134.253 Y34.692
G1 F1200 X150.993 Y51.432 E62.29635
G0 F6000 X150.993 Y50.867
G1 F1200 X134.253 Y34.127 E63.08375
G0 F6000 X134.253 Y33.561
G1 F1200 X150.993 Y50.301 E63.87115
G0 F6000 X150.993 Y49.735
G1 F1200 X134.253 Y32.995 E64.65855
G0 F6000 X134.253 Y32.43
G1 F1200 X150.993 Y49.17 E65.44594
G0 F6000 X150.993 Y48.604
G1 F1200 X134.253 Y31.864 E66.23334
G0 F6000 X134.253 Y31.298
G1 F1200 X150.993 Y48.038 E67.02074
G0 F6000 X150.993 Y47.473
G1 F1200 X134.253 Y30.732 E67.80816
G0 F6000 X134.253 Y30.167
G1 F1200 X150.994 Y46.908 E68.59561
G0 F6000 X150.994 Y46.342
G1 F1200 X134.253 Y29.601 E69.38305
G0 F6000 X134.253 Y29.035
G1 F1200 X150.994 Y45.776 E70.1705
G0 F6000 X150.994 Y45.21
G1 F1200 X134.253 Y28.47 E70.95792
G0 F6000 X134.253 Y27.904
G1 F1200 X150.994 Y44.645 E71.74537
G0 F6000 X150.994 Y44.079
G1 F1200 X134.715 Y27.801 E72.51106
G0 F6000 X135.281 Y27.801
G1 F1200 X150.994 Y43.513 E73.25012
G0 F6000 X150.994 Y42.948
G1 F1200 X135.847 Y27.801 E73.96259
G0 F6000 X136.412 Y27.801
G1 F1200 X150.994 Y42.382 E74.64846
G0 F6000 X150.994 Y41.816
G1 F1200 X136.978 Y27.801 E75.30771
G0 F6000 X137.544 Y27.801
G1 F1200 X150.994 Y41.251 E75.94036
G0 F6000 X150.994 Y40.685
G1 F1200 X138.109 Y27.801 E76.5464
G0 F6000 X138.675 Y27.801
G1 F1200 X150.994 Y40.119 E77.12583
G0 F6000 X150.994 Y39.554
G1 F1200 X139.241 Y27.801 E77.67865
G0 F6000 X139.807 Y27.801
