;FLAVOR:Marlin
;TIME:9358
;Filament used: 3.28187m
;Layer height: 0.2
;MINX:104.907
;MINY:19.694
;MINZ:0.2
;MAXX:225.174
;MAXY:60.894
;MAXZ:12.2
;Generated with Cura_SteamEngine 4.12.1
M140 S50
M105
M190 S50
M104 S235
M105
M109 S235
M82 ;absolute extrusion mode
M201 X500.00 Y500.00 Z100.00 E5000.00 ;Setup machine max acceleration
M203 X500.00 Y500.00 Z10.00 E50.00 ;Setup machine max feedrate
M204 P500.00 R1000.00 T500.00 ;Setup Print/Retract/Travel acceleration
M205 X8.00 Y8.00 Z0.40 E5.00 ;Setup Jerk
M220 S100 ;Reset Feedrate
M221 S100 ;Reset Flowrate

G28 ;Home

G92 E0 ;Reset Extruder
G1 Z2.0 F3000 ;Move Z Axis up
G1 X10.1 Y20 Z0.28 F5000.0 ;Move to start position
G1 X10.1 Y200.0 Z0.28 F1500.0 E15 ;Draw the first line
G1 X10.4 Y200.0 Z0.28 F5000.0 ;Move to side a little
G1 X10.4 Y20 Z0.28 F1500.0 E30 ;Draw the second line
G92 E0 ;Reset Extruder
G1 Z2.0 F3000 ;Move Z Axis up

G92 E0
G92 E0
G1 F2700 E-5
;LAYER_COUNT:60
;LAYER:0
M107
G1 F300 Z0.4
G0 F6000 X105.318 Y27.419 Z0.4
;TYPE:SKIRT
G1 F300 Z0.2
G1 F2700 E0
G1 F1200 X105.607 Y26.545 E0.03062
G1 X105.971 Y25.699 E0.06125
G1 X106.407 Y24.888 E0.09187
G1 X106.911 Y24.118 E0.12248
G1 X107.48 Y23.395 E0.15308
G1 X108.11 Y22.723 E0.18372
G1 X108.796 Y22.109 E0.21434
G1 X109.533 Y21.557 E0.24497
G1 X110.314 Y21.07 E0.27558
G1 X111.135 Y20.653 E0.30621
G1 X111.989 Y20.31 E0.33682
G1 X112.613 Y20.111 E0.3586
G1 X113.508 Y19.897 E0.38921
G1 X114.419 Y19.761 E0.41984
G1 X115.225 Y19.707 E0.44671
G1 X115.543 Y19.698 E0.45729
G1 X115.843 Y19.694 E0.46727
G1 X132.341 Y19.694 E1.016
G1 X133.199 Y19.705 E1.04454
G1 X133.499 Y19.714 E1.05452
G1 X134.741 Y19.767 E1.09587
G1 X137.401 Y19.842 E1.18437
G1 X139.912 Y19.842 E1.26789
G1 X142.476 Y19.769 E1.3532
G1 X143.459 Y19.72 E1.38594
G1 X143.683 Y19.711 E1.39339
G1 X144.13 Y19.698 E1.40827
G1 X144.438 Y19.694 E1.41851
G1 X161.792 Y19.695 E1.99571
G1 X162.498 Y19.705 E2.01919
G1 X162.796 Y19.713 E2.02911
G1 X163.755 Y19.755 E2.06104
G1 X164.793 Y19.814 E2.09561
G1 X167.328 Y19.886 E2.17996
G1 X169.845 Y19.886 E2.26368
G1 X172.401 Y19.815 E2.34872
G1 X173.826 Y19.743 E2.39618
G1 X174.202 Y19.721 E2.40871
G1 X174.52 Y19.707 E2.4193
G1 X174.838 Y19.698 E2.42988
G1 X175.138 Y19.694 E2.43986
G1 X191.092 Y19.695 E2.97049
G1 X191.798 Y19.705 E2.99397
G1 X192.092 Y19.713 E3.00375
G1 X192.419 Y19.728 E3.01464
G1 X194.683 Y19.857 E3.09006
G1 X197.229 Y19.93 E3.17478
G1 X199.74 Y19.932 E3.2583
G1 X202.304 Y19.86 E3.34361
G1 X203.769 Y19.787 E3.39239
G1 X204.911 Y19.721 E3.43044
G1 X205.22 Y19.707 E3.44073
G1 X205.533 Y19.698 E3.45114
G1 X205.838 Y19.694 E3.46129
G1 X207.055 Y19.695 E3.50177
G1 X207.266 Y19.698 E3.50878
G1 X209.886 Y19.7 E3.59593
G1 X210.047 Y19.697 E3.60128
G1 X210.511 Y19.694 E3.61672
G1 X214.019 Y19.695 E3.73339
G1 X214.717 Y19.705 E3.75661
G1 X215.636 Y19.758 E3.78723
G1 X216.547 Y19.891 E3.81785
G1 X217.443 Y20.102 E3.84846
G1 X218.317 Y20.39 E3.87907
G1 X219.164 Y20.753 E3.90972
G1 X219.975 Y21.188 E3.94033
G1 X220.745 Y21.692 E3.97094
G1 X221.469 Y22.261 E4.00157
G1 X222.141 Y22.891 E4.0322
G1 X222.756 Y23.576 E4.06282
G1 X223.309 Y24.312 E4.09344
G1 X223.796 Y25.093 E4.12405
G1 X224.213 Y25.914 E4.15468
G1 X224.558 Y26.768 E4.18531
G1 X224.827 Y27.648 E4.21592
G1 X225.019 Y28.549 E4.24656
G1 X225.132 Y29.462 E4.27716
G1 X225.161 Y30.006 E4.29528
G1 X225.17 Y30.326 E4.30592
G1 X225.174 Y30.624 E4.31584
G1 X225.173 Y49.689 E4.94994
G1 X225.164 Y50.416 E4.97412
G1 X225.113 Y51.335 E5.00474
G1 X224.982 Y52.247 E5.03538
G1 X224.772 Y53.143 E5.06599
G1 X224.486 Y54.018 E5.09661
G1 X224.125 Y54.865 E5.12723
G1 X223.691 Y55.677 E5.15785
G1 X223.189 Y56.449 E5.18848
G1 X222.621 Y57.174 E5.21911
G1 X221.993 Y57.847 E5.24973
G1 X221.309 Y58.463 E5.28035
G1 X220.574 Y59.017 E5.31096
G1 X219.794 Y59.506 E5.34158
G1 X218.974 Y59.925 E5.37221
G1 X218.121 Y60.271 E5.40282
G1 X217.241 Y60.542 E5.43345
G1 X216.341 Y60.735 E5.46406
G1 X215.427 Y60.85 E5.4947
G1 X214.862 Y60.881 E5.51352
G1 X214.541 Y60.89 E5.5242
G1 X214.244 Y60.894 E5.53408
G1 X210.842 Y60.893 E5.64723
G1 X210.565 Y60.889 E5.65645
G1 X208.334 Y60.89 E5.73065
G1 X208.249 Y60.886 E5.73348
G1 X207.273 Y60.894 E5.76594
G1 X206.065 Y60.893 E5.80612
G1 X205.36 Y60.883 E5.82957
G1 X205.034 Y60.873 E5.84042
G1 X204.731 Y60.859 E5.85051
G1 X202.461 Y60.73 E5.92613
G1 X199.912 Y60.657 E6.01095
G1 X197.401 Y60.657 E6.09446
G1 X194.836 Y60.729 E6.17981
G1 X193.467 Y60.797 E6.2254
G1 X192.25 Y60.867 E6.26594
G1 X191.964 Y60.879 E6.27546
G1 X191.636 Y60.889 E6.28638
G1 X191.313 Y60.894 E6.29712
G1 X175.365 Y60.893 E6.82755
G1 X174.66 Y60.883 E6.851
G1 X174.363 Y60.875 E6.86089
G1 X173.384 Y60.832 E6.89348
G1 X172.34 Y60.773 E6.92826
G1 X169.796 Y60.702 E7.01291
G1 X167.285 Y60.702 E7.09642
G1 X164.716 Y60.776 E7.1819
G1 X163.338 Y60.844 E7.22779
G1 X162.964 Y60.866 E7.24025
G1 X162.665 Y60.879 E7.25021
G1 X162.324 Y60.889 E7.26155
G1 X162.013 Y60.894 E7.2719
G1 X144.665 Y60.893 E7.84889
G1 X143.958 Y60.883 E7.87241
G1 X143.659 Y60.874 E7.88236
G1 X142.418 Y60.821 E7.92367
G1 X139.755 Y60.746 E8.01228
G1 X137.245 Y60.746 E8.09576
G1 X134.682 Y60.819 E8.18104
G1 X133.698 Y60.868 E8.21381
G1 X133.473 Y60.877 E8.2213
G1 X133.026 Y60.89 E8.23618
G1 X132.718 Y60.894 E8.24642
G1 X116.077 Y60.893 E8.7999
G1 X115.379 Y60.884 E8.82312
G1 X114.46 Y60.832 E8.85374
G1 X113.549 Y60.701 E8.88435
G1 X112.653 Y60.491 E8.91496
G1 X111.778 Y60.204 E8.94558
G1 X110.931 Y59.842 E8.97622
G1 X110.119 Y59.408 E9.00684
G1 X109.348 Y58.906 E9.03744
G1 X108.623 Y58.338 E9.06808
G1 X107.95 Y57.709 E9.09871
G1 X107.335 Y57.025 E9.12931
G1 X106.781 Y56.29 E9.15992
G1 X106.293 Y55.509 E9.19055
G1 X105.874 Y54.689 E9.22118
G1 X105.528 Y53.836 E9.25179
G1 X105.258 Y52.956 E9.28241
G1 X105.065 Y52.055 E9.31306
G1 X104.951 Y51.142 E9.34366
G1 X104.919 Y50.552 E9.36331
G1 X104.91 Y50.195 E9.37519
G1 X104.907 Y49.927 E9.3841
G1 X104.909 Y30.808 E10.02
G1 X104.919 Y30.145 E10.04206
G1 X104.973 Y29.226 E10.07268
G1 X105.106 Y28.315 E10.1033
G1 X105.318 Y27.419 E10.13392
G0 F6000 X105.717 Y27.478
G1 F1200 X106.006 Y26.623 E10.16394
G1 X106.369 Y25.796 E10.19398
G1 X106.804 Y25.004 E10.22403
G1 X107.307 Y24.254 E10.25407
G1 X107.874 Y23.551 E10.28411
G1 X108.501 Y22.902 E10.31412
G1 X109.184 Y22.31 E10.34418
G1 X109.916 Y21.781 E10.37422
G1 X110.692 Y21.319 E10.40426
G1 X111.505 Y20.927 E10.43428
G1 X112.723 Y20.495 E10.47726
G1 X113.601 Y20.286 E10.50728
G1 X114.495 Y20.155 E10.53733
G1 X115.236 Y20.107 E10.56203
G1 X115.554 Y20.098 E10.57261
G1 X115.843 Y20.094 E10.58223
G1 X132.341 Y20.094 E11.13095
G1 X133.193 Y20.105 E11.15929
G1 X133.482 Y20.113 E11.16891
G1 X134.783 Y20.168 E11.21222
G1 X137.39 Y20.242 E11.29896
G1 X139.923 Y20.242 E11.38321
G1 X142.507 Y20.169 E11.46919
G1 X143.479 Y20.12 E11.50156
G1 X143.694 Y20.111 E11.50871
G1 X144.141 Y20.098 E11.52359
G1 X144.438 Y20.094 E11.53347
G1 X161.786 Y20.095 E12.11046
G1 X162.492 Y20.105 E12.13395
G1 X162.779 Y20.113 E12.1435
G1 X163.732 Y20.155 E12.17523
G1 X164.759 Y20.214 E12.20944
G1 X167.317 Y20.286 E12.29455
G1 X169.856 Y20.286 E12.379
G1 X172.432 Y20.214 E12.46471
G1 X173.763 Y20.147 E12.50904
G1 X174.225 Y20.12 E12.52443
G1 X174.531 Y20.107 E12.53462
G1 X174.849 Y20.098 E12.5452
G1 X175.138 Y20.094 E12.55481
G1 X191.086 Y20.095 E13.08524
G1 X191.792 Y20.105 E13.10873
G1 X192.075 Y20.113 E13.11814
G1 X192.396 Y20.128 E13.12883
G1 X194.649 Y20.257 E13.20389
G1 X197.217 Y20.33 E13.28934
G1 X199.751 Y20.332 E13.37362
G1 X202.336 Y20.26 E13.45963
G1 X203.711 Y20.191 E13.50542
G1 X204.934 Y20.12 E13.54616
G1 X205.232 Y20.107 E13.55609
G1 X205.545 Y20.098 E13.5665
G1 X205.838 Y20.094 E13.57625
G1 X207.049 Y20.095 E13.61652
G1 X207.26 Y20.098 E13.62354
G1 X209.895 Y20.1 E13.71118
G1 X210.05 Y20.097 E13.71634
G1 X210.514 Y20.094 E13.73177
G1 X214.013 Y20.095 E13.84815
G1 X214.711 Y20.105 E13.87137
G1 X215.613 Y20.158 E13.90142
G1 X216.506 Y20.29 E13.93144
G1 X217.384 Y20.501 E13.96148
G1 X218.24 Y20.789 E13.99152
G1 X219.067 Y21.151 E14.02154
G1 X219.859 Y21.586 E14.0516
G1 X220.61 Y22.088 E14.08164
G1 X221.313 Y22.655 E14.11168
G1 X221.963 Y23.282 E14.14172
G1 X222.555 Y23.964 E14.17176
G1 X223.085 Y24.695 E14.20179
G1 X223.547 Y25.471 E14.23182
G1 X223.94 Y26.284 E14.26186
G1 X224.258 Y27.129 E14.29189
G1 X224.501 Y27.999 E14.32193
G1 X224.666 Y28.887 E14.35197
G1 X224.761 Y30.017 E14.38969
G1 X224.77 Y30.337 E14.40034
G1 X224.774 Y30.624 E14.40988
G1 X224.773 Y49.684 E15.04382
G1 X224.764 Y50.411 E15.068
G1 X224.713 Y51.313 E15.09805
G1 X224.582 Y52.207 E15.1281
G1 X224.373 Y53.085 E15.15812
G1 X224.087 Y53.942 E15.18817
G1 X223.726 Y54.77 E15.21821
G1 X223.294 Y55.562 E15.24822
G1 X222.793 Y56.314 E15.27827
G1 X222.227 Y57.018 E15.30832
G1 X221.602 Y57.669 E15.33833
G1 X220.921 Y58.263 E15.36839
G1 X220.19 Y58.794 E15.39844
G1 X219.416 Y59.258 E15.42846
G1 X218.603 Y59.652 E15.4585
G1 X217.759 Y59.972 E15.48853
G1 X216.889 Y60.217 E15.51859
G1 X216.002 Y60.383 E15.5486
G1 X214.851 Y60.481 E15.58702
G1 X214.53 Y60.49 E15.5977
G1 X214.244 Y60.494 E15.60722
G1 X210.847 Y60.493 E15.7202
G1 X210.569 Y60.489 E15.72945
G1 X208.333 Y60.49 E15.80382
G1 X208.249 Y60.486 E15.80661
G1 X207.27 Y60.494 E15.83918
G1 X206.07 Y60.493 E15.87909
G1 X205.365 Y60.483 E15.90254
G1 X205.052 Y60.474 E15.91296
G1 X204.753 Y60.46 E15.92291
G1 X202.458 Y60.33 E15.99937
G1 X199.924 Y60.257 E16.08368
G1 X197.39 Y60.257 E16.16796
G1 X194.804 Y60.329 E16.25401
G1 X193.424 Y60.398 E16.29996
G1 X192.227 Y60.467 E16.33984
G1 X191.952 Y60.479 E16.349
G1 X191.624 Y60.489 E16.35991
G1 X191.313 Y60.494 E16.37026
G1 X175.37 Y60.493 E16.90052
G1 X174.665 Y60.483 E16.92397
G1 X174.38 Y60.475 E16.93346
G1 X173.406 Y60.433 E16.96588
G1 X172.338 Y60.373 E17.00146
G1 X169.807 Y60.302 E17.08567
G1 X167.274 Y60.302 E17.16992
G1 X164.684 Y60.376 E17.2561
G1 X163.355 Y60.443 E17.30036
G1 X162.941 Y60.467 E17.31415
G1 X162.653 Y60.48 E17.32374
G1 X162.312 Y60.49 E17.33509
G1 X162.013 Y60.494 E17.34503
G1 X144.671 Y60.493 E17.92183
G1 X143.964 Y60.483 E17.94535
G1 X143.676 Y60.475 E17.95493
G1 X142.376 Y60.42 E17.99821
G1 X139.766 Y60.346 E18.08505
G1 X137.233 Y60.346 E18.1693
G1 X134.651 Y60.419 E18.25521
G1 X133.678 Y60.468 E18.28761
G1 X133.462 Y60.477 E18.2948
G1 X133.015 Y60.49 E18.30968
G1 X132.718 Y60.494 E18.31956
G1 X116.082 Y60.493 E18.87287
G1 X115.384 Y60.484 E18.89609
G1 X114.483 Y60.433 E18.92611
G1 X113.589 Y60.301 E18.95616
G1 X112.711 Y60.092 E18.98618
G1 X111.854 Y59.805 E19.01624
G1 X111.027 Y59.444 E19.04625
G1 X110.234 Y59.011 E19.0763
G1 X109.483 Y58.51 E19.10633
G1 X108.779 Y57.944 E19.13638
G1 X108.128 Y57.318 E19.16641
G1 X107.535 Y56.637 E19.19645
G1 X107.005 Y55.906 E19.22648
G1 X106.541 Y55.131 E19.25652
G1 X106.147 Y54.318 E19.28657
G1 X105.827 Y53.474 E19.31659
G1 X105.583 Y52.604 E19.34665
G1 X105.417 Y51.716 E19.37669
G1 X105.319 Y50.542 E19.41588
G1 X105.31 Y50.185 E19.42775
G1 X105.307 Y49.927 E19.43633
G1 X105.309 Y30.814 E20.07204
G1 X105.319 Y30.151 E20.09409
G1 X105.373 Y29.25 E20.12411
G1 X105.506 Y28.356 E20.15417
G1 X105.717 Y27.478 E20.18421
G1 F2700 E15.18421
G1 F300 Z0.4
;MESH:finger.stl
G0 F6000 X144.308 Y50.094 Z0.4
;TYPE:WALL-OUTER
G1 F300 Z0.2
G1 F2700 E20.18421
G1 F1200 X144.308 Y30.494 E20.83611
G1 X162.149 Y30.494 E21.4295
G1 X162.148 Y50.094 E22.0814
G1 X144.308 Y50.094 E22.67476
G0 F6000 X144.698 Y49.704
;TYPE:SKIN
G1 F1200 X144.698 Y30.884 E23.30071
G1 X161.759 Y30.884 E23.86817
G1 X161.758 Y49.704 E24.49412
G1 X144.698 Y49.704 E25.06154
G0 F6000 X145.144 Y49.543
G1 F1200 X144.857 Y49.256 E25.07504
G0 F6000 X144.857 Y48.69
G1 F1200 X145.709 Y49.543 E25.11514
G0 F6000 X146.275 Y49.543
G1 F1200 X144.857 Y48.124 E25.18186
G0 F6000 X144.857 Y47.559
G1 F1200 X146.841 Y49.543 E25.27518
G0 F6000 X147.407 Y49.543
G1 F1200 X144.857 Y46.993 E25.39513
G0 F6000 X144.857 Y46.427
G1 F1200 X147.972 Y49.543 E25.54167
G0 F6000 X148.538 Y49.543
G1 F1200 X144.857 Y45.862 E25.71481
G0 F6000 X144.857 Y45.296
G1 F1200 X149.104 Y49.543 E25.91458
G0 F6000 X149.669 Y49.543
G1 F1200 X144.857 Y44.73 E26.14094
G0 F6000 X144.857 Y44.165
G1 F1200 X150.235 Y49.543 E26.39391
G0 F6000 X150.801 Y49.543
G1 F1200 X144.857 Y43.599 E26.67349
G0 F6000 X144.857 Y43.033
G1 F1200 X151.366 Y49.543 E26.97968
G0 F6000 X151.932 Y49.543
G1 F1200 X144.857 Y42.468 E27.31247
G0 F6000 X144.857 Y41.902
G1 F1200 X152.498 Y49.543 E27.67188
G0 F6000 X153.063 Y49.543
G1 F1200 X144.857 Y41.336 E28.05789
G0 F6000 X144.857 Y40.771
G1 F1200 X153.629 Y49.543 E28.47049
G0 F6000 X154.195 Y49.543
G1 F1200 X144.857 Y40.205 E28.90972
G0 F6000 X144.857 Y39.639
G1 F1200 X154.76 Y49.543 E29.37556
G0 F6000 X155.326 Y49.543
G1 F1200 X144.857 Y39.074 E29.86798
G0 F6000 X144.857 Y38.508
G1 F1200 X155.892 Y49.543 E30.38704
G0 F6000 X156.457 Y49.543
G1 F1200 X144.857 Y37.942 E30.93269
G0 F6000 X144.857 Y37.376
G1 F1200 X157.023 Y49.543 E31.50496
G0 F6000 X157.589 Y49.543
G1 F1200 X144.857 Y36.811 E32.10384
G0 F6000 X144.857 Y36.245
G1 F1200 X158.155 Y49.543 E32.72934
G0 F6000 X158.72 Y49.543
G1 F1200 X144.857 Y35.679 E33.38143
G0 F6000 X144.857 Y35.114
G1 F1200 X159.286 Y49.543 E34.06013
G0 F6000 X159.852 Y49.543
G1 F1200 X144.857 Y34.548 E34.76545
G0 F6000 X144.857 Y33.982
G1 F1200 X160.417 Y49.543 E35.49736
G0 F6000 X160.983 Y49.543
G1 F1200 X144.857 Y33.417 E36.25588
G0 F6000 X144.857 Y32.851
G1 F1200 X161.549 Y49.543 E37.04102
G0 F6000 X161.597 Y49.026
G1 F1200 X144.857 Y32.285 E37.82844
G0 F6000 X144.857 Y31.72
G1 F1200 X161.597 Y48.46 E38.61584
G0 F6000 X161.597 Y47.895
G1 F1200 X144.857 Y31.154 E39.40326
G0 F6000 X145.312 Y31.044
G1 F1200 X161.597 Y47.329 E40.16926
G0 F6000 X161.597 Y46.763
G1 F1200 X145.878 Y31.044 E40.90864
G0 F6000 X146.443 Y31.044
G1 F1200 X161.597 Y46.198 E41.62143
G0 F6000 X161.597 Y45.632
G1 F1200 X147.009 Y31.044 E42.30761
G0 F6000 X147.575 Y31.044
G1 F1200 X161.597 Y45.066 E42.96716
G0 F6000 X161.597 Y44.501
G1 F1200 X148.14 Y31.044 E43.60014
G0 F6000 X148.706 Y31.044
G1 F1200 X161.597 Y43.935 E44.20649
G0 F6000 X161.597 Y43.369
G1 F1200 X149.272 Y31.044 E44.78622
G0 F6000 X149.838 Y31.044
G1 F1200 X161.597 Y42.804 E45.33935
G0 F6000 X161.597 Y42.238
G1 F1200 X150.403 Y31.044 E45.86588
G0 F6000 X150.969 Y31.044
G1 F1200 X161.597 Y41.672 E46.36579
G0 F6000 X161.597 Y41.106
G1 F1200 X151.535 Y31.044 E46.83908
G0 F6000 X152.1 Y31.044
G1 F1200 X161.597 Y40.541 E47.28578
G0 F6000 X161.598 Y39.976
G1 F1200 X152.666 Y31.044 E47.70592
G0 F6000 X153.232 Y31.044
G1 F1200 X161.598 Y39.41 E48.09943
G0 F6000 X161.598 Y38.844
G1 F1200 X153.797 Y31.044 E48.46634
G0 F6000 X154.363 Y31.044
G1 F1200 X161.598 Y38.279 E48.80665
G0 F6000 X161.598 Y37.713
G1 F1200 X154.929 Y31.044 E49.12034
G0 F6000 X155.494 Y31.044
G1 F1200 X161.598 Y37.147 E49.40743
G0 F6000 X161.598 Y36.582
G1 F1200 X156.06 Y31.044 E49.66792
G0 F6000 X156.626 Y31.044
G1 F1200 X161.598 Y36.016 E49.90179
G0 F6000 X161.598 Y35.45
G1 F1200 X157.191 Y31.044 E50.10906
G0 F6000 X157.757 Y31.044
G1 F1200 X161.598 Y34.885 E50.28973
G0 F6000 X161.598 Y34.319
G1 F1200 X158.323 Y31.044 E50.44377
G0 F6000 X158.889 Y31.044
G1 F1200 X161.598 Y33.753 E50.5712
G0 F6000 X161.598 Y33.188
G1 F1200 X159.454 Y31.044 E50.67204
G0 F6000 X160.02 Y31.044
G1 F1200 X161.598 Y32.622 E50.74627
G0 F6000 X161.598 Y32.056
G1 F1200 X160.586 Y31.044 E50.79387
G0 F6000 X161.151 Y31.044
G1 F1200 X161.598 Y31.491 E50.8149
G1 F2700 E45.8149
G1 F300 Z0.4
G0 F6000 X132.848 Y50.094 Z0.4
;TYPE:WALL-OUTER
G1 F300 Z0.2
G1 F2700 E50.8149
G1 F1200 X115.707 Y50.094 E51.38501
G1 X115.708 Y30.494 E52.03691
G1 X132.848 Y30.494 E52.60698
G1 X132.848 Y50.094 E53.25888
G0 F6000 X132.458 Y49.704
;TYPE:SKIN
G1 F1200 X116.097 Y49.704 E53.80305
G1 X116.098 Y30.884 E54.42901
G1 X132.458 Y30.884 E54.97314
G1 X132.458 Y49.704 E55.5991
G1 F2700 E50.5991
G1 F300 Z0.4
G0 F6000 X116.86 Y49.544 Z0.4
G1 F300 Z0.2
G1 F2700 E55.5991
G1 F1200 X116.256 Y48.94 E55.62751
G0 F6000 X116.256 Y48.374
G1 F1200 X117.426 Y49.544 E55.68254
G0 F6000 X117.992 Y49.544
G1 F1200 X116.256 Y47.808 E55.7642
G0 F6000 X116.256 Y47.243
G1 F1200 X118.557 Y49.544 E55.87243
G0 F6000 X119.123 Y49.544
