;FLAVOR:Marlin
;TIME:648
;Filament used: 0.612077m
;Layer height: 0.3
;MINX:76.321
;MINY:17.709
;MINZ:0.3
;MAXX:133.678
;MAXY:51.072
;MAXZ:5.775
;Generated with Cura_SteamEngine 4.12.1
M82 ;absolute extrusion mode
G21                                        ; metric values 
G90                                        ; absolute positioning 
M82                                        ; set extruder to absolute mode 
M107                                       ; start with the fan off 
M140 S40           ; Start heating the bed 
G4 S60                                     ; wait 1 minute 
M104 S210         ; start heating the hot end 
M190 S40           ; wait for bed 
M109 S210         ; wait for hotend 
M300 S1000 P500                            ; BEEP heating done 
G28 X0 Y10 Z0                              ; move X/Y to min endstops 
M420 S1                                    ; Enable leveling 
M420 Z2.0                                  ; Set leveling fading height to 2 mm 
G0 Z0.15                                   ; lift nozzle a bit 
G92 E0                                     ; zero the extruded length 
G1 X50 E25 F500                            ; Extrude 25mm of filament in a 5cm line. 
G92 E0                                     ; zero the extruded length again 
G1 E-2 F500                                ; Retract a little 
G1 X120 F4000                              ; Quickly wipe away from the filament line`
G92 E0
G92 E0
G1 F1500 E-6
;LAYER_COUNT:19
;LAYER:0
M106 S76.5
M205 X10 Y10
G1 F600 Z0.375
G0 F6000 X76.737 Y32.114 Z0.375
M205 X8 Y8
;TYPE:SKIRT
G1 F600 Z0.3
G1 F1500 E0
G1 F1200 X77.027 Y31.538 E0.03217
G1 X77.385 Y31.003 E0.06429
G1 X77.808 Y30.516 E0.09647
G1 X78.287 Y30.084 E0.12865
G1 X78.846 Y29.698 E0.16254
G1 X79.573 Y29.264 E0.20479
G1 X80.179 Y28.914 E0.2397
G1 X80.754 Y28.593 E0.27255
G1 X83.24 Y27.155 E0.41583
G1 X83.666 Y26.9 E0.4406
G1 X86.634 Y25.052 E0.61504
G1 X96.186 Y18.862 E1.1829
G1 X96.726 Y18.523 E1.21471
G1 X97.292 Y18.215 E1.24686
G1 X97.892 Y17.979 E1.27903
G1 X98.517 Y17.819 E1.31121
G1 X99.391 Y17.728 E1.35505
G1 X100.431 Y17.709 E1.40695
G1 X109.794 Y17.709 E1.87407
G1 X110.558 Y17.72 E1.91219
G1 X111.2 Y17.769 E1.94431
G1 X111.832 Y17.897 E1.97648
G1 X112.443 Y18.103 E2.00865
G1 X113.226 Y18.502 E2.05249
G1 X114.134 Y19.068 E2.10587
G1 X123.309 Y25.015 E2.65136
G1 X126.348 Y26.907 E2.82996
G1 X126.897 Y27.234 E2.86184
G1 X129.291 Y28.618 E2.9998
G1 X129.864 Y28.939 E3.03257
G1 X130.584 Y29.354 E3.07403
G1 X131.133 Y29.681 E3.10591
G1 X131.807 Y30.159 E3.14713
G1 X132.276 Y30.602 E3.17932
G1 X132.686 Y31.099 E3.21146
G1 X133.032 Y31.643 E3.24363
G1 X133.307 Y32.226 E3.27579
G1 X133.509 Y32.838 E3.30794
G1 X133.633 Y33.471 E3.34012
G1 X133.678 Y34.114 E3.37228
G1 X133.643 Y34.758 E3.40446
G1 X133.562 Y35.246 E3.42914
G1 X133.377 Y36.101 E3.47278
G1 X133.223 Y36.762 E3.50664
G1 X133.045 Y37.477 E3.5434
G1 X132.767 Y38.297 E3.5866
G1 X132.462 Y38.995 E3.6246
G1 X131.038 Y42.135 E3.79661
G1 X130.744 Y42.762 E3.83116
G1 X130.464 Y43.281 E3.86058
G1 X130.285 Y43.555 E3.87691
G1 X129.883 Y44.129 E3.91187
G1 X127.861 Y46.951 E4.08507
G1 X127.445 Y47.514 E4.12
G1 X126.872 Y48.168 E4.16338
G1 X126.317 Y48.702 E4.2018
G1 X125.786 Y49.198 E4.23805
G1 X125.223 Y49.712 E4.27608
G1 X124.721 Y50.117 E4.30826
G1 X124.173 Y50.456 E4.34041
G1 X123.587 Y50.724 E4.37256
G1 X122.972 Y50.918 E4.40473
G1 X122.338 Y51.035 E4.4369
G1 X121.694 Y51.072 E4.46908
G1 X120.922 Y51.011 E4.50772
G1 X118.135 Y50.58 E4.64841
G1 X115.455 Y50.244 E4.78316
G1 X112.799 Y49.987 E4.91629
G1 X110.122 Y49.804 E5.05016
G1 X107.45 Y49.697 E5.18357
G1 X104.739 Y49.666 E5.31883
G1 X102.103 Y49.709 E5.45036
G1 X99.386 Y49.833 E5.58605
G1 X96.73 Y50.026 E5.71891
G1 X94.057 Y50.299 E5.85296
G1 X91.413 Y50.644 E5.98599
G1 X89.206 Y50.993 E6.09747
G1 X89.025 Y51.019 E6.10659
G1 X88.383 Y51.071 E6.13872
G1 X87.739 Y51.043 E6.17088
G1 X87.103 Y50.936 E6.20306
G1 X86.486 Y50.75 E6.23521
G1 X85.896 Y50.49 E6.26738
G1 X85.343 Y50.159 E6.29953
G1 X84.789 Y49.721 E6.33476
G1 X84.21 Y49.195 E6.37379
G1 X83.665 Y48.684 E6.41106
G1 X83.138 Y48.178 E6.44751
G1 X82.558 Y47.519 E6.49131
G1 X82.116 Y46.921 E6.52841
G1 X80.096 Y44.099 E6.70155
G1 X79.686 Y43.507 E6.73748
G1 X79.258 Y42.765 E6.78021
G1 X78.956 Y42.123 E6.81561
G1 X77.529 Y38.974 E6.98809
G1 X77.23 Y38.288 E7.02543
G1 X76.949 Y37.458 E7.06915
G1 X76.772 Y36.739 E7.10609
G1 X76.585 Y35.939 E7.14708
G1 X76.439 Y35.274 E7.18104
G1 X76.34 Y34.637 E7.2132
G1 X76.321 Y33.993 E7.24535
G1 X76.381 Y33.351 E7.27752
G1 X76.521 Y32.721 E7.30971
G1 X76.737 Y32.114 E7.34186
M205 X10 Y10
G1 F1500 E1.34186
G1 F600 Z0.375
;MESH:finger_separator_motor_holder_slider.stl
G0 F6000 X88.074 Y36.748 Z0.375
M205 X8 Y8
;TYPE:WALL-INNER
G1 F600 Z0.3
G1 F1500 E7.34186
G1 F1200 X90.009 Y39.447 E7.50754
G1 X86.528 Y42.432 E7.73632
G1 X84.824 Y40.054 E7.88227
G1 X83.619 Y37.394 E8.02796
G1 X87.953 Y35.87 E8.25716
G1 X87.3 Y34.427 E8.33618
G1 X86.793 Y32.253 E8.44755
G1 X87.973 Y31.572 E8.51553
G1 X99.799 Y23.909 E9.21856
G1 X110.203 Y23.909 E9.73762
G1 X122.027 Y31.572 E10.44057
G1 X123.207 Y32.253 E10.50854
G1 X122.7 Y34.427 E10.61992
G1 X122.047 Y35.87 E10.69894
G1 X126.381 Y37.394 E10.92814
G1 X125.176 Y40.054 E11.07383
G1 X123.472 Y42.432 E11.21978
G1 X119.992 Y39.447 E11.44852
G1 X121.928 Y36.747 E11.61427
G1 X110.666 Y32.909 E12.20787
G1 X99.336 Y32.909 E12.77312
G1 X88.074 Y36.748 E13.36673
M205 X10 Y10
G0 F6000 X88.713 Y36.953
M205 X8 Y8
G1 F1200 X91.239 Y40.477 E13.58305
G1 X93.225 Y42.337 E13.7188
G1 X92.51 Y42.75 E13.75999
G1 X90.644 Y41.002 E13.88756
G1 X89.944 Y40.029 E13.94736
G1 X87.06 Y42.502 E14.13689
G1 X87.781 Y43.51 E14.19872
G1 X89.082 Y44.728 E14.28764
G1 X88.367 Y45.142 E14.32886
G1 X87.184 Y44.034 E14.40972
G1 X84.477 Y40.256 E14.6416
G1 X83.256 Y37.559 E14.7893
G1 X82.563 Y36.031 E14.873
G1 X82.193 Y34.447 E14.95416
G1 X82.907 Y34.035 E14.99528
G1 X83.312 Y35.771 E15.08422
G1 X83.824 Y36.898 E15.14597
G1 X87.409 Y35.637 E15.33557
G1 X86.918 Y34.552 E15.39499
G1 X86.336 Y32.055 E15.5229
G1 X87.764 Y31.231 E15.60516
G1 X99.68 Y23.509 E16.31356
G1 X110.322 Y23.509 E16.84449
G1 X122.236 Y31.231 E17.55282
G1 X123.664 Y32.055 E17.63507
G1 X123.082 Y34.552 E17.76299
G1 X122.591 Y35.637 E17.8224
G1 X126.176 Y36.898 E18.012
G1 X126.688 Y35.771 E18.07376
G1 X127.093 Y34.035 E18.16269
G1 X127.807 Y34.447 E18.20382
G1 X127.437 Y36.031 E18.28497
G1 X125.523 Y40.256 E18.51638
G1 X122.816 Y44.034 E18.74825
G1 X121.633 Y45.142 E18.82912
G1 X120.918 Y44.728 E18.87034
G1 X122.219 Y43.51 E18.95925
G1 X122.94 Y42.502 E19.02108
G1 X120.056 Y40.029 E19.21062
G1 X119.356 Y41.002 E19.27042
G1 X117.49 Y42.75 E19.39798
G1 X116.775 Y42.337 E19.43917
G1 X118.761 Y40.477 E19.57492
G1 X121.289 Y36.952 E19.79134
G1 X110.6 Y33.309 E20.35473
G1 X99.402 Y33.309 E20.91341
G1 X88.713 Y36.953 E21.47682
M205 X10 Y10
G0 F6000 X89.352 Y37.158
M205 X8 Y8
;TYPE:WALL-OUTER
G1 F1200 X91.541 Y40.212 E21.66428
G1 X93.891 Y42.413 E21.82492
G1 X92.453 Y43.244 E21.90778
G1 X90.342 Y41.267 E22.05207
G1 X89.874 Y40.616 E22.09207
G1 X87.598 Y42.567 E22.24163
G1 X88.083 Y43.245 E22.28322
G1 X89.748 Y44.805 E22.39705
G1 X88.31 Y45.636 E22.47991
G1 X86.881 Y44.298 E22.57757
G1 X84.13 Y40.458 E22.81324
G1 X82.181 Y36.156 E23.04887
G1 X81.736 Y34.25 E23.14652
G1 X83.174 Y33.419 E23.22937
G1 X83.693 Y35.642 E23.34326
G1 X84.037 Y36.399 E23.38475
G1 X86.865 Y35.404 E23.53431
G1 X86.536 Y34.677 E23.57413
G1 X85.879 Y31.858 E23.71854
G1 X87.555 Y30.89 E23.8151
G1 X99.561 Y23.109 E24.52887
G1 X110.441 Y23.109 E25.07168
G1 X122.445 Y30.89 E25.78537
G1 X124.121 Y31.858 E25.88193
G1 X123.464 Y34.677 E26.02634
G1 X123.135 Y35.404 E26.06615
G1 X125.963 Y36.399 E26.21572
G1 X126.307 Y35.642 E26.2572
G1 X126.825 Y33.419 E26.37108
G1 X128.264 Y34.25 E26.45398
G1 X127.819 Y36.156 E26.55163
G1 X125.87 Y40.458 E26.78725
G1 X123.119 Y44.298 E27.02292
G1 X121.69 Y45.636 E27.12059
G1 X120.252 Y44.805 E27.20345
G1 X121.917 Y43.245 E27.31728
G1 X122.402 Y42.567 E27.35887
G1 X120.126 Y40.616 E27.50843
G1 X119.658 Y41.267 E27.54843
G1 X117.547 Y43.244 E27.69272
G1 X116.109 Y42.413 E27.77558
G1 X118.459 Y40.212 E27.93622
G1 X120.65 Y37.157 E28.12378
G1 X110.534 Y33.709 E28.65698
G1 X99.468 Y33.709 E29.20906
G1 X89.352 Y37.158 E29.74228
M205 X10 Y10
G0 F6000 X89.468 Y37.32
G0 X89.111 Y37.575
G1 F1500 E23.74228
G1 F600 Z0.375
G0 F6000 X88.484 Y36.096 Z0.375
M205 X8 Y8
;TYPE:SKIN
G1 F600 Z0.3
G1 F1500 E29.74228
G1 F1200 X87.672 Y34.304 E29.84043
G1 X87.239 Y32.446 E29.93561
G1 X88.176 Y31.905 E29.98959
G1 X99.914 Y24.299 E30.6874
G1 X110.088 Y24.299 E31.19498
G1 X121.824 Y31.905 E31.8927
G1 X122.761 Y32.446 E31.94668
G1 X122.328 Y34.304 E32.04186
G1 X121.516 Y36.096 E32.14001
G1 X125.851 Y37.62 E32.36926
G1 X124.837 Y39.857 E32.4918
G1 X123.403 Y41.859 E32.61466
G1 X120.518 Y39.384 E32.8043
G1 X122.552 Y36.548 E32.97842
G1 X110.73 Y32.519 E33.60153
G1 X99.272 Y32.519 E34.17317
G1 X87.452 Y36.549 E34.79621
G1 X89.483 Y39.384 E34.9702
G1 X86.598 Y41.859 E35.15984
G1 X85.163 Y39.857 E35.28272
G1 X84.149 Y37.62 E35.40526
G1 X88.484 Y36.096 E35.63451
M205 X10 Y10
G1 F1500 E29.63451
G1 F600 Z0.375
G0 F6000 X86.747 Y41.492 Z0.375
M205 X8 Y8
G1 F600 Z0.3
G1 F1500 E35.63451
G1 F1200 X86.075 Y40.82 E35.68192
G1 X86.005 Y40.75
M205 X10 Y10
G0 F6000 X87.051 Y41.231
M205 X8 Y8
G1 F1200 X85.097 Y39.276 E35.81982
G1 X85.027 Y39.206
M205 X10 Y10
G0 F6000 X84.627 Y38.241
M205 X8 Y8
G1 F1200 X87.356 Y40.97 E36.01237
M205 X10 Y10
G0 F6000 X87.66 Y40.708
M205 X8 Y8
G1 F1200 X84.602 Y37.65 E36.22813
M205 X10 Y10
G0 F6000 X85.021 Y37.503
M205 X8 Y8
G1 F1200 X87.965 Y40.447 E36.43584
M205 X10 Y10
G0 F6000 X88.27 Y40.186
M205 X8 Y8
G1 F1200 X85.439 Y37.356 E36.63555
M205 X10 Y10
G0 F6000 X85.858 Y37.209
M205 X8 Y8
G1 F1200 X88.574 Y39.925 E36.82718
M205 X10 Y10
G0 F6000 X88.879 Y39.664
M205 X8 Y8
G1 F1200 X86.276 Y37.062 E37.0108
M205 X10 Y10
G0 F6000 X86.695 Y36.915
M205 X8 Y8
G1 F1200 X89.183 Y39.403 E37.18634
G1 X89.253 Y39.473
M205 X10 Y10
G1 F1500 E31.18634
G1 F600 Z0.375
G0 F6000 X88.077 Y37.731 Z0.375
M205 X8 Y8
G1 F600 Z0.3
G1 F1500 E37.18634
G1 F1200 X87.114 Y36.768 E37.25428
G1 X87.044 Y36.698
M205 X10 Y10
G1 F1500 E31.25428
G1 F600 Z0.375
G0 F6000 X88.192 Y35.018 Z0.375
M205 X8 Y8
G1 F600 Z0.3
G1 F1500 E37.25428
G1 F1200 X89.004 Y35.829 E37.31154
M205 X10 Y10
G0 F6000 X89.425 Y35.685
M205 X8 Y8
G1 F1200 X87.799 Y34.059 E37.42626
M205 X10 Y10
G0 F6000 X87.627 Y33.321
M205 X8 Y8
G1 F1200 X89.847 Y35.542 E37.58293
M205 X10 Y10
G0 F6000 X90.269 Y35.397
M205 X8 Y8
G1 F1200 X87.455 Y32.584 E37.78144
M205 X10 Y10
G0 F6000 X87.778 Y32.341
M205 X8 Y8
G1 F1200 X90.691 Y35.254 E37.98697
M205 X10 Y10
G0 F6000 X91.113 Y35.11
M205 X8 Y8
G1 F1200 X88.137 Y32.134 E38.19694
M205 X10 Y10
G0 F6000 X88.486 Y31.918
M205 X8 Y8
G1 F1200 X91.534 Y34.966 E38.41199
M205 X10 Y10
G0 F6000 X91.957 Y34.822
M205 X8 Y8
G1 F1200 X88.829 Y31.695 E38.63265
M205 X10 Y10
G0 F6000 X89.173 Y31.473
M205 X8 Y8
G1 F1200 X92.378 Y34.678 E38.85878
M205 X10 Y10
G0 F6000 X92.8 Y34.535
M205 X8 Y8
G1 F1200 X89.516 Y31.25 E39.09052
M205 X10 Y10
G0 F6000 X89.859 Y31.028
M205 X8 Y8
G1 F1200 X93.222 Y34.39 E39.32777
M205 X10 Y10
G0 F6000 X93.644 Y34.247
M205 X8 Y8
G1 F1200 X90.202 Y30.805 E39.57062
M205 X10 Y10
G0 F6000 X90.546 Y30.583
M205 X8 Y8
G1 F1200 X94.065 Y34.103 E39.81894
M205 X10 Y10
G0 F6000 X94.487 Y33.959
M205 X8 Y8
G1 F1200 X90.889 Y30.361 E40.0728
M205 X10 Y10
G0 F6000 X91.233 Y30.139
M205 X8 Y8
G1 F1200 X94.909 Y33.815 E40.33216
M205 X10 Y10
G0 F6000 X95.331 Y33.671
M205 X8 Y8
G1 F1200 X91.575 Y29.916 E40.59713
M205 X10 Y10
G0 F6000 X91.919 Y29.694
M205 X8 Y8
G1 F1200 X95.753 Y33.528 E40.86764
M205 X10 Y10
G0 F6000 X96.175 Y33.383
M205 X8 Y8
G1 F1200 X92.262 Y29.471 E41.14369
M205 X10 Y10
G0 F6000 X92.605 Y29.248
M205 X8 Y8
G1 F1200 X96.597 Y33.24 E41.42534
M205 X10 Y10
G0 F6000 X97.018 Y33.096
M205 X8 Y8
G1 F1200 X92.949 Y29.026 E41.71247
M205 X10 Y10
G0 F6000 X93.292 Y28.803
M205 X8 Y8
G1 F1200 X97.44 Y32.952 E42.00517
M205 X10 Y10
G0 F6000 X97.862 Y32.808
M205 X8 Y8
G1 F1200 X93.635 Y28.581 E42.30341
M205 X10 Y10
G0 F6000 X93.978 Y28.359
M205 X8 Y8
G1 F1200 X98.284 Y32.664 E42.60718
M205 X10 Y10
G0 F6000 X98.705 Y32.52
M205 X8 Y8
G1 F1200 X94.322 Y28.137 E42.91643
M205 X10 Y10
G0 F6000 X94.665 Y27.914
M205 X8 Y8
G1 F1200 X99.127 Y32.377 E43.23128
M205 X10 Y10
G0 F6000 X99.655 Y32.338
M205 X8 Y8
G1 F1200 X95.008 Y27.692 E43.55911
M205 X10 Y10
G0 F6000 X95.351 Y27.469
M205 X8 Y8
G1 F1200 X100.221 Y32.338 E43.90268
M205 X10 Y10
G0 F6000 X100.786 Y32.338
M205 X8 Y8
G1 F1200 X95.695 Y27.247 E44.26188
M205 X10 Y10
G0 F6000 X96.038 Y27.024
M205 X8 Y8
G1 F1200 X101.352 Y32.338 E44.63681
M205 X10 Y10
G0 F6000 X101.918 Y32.338
M205 X8 Y8
G1 F1200 X96.382 Y26.802 E45.02741
M205 X10 Y10
G0 F6000 X96.725 Y26.58
M205 X8 Y8
G1 F1200 X102.483 Y32.338 E45.43367
M205 X10 Y10
G0 F6000 X103.049 Y32.338
M205 X8 Y8
G1 F1200 X97.068 Y26.358 E45.85562
M205 X10 Y10
G0 F6000 X97.411 Y26.135
M205 X8 Y8
G1 F1200 X103.615 Y32.338 E46.29331
M205 X10 Y10
G0 F6000 X104.18 Y32.338
M205 X8 Y8
G1 F1200 X97.755 Y25.913 E46.74663
M205 X10 Y10
G0 F6000 X98.098 Y25.69
M205 X8 Y8
G1 F1200 X104.746 Y32.338 E47.21568
M205 X10 Y10
G0 F6000 X105.312 Y32.338
M205 X8 Y8
G1 F1200 X98.441 Y25.468 E47.70043
M205 X10 Y10
G0 F6000 X98.784 Y25.245
M205 X8 Y8
G1 F1200 X105.877 Y32.338 E48.20088
M205 X10 Y10
G0 F6000 X106.443 Y32.338
M205 X8 Y8
G1 F1200 X99.128 Y25.023 E48.717
M205 X10 Y10
G0 F6000 X99.471 Y24.801
M205 X8 Y8
G1 F1200 X107.009 Y32.338 E49.24881
M205 X10 Y10
G0 F6000 X107.574 Y32.338
M205 X8 Y8
G1 F1200 X99.814 Y24.578 E49.79632
M205 X10 Y10
G0 F6000 X100.281 Y24.479
M205 X8 Y8
G1 F1200 X108.14 Y32.338 E50.35081
M205 X10 Y10
G0 F6000 X108.706 Y32.338
M205 X8 Y8
G1 F1200 X100.846 Y24.479 E50.90534
M205 X10 Y10
G0 F6000 X101.412 Y24.479
M205 X8 Y8
G1 F1200 X109.272 Y32.338 E51.45987
M205 X10 Y10
G0 F6000 X109.837 Y32.338
M205 X8 Y8
G1 F1200 X101.978 Y24.479 E52.01437
M205 X10 Y10
G0 F6000 X102.543 Y24.479
M205 X8 Y8
G1 F1200 X110.403 Y32.338 E52.5689
M205 X10 Y10
G0 F6000 X111.077 Y32.447
M205 X8 Y8
G1 F1200 X103.109 Y24.479 E53.13108
M205 X10 Y10
G0 F6000 X103.675 Y24.479
M205 X8 Y8
G1 F1200 X111.935 Y32.739 E53.71387
G1 X112.005 Y32.809
M205 X10 Y10
G0 F6000 X112.793 Y33.031
M205 X8 Y8
G1 F1200 X104.24 Y24.479 E54.3173
M205 X10 Y10
G0 F6000 X104.806 Y24.479
M205 X8 Y8
G1 F1200 X113.651 Y33.324 E54.94136
G1 X113.721 Y33.394
M205 X10 Y10
G0 F6000 X114.51 Y33.617
M205 X8 Y8
G1 F1200 X105.372 Y24.479 E55.58609
M205 X10 Y10
G0 F6000 X105.938 Y24.479
M205 X8 Y8
G1 F1200 X115.368 Y33.909 E56.25143
G1 X115.438 Y33.979
M205 X10 Y10
G0 F6000 X116.226 Y34.202
M205 X8 Y8
G1 F1200 X106.503 Y24.479 E56.93744
M205 X10 Y10
G0 F6000 X107.069 Y24.479
M205 X8 Y8
G1 F1200 X117.084 Y34.494 E57.64405
G1 X117.154 Y34.564
M205 X10 Y10
G0 F6000 X117.942 Y34.786
M205 X8 Y8
G1 F1200 X107.635 Y24.479 E58.37127
M205 X10 Y10
G0 F6000 X108.2 Y24.479
M205 X8 Y8
G1 F1200 X118.801 Y35.079 E59.11919
G1 X118.871 Y35.149
M205 X10 Y10
G0 F6000 X119.659 Y35.372
M205 X8 Y8
G1 F1200 X108.766 Y24.479 E59.88775
M205 X10 Y10
G0 F6000 X109.332 Y24.479
M205 X8 Y8
G1 F1200 X120.517 Y35.665 E60.67695
G1 X120.587 Y35.735
M205 X10 Y10
G0 F6000 X121.375 Y35.957
M205 X8 Y8
G1 F1200 X109.897 Y24.479 E61.48678
G1 X109.827 Y24.409
M205 X10 Y10
G1 F1500 E55.48678
G1 F600 Z0.375
G0 F6000 X111.255 Y25.271 Z0.375
M205 X8 Y8
G1 F600 Z0.3
G1 F1500 E61.48678
G1 F1200 X121.555 Y35.571 E62.2135
M205 X10 Y10
G0 F6000 X121.731 Y35.182
M205 X8 Y8
G1 F1200 X112.862 Y26.312 E62.8393
G1 X112.792 Y26.242
M205 X10 Y10
G1 F1500 E56.8393
G1 F600 Z0.375
G0 F6000 X114.469 Y27.354 Z0.375
M205 X8 Y8
G1 F600 Z0.3
G1 F1500 E62.8393
G1 F1200 X121.908 Y34.792 E63.36412
M205 X10 Y10
G0 F6000 X122.084 Y34.402
M205 X8 Y8
G1 F1200 X116.077 Y28.395 E63.78795
G1 X116.007 Y28.325
M205 X10 Y10
G1 F1500 E57.78795
G1 F600 Z0.375
G0 F6000 X117.683 Y29.436 Z0.375
M205 X8 Y8
G1 F600 Z0.3
G1 F1500 E63.78795
G1 F1200 X122.219 Y33.972 E64.10799
M205 X10 Y10
G0 F6000 X122.325 Y33.513
M205 X8 Y8
