;FLAVOR:Marlin
;TIME:6552
;Filament used: 6.50959m
;Layer height: 0.3
;MINX:63.568
;MINY:20.434
;MINZ:0.3
;MAXX:117.912
;MAXY:74.778
;MAXZ:63.975
;Generated with Cura_SteamEngine 4.12.1
M82 ;absolute extrusion mode
G21                                        ; metric values 
G90                                        ; absolute positioning 
M82                                        ; set extruder to absolute mode 
M107                                       ; start with the fan off 
M140 S50.0           ; Start heating the bed 
G4 S60                                     ; wait 1 minute 
M104 S210         ; start heating the hot end 
M190 S50.0           ; wait for bed 
M109 S210         ; wait for hotend 
M300 S1000 P500                            ; BEEP heating done 
G28 X0 Y10 Z0                              ; move X/Y to min endstops 
M420 S1                                    ; Enable leveling 
M420 Z2.0                                  ; Set leveling fading height to 2 mm 
G0 Z0.15                                   ; lift nozzle a bit 
G92 E0                                     ; zero the extruded length 
G1 X50 E25 F500                            ; Extrude 25mm of filament in a 5cm line. 
G92 E0                                     ; zero the extruded length again 
G1 E-2 F500                                ; Retract a little 
G1 X120 F4000                              ; Quickly wipe away from the filament line`
G92 E0
G92 E0
G1 F1500 E-6
;LAYER_COUNT:213
;LAYER:0
M106 S76.5
M205 X10 Y10
G1 F600 Z0.375
G0 F6000 X66.152 Y36.133 Z0.375
M205 X8 Y8
;TYPE:SKIRT
G1 F600 Z0.3
G1 F1500 E0
G1 F1200 X67.557 Y33.505 E0.14867
G1 X67.911 Y32.865 E0.18516
G1 X68.399 Y32.135 E0.22897
G1 X68.864 Y31.555 E0.26606
G1 X70.78 Y29.221 E0.41671
G1 X71.204 Y28.718 E0.44953
G1 X71.629 Y28.27 E0.48034
G1 X71.87 Y28.054 E0.49649
G1 X72.379 Y27.625 E0.5297
G1 X74.741 Y25.688 E0.68209
G1 X75.278 Y25.26 E0.71635
G1 X75.812 Y24.886 E0.74888
G1 X76.049 Y24.747 E0.76259
G1 X76.674 Y24.404 E0.79816
G1 X79.329 Y22.985 E0.94835
G1 X79.927 Y22.675 E0.98195
G1 X80.737 Y22.339 E1.0257
G1 X81.465 Y22.107 E1.06382
G1 X84.313 Y21.243 E1.2123
G1 X85.019 Y21.04 E1.24895
G1 X85.874 Y20.871 E1.29243
G1 X86.611 Y20.788 E1.32944
G1 X89.616 Y20.492 E1.48008
G1 X90.31 Y20.434 E1.51483
G1 X91.175 Y20.434 E1.55798
G1 X91.926 Y20.497 E1.59558
G1 X94.948 Y20.796 E1.74708
G1 X95.635 Y20.875 E1.78158
G1 X96.491 Y21.047 E1.82514
G1 X97.242 Y21.266 E1.86417
G1 X100.037 Y22.114 E2.00989
G1 X100.736 Y22.337 E2.0465
G1 X101.538 Y22.669 E2.0898
G1 X102.192 Y23.006 E2.12651
G1 X104.868 Y24.436 E2.27788
G1 X105.494 Y24.784 E2.31361
G1 X106.207 Y25.262 E2.35644
G1 X106.748 Y25.693 E2.39095
G1 X109.126 Y27.646 E2.54447
G1 X109.63 Y28.071 E2.57736
G1 X110.077 Y28.495 E2.6081
G1 X110.293 Y28.736 E2.62424
G1 X110.722 Y29.245 E2.65745
G1 X112.654 Y31.601 E2.80946
G1 X113.081 Y32.135 E2.84357
G1 X113.567 Y32.859 E2.88708
G1 X113.945 Y33.541 E2.92598
G1 X115.362 Y36.195 E3.07608
G1 X115.672 Y36.793 E3.10968
G1 X116.008 Y37.603 E3.15343
G1 X116.24 Y38.331 E3.19155
G1 X117.103 Y41.176 E3.33988
G1 X117.305 Y41.877 E3.37627
G1 X117.448 Y42.526 E3.40943
G1 X117.482 Y42.778 E3.42211
G1 X117.559 Y43.474 E3.45705
G1 X117.853 Y46.47 E3.60724
G1 X117.912 Y47.168 E3.64219
G1 X117.912 Y48.035 E3.68544
G1 X117.85 Y48.78 E3.72274
G1 X117.554 Y51.779 E3.87309
G1 X117.477 Y52.469 E3.90772
G1 X117.307 Y53.326 E3.95131
G1 X117.096 Y54.061 E3.98946
G1 X116.237 Y56.891 E4.13701
G1 X116.017 Y57.586 E4.17338
G1 X115.68 Y58.402 E4.21743
G1 X115.341 Y59.057 E4.25422
G1 X113.914 Y61.728 E4.40531
G1 X113.569 Y62.35 E4.44079
G1 X113.089 Y63.068 E4.48388
G1 X112.654 Y63.614 E4.51871
G1 X110.69 Y66.005 E4.67308
G1 X110.248 Y66.526 E4.70717
G1 X109.645 Y67.129 E4.74971
G1 X109.102 Y67.588 E4.78518
G1 X106.745 Y69.522 E4.93729
G1 X106.208 Y69.951 E4.97158
G1 X105.485 Y70.435 E5.01499
G1 X104.839 Y70.793 E5.05184
G1 X102.119 Y72.246 E5.20569
G1 X101.541 Y72.543 E5.23811
G1 X101.062 Y72.759 E5.26432
G1 X100.683 Y72.895 E5.28441
G1 X100.045 Y73.097 E5.3178
G1 X97.167 Y73.97 E5.46784
G1 X96.461 Y74.173 E5.50449
G1 X95.611 Y74.342 E5.54773
G1 X94.872 Y74.425 E5.58483
G1 X91.874 Y74.719 E5.73512
G1 X91.173 Y74.778 E5.77022
G1 X90.306 Y74.778 E5.81347
G1 X89.566 Y74.716 E5.85052
G1 X86.566 Y74.42 E6.00092
G1 X85.877 Y74.343 E6.0355
G1 X85.223 Y74.227 E6.06864
G1 X84.969 Y74.16 E6.08175
G1 X84.285 Y73.962 E6.11727
G1 X81.452 Y73.102 E6.26498
G1 X80.755 Y72.881 E6.30146
G1 X79.938 Y72.543 E6.34557
G1 X79.267 Y72.195 E6.38328
G1 X76.634 Y70.787 E6.53225
G1 X75.987 Y70.428 E6.56916
G1 X75.264 Y69.944 E6.61257
G1 X74.689 Y69.483 E6.64934
G1 X72.346 Y67.559 E6.80059
G1 X71.824 Y67.117 E6.83471
G1 X71.213 Y66.506 E6.87782
G1 X70.759 Y65.968 E6.91294
G1 X68.824 Y63.609 E7.06516
G1 X68.393 Y63.069 E7.09963
G1 X67.909 Y62.346 E7.14304
G1 X67.554 Y61.705 E7.1796
G1 X66.104 Y58.991 E7.33311
G1 X65.804 Y58.409 E7.36578
G1 X65.536 Y57.795 E7.3992
G1 X65.451 Y57.546 E7.41233
G1 X65.25 Y56.91 E7.44561
G1 X64.377 Y54.033 E7.5956
G1 X64.174 Y53.327 E7.63225
G1 X64.005 Y52.472 E7.67573
G1 X63.922 Y51.735 E7.71273
G1 X63.626 Y48.729 E7.86343
G1 X63.568 Y48.034 E7.89822
G1 X63.568 Y47.169 E7.94138
G1 X63.631 Y46.421 E7.97883
G1 X63.929 Y43.407 E8.12993
G1 X64.006 Y42.728 E8.16402
G1 X64.178 Y41.868 E8.20778
G1 X64.4 Y41.104 E8.24747
G1 X65.246 Y38.315 E8.39288
G1 X65.467 Y37.619 E8.42931
G1 X65.804 Y36.804 E8.47331
G1 X66.152 Y36.133 E8.51102
M205 X10 Y10
G1 F1500 E2.51102
G1 F600 Z0.375
;MESH:grooved_disc_central_cylinder.stl
G0 F6000 X76.127 Y52.577 Z0.375
M205 X8 Y8
;TYPE:WALL-INNER
G1 F600 Z0.3
G1 F1500 E8.51102
G1 F1200 X78.015 Y56.109 E8.71083
G1 X79.919 Y58.428 E8.86052
G1 X82.238 Y60.331 E9.01019
G1 X85.77 Y62.22 E9.21002
G1 X87.491 Y58.065 E9.43439
G1 X88.594 Y58.399 E9.49188
G1 X90.74 Y58.611 E9.59947
G1 X92.886 Y58.399 E9.70706
G1 X93.989 Y58.065 E9.76455
G1 X95.711 Y62.22 E9.98894
G1 X99.243 Y60.331 E10.18877
G1 X101.562 Y58.428 E10.33844
G1 X103.465 Y56.109 E10.4881
G1 X105.354 Y52.577 E10.68793
G1 X101.199 Y50.855 E10.91232
G1 X101.533 Y49.752 E10.96982
G1 X101.745 Y47.606 E11.07741
G1 X101.533 Y45.46 E11.18499
G1 X101.199 Y44.357 E11.24249
G1 X105.354 Y42.636 E11.46686
G1 X103.465 Y39.104 E11.66669
G1 X101.562 Y36.785 E11.81635
G1 X99.243 Y34.881 E11.96605
G1 X95.711 Y32.993 E12.16586
G1 X93.989 Y37.148 E12.39025
G1 X92.888 Y36.813 E12.44766
G1 X90.74 Y36.601 E12.55535
G1 X88.592 Y36.813 E12.66303
G1 X87.492 Y37.148 E12.7204
G1 X85.77 Y32.993 E12.94479
G1 X82.238 Y34.881 E13.1446
G1 X79.919 Y36.785 E13.2943
G1 X78.015 Y39.104 E13.44399
G1 X76.127 Y42.636 E13.6438
G1 X80.282 Y44.357 E13.86817
G1 X79.947 Y45.458 E13.92559
G1 X79.735 Y47.606 E14.03327
G1 X79.947 Y49.754 E14.14096
G1 X80.282 Y50.855 E14.19837
G1 X76.127 Y52.577 E14.42276
M205 X10 Y10
G0 F6000 X76.688 Y52.778
M205 X8 Y8
G1 F1200 X78.349 Y55.886 E14.59858
G1 X80.203 Y58.144 E14.74434
G1 X82.461 Y59.997 E14.89006
G1 X85.569 Y61.659 E15.0659
G1 X87.26 Y57.577 E15.28634
G1 X88.672 Y58.005 E15.35995
G1 X90.74 Y58.209 E15.46362
G1 X92.808 Y58.005 E15.56729
G1 X94.22 Y57.577 E15.6409
G1 X95.912 Y61.659 E15.86136
G1 X99.02 Y59.997 E16.03719
G1 X101.278 Y58.144 E16.18292
G1 X103.131 Y55.886 E16.32865
G1 X104.793 Y52.778 E16.50449
G1 X100.711 Y51.086 E16.72494
G1 X101.139 Y49.674 E16.79855
G1 X101.343 Y47.606 E16.90223
G1 X101.139 Y45.538 E17.0059
G1 X100.711 Y44.126 E17.07951
G1 X104.793 Y42.435 E17.29994
G1 X103.131 Y39.327 E17.47578
G1 X101.278 Y37.069 E17.62151
G1 X99.02 Y35.215 E17.76727
G1 X95.912 Y33.554 E17.94308
G1 X94.22 Y37.636 E18.16354
G1 X92.809 Y37.207 E18.23711
G1 X90.74 Y37.003 E18.34084
G1 X88.671 Y37.207 E18.44456
G1 X87.261 Y37.636 E18.51809
G1 X85.569 Y33.554 E18.73854
G1 X82.461 Y35.215 E18.91436
G1 X80.203 Y37.069 E19.06012
G1 X78.349 Y39.327 E19.20588
G1 X76.688 Y42.435 E19.38169
G1 X80.77 Y44.126 E19.60212
G1 X80.341 Y45.537 E19.6757
G1 X80.137 Y47.606 E19.77942
G1 X80.341 Y49.675 E19.88315
G1 X80.77 Y51.086 E19.95672
G1 X76.688 Y52.778 E20.17718
M205 X10 Y10
G0 F6000 X77.249 Y52.979
M205 X8 Y8
;TYPE:WALL-OUTER
G1 F1200 X78.683 Y55.663 E20.329
G1 X80.487 Y57.86 E20.47082
G1 X82.684 Y59.663 E20.61262
G1 X85.368 Y61.098 E20.76446
G1 X87.029 Y57.089 E20.98096
G1 X88.75 Y57.611 E21.07068
G1 X90.74 Y57.807 E21.17044
G1 X92.73 Y57.611 E21.2702
G1 X94.451 Y57.089 E21.35993
G1 X96.113 Y61.098 E21.57644
G1 X98.797 Y59.663 E21.72829
G1 X100.994 Y57.86 E21.87008
G1 X102.797 Y55.663 E22.01187
G1 X104.232 Y52.979 E22.16371
G1 X100.223 Y51.317 E22.38023
G1 X100.745 Y49.596 E22.46995
G1 X100.941 Y47.606 E22.56972
G1 X100.745 Y45.616 E22.66948
G1 X100.223 Y43.895 E22.7592
G1 X104.232 Y42.234 E22.9757
G1 X102.797 Y39.55 E23.12754
G1 X100.994 Y37.353 E23.26934
G1 X98.797 Y35.549 E23.41116
G1 X96.113 Y34.115 E23.56298
G1 X94.451 Y38.124 E23.7795
G1 X92.73 Y37.601 E23.86923
G1 X90.74 Y37.405 E23.969
G1 X88.75 Y37.601 E24.06876
G1 X87.03 Y38.124 E24.15845
G1 X85.368 Y34.115 E24.37496
G1 X82.684 Y35.549 E24.52678
G1 X80.487 Y37.353 E24.66861
G1 X78.683 Y39.55 E24.81043
G1 X77.249 Y42.234 E24.96225
G1 X81.258 Y43.895 E25.17875
G1 X80.735 Y45.616 E25.26849
G1 X80.539 Y47.606 E25.36825
G1 X80.735 Y49.596 E25.46801
G1 X81.258 Y51.317 E25.55775
G1 X77.249 Y52.979 E25.77427
M205 X10 Y10
G0 F6000 X77.343 Y53.155
G0 X76.955 Y53.361
G1 F1500 E19.77427
G1 F600 Z0.375
G0 F6000 X94.835 Y68.199 Z0.375
M205 X8 Y8
;TYPE:WALL-INNER
G1 F600 Z0.3
G1 F1500 E25.77427
G1 F1200 X90.74 Y68.601 E25.97955
G1 X86.645 Y68.199 E26.18483
G1 X82.707 Y67.005 E26.39013
G1 X79.077 Y65.062 E26.59554
G1 X75.894 Y62.453 E26.80087
G1 X73.285 Y59.27 E27.0062
G1 X71.342 Y55.639 E27.21166
G1 X70.148 Y51.701 E27.41696
G1 X69.745 Y47.606 E27.62225
G1 X70.148 Y43.511 E27.82753
G1 X71.342 Y39.573 E28.03283
G1 X73.285 Y35.943 E28.23825
G1 X75.894 Y32.76 E28.44358
G1 X79.077 Y30.151 E28.6489
G1 X82.707 Y28.208 E28.85432
G1 X86.645 Y27.014 E29.05962
G1 X90.74 Y26.611 E29.2649
G1 X94.835 Y27.014 E29.47019
G1 X98.773 Y28.208 E29.67549
G1 X102.404 Y30.151 E29.88095
G1 X105.587 Y32.76 E30.08628
G1 X108.196 Y35.943 E30.29161
G1 X110.139 Y39.573 E30.49702
G1 X111.333 Y43.511 E30.70232
G1 X111.735 Y47.606 E30.9076
G1 X111.333 Y51.701 E31.11288
G1 X110.139 Y55.639 E31.31818
G1 X108.196 Y59.27 E31.52364
G1 X105.587 Y62.453 E31.72897
G1 X102.404 Y65.062 E31.9343
G1 X98.773 Y67.005 E32.13976
G1 X94.835 Y68.199 E32.34506
M205 X10 Y10
G0 F6000 X94.915 Y68.593
M205 X8 Y8
G1 F1200 X90.74 Y69.003 E32.55435
G1 X86.565 Y68.593 E32.76364
G1 X82.552 Y67.376 E32.97286
G1 X78.855 Y65.398 E33.18204
G1 X75.61 Y62.737 E33.39141
G1 X72.949 Y59.492 E33.60077
G1 X70.971 Y55.794 E33.81
G1 X69.754 Y51.781 E34.01922
G1 X69.343 Y47.606 E34.22851
G1 X69.754 Y43.431 E34.43781
G1 X70.971 Y39.418 E34.64703
G1 X72.949 Y35.721 E34.85621
G1 X75.61 Y32.476 E35.06558
G1 X78.855 Y29.815 E35.27494
G1 X82.552 Y27.837 E35.48413
G1 X86.565 Y26.62 E35.69334
G1 X90.74 Y26.209 E35.90264
G1 X94.915 Y26.62 E36.11194
G1 X98.928 Y27.837 E36.32115
G1 X102.626 Y29.815 E36.53038
G1 X105.871 Y32.476 E36.73974
G1 X108.532 Y35.721 E36.94911
G1 X110.51 Y39.418 E37.15829
G1 X111.727 Y43.431 E37.36751
G1 X112.137 Y47.606 E37.5768
G1 X111.727 Y51.781 E37.78609
G1 X110.51 Y55.794 E37.99531
G1 X108.532 Y59.492 E38.20454
G1 X105.871 Y62.737 E38.4139
G1 X102.626 Y65.398 E38.62327
G1 X98.928 Y67.376 E38.8325
G1 X94.915 Y68.593 E39.04171
M205 X10 Y10
G0 F6000 X94.995 Y68.987
M205 X8 Y8
;TYPE:WALL-OUTER
G1 F1200 X90.74 Y69.405 E39.25501
G1 X86.485 Y68.987 E39.46832
G1 X82.397 Y67.747 E39.68145
G1 X78.633 Y65.734 E39.8944
G1 X75.326 Y63.021 E40.1078
G1 X72.613 Y59.714 E40.32121
G1 X70.6 Y55.949 E40.53421
G1 X69.36 Y51.861 E40.74733
G1 X68.941 Y47.606 E40.96064
G1 X69.36 Y43.351 E41.17395
G1 X70.6 Y39.263 E41.38708
G1 X72.613 Y35.499 E41.60003
G1 X75.326 Y32.192 E41.81344
G1 X78.633 Y29.479 E42.02684
G1 X82.397 Y27.466 E42.2398
G1 X86.485 Y26.226 E42.45292
G1 X90.74 Y25.807 E42.66623
G1 X94.995 Y26.226 E42.87954
G1 X99.083 Y27.466 E43.09267
G1 X102.848 Y29.479 E43.30567
G1 X106.155 Y32.192 E43.51907
G1 X108.868 Y35.499 E43.73247
G1 X110.881 Y39.263 E43.94543
G1 X112.121 Y43.351 E44.15856
G1 X112.539 Y47.606 E44.37186
G1 X112.121 Y51.861 E44.58517
G1 X110.881 Y55.949 E44.79829
G1 X108.868 Y59.714 E45.01129
G1 X106.155 Y63.021 E45.2247
G1 X102.848 Y65.734 E45.4381
G1 X99.083 Y67.747 E45.6511
G1 X94.995 Y68.987 E45.86422
M205 X10 Y10
G0 F6000 X94.796 Y69.006
G0 X94.754 Y68.569
G0 X94.76 Y67.815
M205 X8 Y8
;TYPE:SKIN
G1 F1200 X90.74 Y68.209 E46.06574
G1 X86.72 Y67.815 E46.26726
G1 X82.854 Y66.643 E46.46881
G1 X79.298 Y64.739 E46.67005
G1 X76.171 Y62.176 E46.87176
G1 X73.611 Y59.052 E47.07326
G1 X71.703 Y55.488 E47.27495
G1 X70.532 Y51.626 E47.47629
G1 X70.137 Y47.606 E47.67781
G1 X70.532 Y43.586 E47.87934
G1 X71.704 Y39.72 E48.08088
G1 X73.608 Y36.164 E48.28212
G1 X76.171 Y33.037 E48.48383
G1 X79.298 Y30.474 E48.68555
G1 X82.854 Y28.57 E48.88679
G1 X86.72 Y27.398 E49.08833
G1 X90.74 Y27.003 E49.28986
G1 X94.76 Y27.398 E49.49138
G1 X98.622 Y28.569 E49.69272
G1 X102.186 Y30.477 E49.8944
G1 X105.31 Y33.037 E50.09591
G1 X107.873 Y36.164 E50.29762
G1 X109.777 Y39.72 E50.49886
G1 X110.949 Y43.586 E50.70041
G1 X111.343 Y47.606 E50.90192
G1 X110.949 Y51.626 E51.10344
G1 X109.778 Y55.488 E51.30478
G1 X107.87 Y59.052 E51.50647
G1 X105.31 Y62.176 E51.70797
G1 X102.186 Y64.736 E51.90947
G1 X98.622 Y66.644 E52.11116
G1 X94.76 Y67.815 E52.3125
M205 X10 Y10
G1 F1500 E46.3125
G1 F600 Z0.375
G0 F6000 X95.516 Y62.766 Z0.375
M205 X8 Y8
G1 F600 Z0.3
G1 F1500 E52.3125
G1 F1200 X99.461 Y60.657 E52.53568
G1 X101.839 Y58.705 E52.68917
G1 X103.791 Y56.327 E52.84266
G1 X105.9 Y52.382 E53.06583
G1 X101.675 Y50.629 E53.29404
G1 X101.917 Y49.828 E53.33579
G1 X102.137 Y47.606 E53.44719
G1 X101.917 Y45.384 E53.55858
G1 X101.675 Y44.583 E53.60033
G1 X105.9 Y42.831 E53.82852
G1 X103.791 Y38.886 E54.0517
G1 X101.839 Y36.508 E54.20519
G1 X99.461 Y34.555 E54.35871
G1 X95.516 Y32.447 E54.58186
G1 X93.763 Y36.672 E54.81007
G1 X92.964 Y36.429 E54.85174
G1 X90.74 Y36.209 E54.96323
G1 X88.516 Y36.429 E55.07473
G1 X87.718 Y36.672 E55.11635
G1 X85.965 Y32.447 E55.34456
G1 X82.02 Y34.555 E55.56771
G1 X79.642 Y36.508 E55.72123
G1 X77.689 Y38.886 E55.87475
G1 X75.581 Y42.831 E56.09791
G1 X79.806 Y44.583 E56.3261
G1 X79.563 Y45.382 E56.36776
G1 X79.343 Y47.606 E56.47926
G1 X79.563 Y49.83 E56.59076
G1 X79.806 Y50.629 E56.63242
G1 X75.581 Y52.382 E56.86063
G1 X77.689 Y56.327 E57.08378
G1 X79.642 Y58.705 E57.23731
G1 X82.02 Y60.657 E57.3908
G1 X85.965 Y62.766 E57.61397
G1 X87.717 Y58.541 E57.84216
G1 X88.518 Y58.783 E57.88391
G1 X90.74 Y59.003 E57.99531
G1 X92.962 Y58.783 E58.10671
G1 X93.763 Y58.541 E58.14845
G1 X95.516 Y62.766 E58.37666
M205 X10 Y10
G1 F1500 E52.37666
G1 F600 Z0.375
G0 F6000 X74.22 Y59.512 Z0.375
M205 X8 Y8
G1 F600 Z0.3
G1 F1500 E58.37666
G1 F1200 X78.836 Y64.128 E58.70234
G1 X78.906 Y64.198
M205 X10 Y10
G1 F1500 E52.70234
G1 F600 Z0.375
G0 F6000 X80.399 Y65.125 Z0.375
M205 X8 Y8
G1 F600 Z0.3
G1 F1500 E58.70234
G1 F1200 X73.223 Y57.949 E59.20865
G1 X73.153 Y57.879
M205 X10 Y10
G0 F6000 X72.571 Y56.731
M205 X8 Y8
G1 F1200 X81.617 Y65.778 E59.84693
G1 X81.687 Y65.848
M205 X10 Y10
G0 F6000 X82.836 Y66.431
M205 X8 Y8
G1 F1200 X71.918 Y55.513 E60.61725
G1 X71.848 Y55.443
M205 X10 Y10
G0 F6000 X71.641 Y54.67
M205 X8 Y8
G1 F1200 X83.676 Y66.705 E61.46639
G1 X83.746 Y66.775
M205 X10 Y10
G0 F6000 X84.487 Y66.951
M205 X8 Y8
G1 F1200 X71.395 Y53.858 E62.39013
G1 X71.325 Y53.788
M205 X10 Y10
G0 F6000 X71.149 Y53.047
M205 X8 Y8
G1 F1200 X85.298 Y67.197 E63.38846
G1 X85.368 Y67.267
M205 X10 Y10
G0 F6000 X86.11 Y67.443
M205 X8 Y8
G1 F1200 X70.903 Y52.235 E64.46143
G1 X70.833 Y52.165
M205 X10 Y10
G0 F6000 X70.695 Y51.461
M205 X8 Y8
G1 F1200 X86.883 Y67.65 E65.60362
M205 X10 Y10
G0 F6000 X87.51 Y67.711
M205 X8 Y8
G1 F1200 X70.633 Y50.834 E66.79438
M205 X10 Y10
G0 F6000 X70.572 Y50.207
M205 X8 Y8
G1 F1200 X88.137 Y67.772 E68.03368
M205 X10 Y10
G0 F6000 X88.764 Y67.834
M205 X8 Y8
G1 F1200 X80.912 Y59.981 E68.58772
G1 X80.842 Y59.911
M205 X10 Y10
G1 F1500 E62.58772
G1 F600 Z0.375
G0 F6000 X82.745 Y61.249 Z0.375
