;FLAVOR:Marlin
;TIME:1712
;Filament used: 1.12551m
;Layer height: 0.2
;MINX:91.15
;MINY:19.156
;MINZ:0.36
;MAXX:118.85
;MAXY:47.55
;MAXZ:24.185
;Generated with Cura_SteamEngine 4.12.1
M82 ;absolute extrusion mode
G21                                        ; metric values 
G90                                        ; absolute positioning 
M82                                        ; set extruder to absolute mode 
M107                                       ; start with the fan off 
M140 S50.0           ; Start heating the bed 
G4 S60                                     ; wait 1 minute 
M104 S210         ; start heating the hot end 
M190 S50.0           ; wait for bed 
M109 S210         ; wait for hotend 
M300 S1000 P500                            ; BEEP heating done 
G28 X0 Y10 Z0                              ; move X/Y to min endstops 
M420 S1                                    ; Enable leveling 
M420 Z2.0                                  ; Set leveling fading height to 2 mm 
G0 Z0.15                                   ; lift nozzle a bit 
G92 E0                                     ; zero the extruded length 
G1 X50 E25 F500                            ; Extrude 25mm of filament in a 5cm line. 
G92 E0                                     ; zero the extruded length again 
G1 E-2 F500                                ; Retract a little 
G1 X120 F4000                              ; Quickly wipe away from the filament line`
G92 E0
G92 E0
G1 F1500 E-6
;LAYER_COUNT:114
;LAYER:-6
M107
M205 X10 Y10
G0 F6000 X92.521 Y22.948 Z0.36
M205 X8 Y8
;TYPE:SUPPORT-INTERFACE
G1 F1500 E0
G1 F1125 X92.681 Y22.399 E0.06847
G1 X92.914 Y21.862 E0.13856
G1 X93.209 Y21.365 E0.20776
G1 X93.56 Y20.917 E0.27591
G1 X93.982 Y20.497 E0.3472
G1 X94.44 Y20.145 E0.41636
G1 X94.938 Y19.855 E0.48536
G1 X95.474 Y19.626 E0.55516
G1 X95.998 Y19.477 E0.62038
G1 X96.354 Y19.417 E0.66361
G1 X96.908 Y19.367 E0.73022
G1 X97.13 Y19.357 E0.75682
G1 X112.925 Y19.357 E2.64806
G1 X113.428 Y19.385 E2.70838
G1 X114.01 Y19.477 E2.77893
G1 X114.559 Y19.637 E2.8474
G1 X115.096 Y19.87 E2.91749
G1 X115.593 Y20.165 E2.9867
G1 X116.041 Y20.516 E3.05484
G1 X116.461 Y20.938 E3.12613
G1 X116.813 Y21.396 E3.1953
G1 X117.103 Y21.894 E3.2643
G1 X117.332 Y22.43 E3.33409
G1 X117.481 Y22.954 E3.39932
G1 X117.541 Y23.31 E3.44255
G1 X117.591 Y23.864 E3.50915
G1 X117.601 Y24.086 E3.53576
G1 X117.601 Y29.162 E4.14354
G1 X117.643 Y29.83 E4.22368
G1 X117.773 Y30.507 E4.30622
G1 X118.092 Y31.399 E4.41965
G1 X118.381 Y32.066 E4.50669
G1 X118.53 Y32.59 E4.57192
G1 X118.59 Y32.946 E4.61515
G1 X118.64 Y33.5 E4.68175
G1 X118.65 Y33.722 E4.70836
G1 X118.65 Y35.774 E4.95406
G1 X118.623 Y36.275 E5.01414
G1 X118.573 Y36.677 E5.06264
G1 X118.531 Y37.348 E5.14314
G1 X118.594 Y38.15 E5.23947
G1 X118.641 Y38.684 E5.30365
G1 X118.65 Y38.912 E5.33097
G1 X118.65 Y40.907 E5.56985
G1 X118.622 Y41.41 E5.63017
G1 X118.53 Y41.992 E5.70072
G1 X118.37 Y42.541 E5.76919
G1 X118.137 Y43.078 E5.83928
G1 X117.842 Y43.575 E5.90848
G1 X117.491 Y44.023 E5.97663
G1 X117.069 Y44.443 E6.04792
G1 X116.611 Y44.795 E6.11708
G1 X116.117 Y45.083 E6.18555
G1 X115.461 Y45.355 E6.27058
G1 X115.295 Y45.412 E6.2916
G1 X111.131 Y46.676 E6.81264
G1 X110.626 Y46.798 E6.87485
G1 X110.162 Y46.871 E6.93109
G1 X105.537 Y47.326 E7.48755
G1 X104.961 Y47.351 E7.55658
G1 X104.505 Y47.331 E7.61123
G1 X99.902 Y46.877 E8.16505
G1 X99.32 Y46.788 E8.23555
G1 X98.873 Y46.677 E8.2907
G1 X94.682 Y45.406 E8.81508
G1 X94.202 Y45.23 E8.8763
G1 X93.69 Y44.98 E8.94452
G1 X93.209 Y44.667 E9.01323
G1 X92.755 Y44.282 E9.08451
G1 X92.362 Y43.85 E9.15444
G1 X92.037 Y43.385 E9.22237
G1 X91.757 Y42.856 E9.29403
G1 X91.556 Y42.317 E9.36291
G1 X91.421 Y41.745 E9.43328
G1 X91.356 Y41.063 E9.51531
G1 X91.35 Y40.894 E9.53556
G1 X91.35 Y38.86 E9.7791
G1 X91.425 Y37.977 E9.88521
G1 X91.467 Y37.308 E9.96547
G1 X91.421 Y36.62 E10.04804
G1 X91.356 Y36.022 E10.12006
G1 X91.35 Y35.812 E10.14522
G1 X91.35 Y33.669 E10.40181
G1 X91.378 Y33.166 E10.46213
G1 X91.47 Y32.584 E10.53268
G1 X91.634 Y32.025 E10.60244
G1 X91.887 Y31.447 E10.67798
G1 X92.135 Y30.824 E10.75827
G1 X92.307 Y30.157 E10.84075
G1 X92.401 Y29.167 E10.95982
G1 X92.401 Y24.033 E11.57455
G1 X92.429 Y23.53 E11.63487
G1 X92.521 Y22.948 E11.70542
M205 X10 Y10
G0 F6000 X92.8 Y22.124
M205 X8 Y8
G1 F1125 X92.8 Y44.32 E14.36309
M205 X10 Y10
G1 F1500 E8.36309
G1 F600 Z0.435
G0 F6000 X94.4 Y45.302 Z0.435
M205 X8 Y8
G1 F600 Z0.36
G1 F1500 E14.36309
G1 F1125 X94.4 Y20.175 E17.37171
M205 X10 Y10
G1 F1500 E11.37171
G1 F600 Z0.435
G0 F6000 X96 Y19.476 Z0.435
M205 X8 Y8
G1 F600 Z0.36
G1 F1500 E17.37171
G1 F1125 X96 Y45.805 E20.52425
M205 X10 Y10
G1 F1500 E14.52425
G1 F600 Z0.435
G0 F6000 X97.6 Y46.29 Z0.435
M205 X8 Y8
G1 F600 Z0.36
G1 F1500 E20.52425
G1 F1125 X97.6 Y19.357 E23.74912
M205 X10 Y10
G1 F1500 E17.74912
G1 F600 Z0.435
G0 F6000 X99.2 Y19.357 Z0.435
M205 X8 Y8
G1 F600 Z0.36
G1 F1500 E23.74912
G1 F1125 X99.2 Y46.758 E27.03002
M205 X10 Y10
G1 F1500 E21.03002
G1 F600 Z0.435
G0 F6000 X100.8 Y46.965 Z0.435
M205 X8 Y8
G1 F600 Z0.36
G1 F1500 E27.03002
G1 F1125 X100.8 Y19.357 E30.3357
M205 X10 Y10
G1 F1500 E24.3357
G1 F600 Z0.435
G0 F6000 X102.4 Y19.357 Z0.435
M205 X8 Y8
G1 F600 Z0.36
G1 F1500 E30.3357
G1 F1125 X102.4 Y47.123 E33.6603
M205 X10 Y10
G1 F1500 E27.6603
G1 F600 Z0.435
G0 F6000 X104 Y47.281 Z0.435
M205 X8 Y8
G1 F600 Z0.36
G1 F1500 E33.6603
G1 F1125 X104 Y19.357 E37.00383
M205 X10 Y10
G1 F1500 E31.00383
G1 F600 Z0.435
G0 F6000 X105.6 Y19.357 Z0.435
M205 X8 Y8
G1 F600 Z0.36
G1 F1500 E37.00383
G1 F1125 X105.6 Y47.32 E40.35202
M205 X10 Y10
G1 F1500 E34.35202
G1 F600 Z0.435
G0 F6000 X107.2 Y47.163 Z0.435
M205 X8 Y8
G1 F600 Z0.36
G1 F1500 E40.35202
G1 F1125 X107.2 Y19.357 E43.68141
M205 X10 Y10
G1 F1500 E37.68141
G1 F600 Z0.435
G0 F6000 X108.8 Y19.357 Z0.435
M205 X8 Y8
G1 F600 Z0.36
G1 F1500 E43.68141
G1 F1125 X108.8 Y47.005 E46.99188
M205 X10 Y10
G1 F1500 E40.99188
G1 F600 Z0.435
G0 F6000 X110.4 Y46.834 Z0.435
M205 X8 Y8
G1 F600 Z0.36
G1 F1500 E46.99188
G1 F1125 X110.4 Y19.357 E50.28188
M205 X10 Y10
G1 F1500 E44.28188
G1 F600 Z0.435
G0 F6000 X112 Y19.357 Z0.435
M205 X8 Y8
G1 F600 Z0.36
G1 F1500 E50.28188
G1 F1125 X112 Y46.413 E53.52147
M205 X10 Y10
G1 F1500 E47.52147
G1 F600 Z0.435
G0 F6000 X113.6 Y45.927 Z0.435
M205 X8 Y8
G1 F600 Z0.36
G1 F1500 E53.52147
G1 F1125 X113.6 Y19.413 E56.69617
M205 X10 Y10
G1 F1500 E50.69617
G1 F600 Z0.435
G0 F6000 X115.2 Y19.932 Z0.435
M205 X8 Y8
G1 F600 Z0.36
G1 F1500 E56.69617
G1 F1125 X115.2 Y45.441 E59.75053
M205 X10 Y10
G1 F1500 E53.75053
G1 F600 Z0.435
G0 F6000 X116.8 Y44.65 Z0.435
M205 X8 Y8
G1 F600 Z0.36
G1 F1500 E59.75053
G1 F1125 X116.8 Y21.38 E62.53679
M205 X10 Y10
G1 F1500 E56.53679
G1 F600 Z0.435
G0 F6000 X118.4 Y32.133 Z0.435
M104 S200
M205 X8 Y8
G1 F600 Z0.36
G1 F1500 E62.53679
G1 F1125 X118.4 Y42.439 E63.7708
M205 X10 Y10
G1 F1500 E57.7708
G1 F600 Z0.435
G0 F6000 X105.536 Y47.325 Z0.435
;TIME_ELAPSED:35.867123
;LAYER:-5
G0 X105.536 Y47.325 Z0.735
M205 X8 Y8
;TYPE:SUPPORT
G1 F600 Z0.66
G1 F1500 E63.7708
G1 F1125 X106.616 Y47.219 E63.87908
G1 X91.58 Y32.183 E66.00082
G1 X91.633 Y32.025 E66.01745
G1 X91.732 Y31.773 E66.04446
G1 X91.886 Y31.447 E66.08044
G1 X91.991 Y31.18 E66.10907
G1 X107.903 Y47.092 E68.35442
G1 X109.191 Y46.966 E68.48355
G1 X92.312 Y30.087 E70.86536
G1 X92.4 Y29.166 E70.95768
G1 X92.4 Y28.76 E70.99819
G1 X110.465 Y46.826 E73.54743
G1 X110.625 Y46.797 E73.56365
G1 X111.031 Y46.701 E73.60528
G1 X111.13 Y46.676 E73.61547
G1 X111.589 Y46.536 E73.66335
G1 X92.4 Y27.346 E76.3712
G1 X92.4 Y25.932 E76.51229
G1 X112.674 Y46.206 E79.37317
G1 X113.76 Y45.877 E79.48639
G1 X92.4 Y24.518 E82.50045
G1 X92.4 Y24.033 E82.54884
G1 X92.404 Y23.907 E82.56142
G1 X92.428 Y23.53 E82.59911
G1 X92.464 Y23.231 E82.62916
G1 X92.474 Y23.178 E82.63454
G1 X114.844 Y45.548 E85.79119
G1 X115.294 Y45.412 E85.8381
G1 X115.46 Y45.355 E85.85561
G1 X115.828 Y45.215 E85.8949
G1 X115.894 Y45.184 E85.90217
G1 X92.803 Y22.092 E89.16063
G1 X92.913 Y21.861 E89.18616
G1 X93.059 Y21.599 E89.21609
G1 X93.208 Y21.365 E89.24377
G1 X93.327 Y21.202 E89.26391
G1 X116.789 Y44.665 E92.57472
G1 X116.838 Y44.631 E92.58067
G1 X117.068 Y44.443 E92.61031
G1 X117.272 Y44.252 E92.6382
G1 X117.49 Y44.023 E92.66974
G1 X117.523 Y43.984 E92.67484
G1 X94.011 Y20.472 E95.99264
G1 X94.211 Y20.308 E96.01845
G1 X94.439 Y20.144 E96.04647
G1 X94.698 Y19.982 E96.07695
G1 X94.853 Y19.9 E96.09445
G1 X118.099 Y43.146 E99.37471
G1 X118.136 Y43.078 E99.38244
G1 X118.258 Y42.82 E99.41091
G1 X118.369 Y42.54 E99.44097
G1 X118.453 Y42.282 E99.46804
G1 X118.494 Y42.127 E99.48404
G1 X95.875 Y19.507 E102.67589
G1 X95.997 Y19.477 E102.68843
G1 X96.353 Y19.417 E102.72445
G1 X96.906 Y19.366 E102.77986
G1 X97.128 Y19.357 E102.80203
G1 X97.138 Y19.357 E102.80303
G1 X118.649 Y40.867 E105.8384
G1 X118.649 Y39.453 E105.97949
G1 X98.553 Y19.357 E108.81525
G1 X99.967 Y19.357 E108.95634
G1 X118.579 Y37.969 E111.58269
G1 X118.53 Y37.347 E111.64495
G1 X118.572 Y36.676 E111.71203
G1 X118.586 Y36.562 E111.72349
G1 X101.381 Y19.357 E114.1513
G1 X102.795 Y19.357 E114.29239
G1 X118.649 Y35.211 E116.52956
G1 X118.649 Y33.796 E116.67075
G1 X104.209 Y19.357 E118.70832
G1 X105.624 Y19.357 E118.84951
G1 X118.402 Y32.135 E120.65262
G1 X118.38 Y32.066 E120.65985
G1 X118.273 Y31.791 E120.68929
G1 X118.091 Y31.399 E120.73242
G1 X117.772 Y30.506 E120.82704
G1 X117.673 Y29.992 E120.87927
G1 X107.038 Y19.357 E122.37998
G1 X108.452 Y19.357 E122.52107
G1 X117.6 Y28.504 E123.81188
G1 X117.6 Y27.09 E123.95297
G1 X109.866 Y19.357 E125.04425
G1 X111.28 Y19.357 E125.18534
G1 X117.6 Y25.676 E126.07709
G1 X117.6 Y24.262 E126.21818
G1 X112.695 Y19.357 E126.91033
G1 X112.924 Y19.357 E126.93318
G1 X113.05 Y19.361 E126.94576
G1 X113.426 Y19.384 E126.98334
G1 X113.724 Y19.422 E127.01332
G1 X114.008 Y19.477 E127.04218
G1 X114.3 Y19.553 E127.07229
G1 X114.308 Y19.556 E127.07314
G1 X117.399 Y22.647 E127.50932
M205 X10 Y10
G0 F6000 X117.33 Y22.43
M205 X8 Y8
G1 F1125 X117.229 Y22.168 E127.53733
G1 X117.101 Y21.894 E127.56751
G1 X116.974 Y21.655 E127.59452
G1 X116.812 Y21.395 E127.62508
G1 X116.648 Y21.167 E127.65311
G1 X116.459 Y20.938 E127.68273
G1 X116.273 Y20.735 E127.7102
G1 X116.04 Y20.515 E127.74218
G1 X115.838 Y20.346 E127.76846
G1 X115.592 Y20.165 E127.79893
G1 X115.353 Y20.012 E127.82725
G1 X115.095 Y19.87 E127.85663
G1 X114.836 Y19.748 E127.8852
G1 X114.557 Y19.637 E127.91516
G1 X114.308 Y19.556 E127.94129
M205 X10 Y10
G1 F1500 E121.94129
G1 F600 Z0.735
G0 F6000 X105.536 Y47.325 Z0.735
M205 X8 Y8
G1 F600 Z0.66
G1 F1500 E127.94129
G1 F1125 X105.396 Y47.335 E127.95529
G1 X105.32 Y47.337 E127.96288
G1 X91.363 Y33.38 E129.93236
G1 X91.353 Y33.543 E129.94866
G1 X91.349 Y33.668 E129.96114
G1 X91.349 Y34.78 E130.07209
G1 X103.832 Y47.264 E131.83365
G1 X102.263 Y47.109 E131.99097
G1 X91.369 Y36.215 E133.52823
G1 X91.373 Y36.268 E133.53353
G1 X91.42 Y36.619 E133.56887
G1 X91.466 Y37.307 E133.63767
G1 X91.441 Y37.701 E133.67706
G1 X100.694 Y46.954 E134.98276
G1 X99.901 Y46.876 E135.06227
G1 X99.748 Y46.857 E135.07765
G1 X99.318 Y46.787 E135.12112
G1 X99.127 Y46.746 E135.14061
G1 X99.05 Y46.724 E135.1486
G1 X91.349 Y39.023 E136.2353
G1 X91.349 Y40.437 E136.37639
G1 X97.029 Y46.117 E137.1779
G1 X94.999 Y45.502 E137.38954
G1 X91.465 Y41.968 E137.88823
M205 X10 Y10
G0 F6000 X91.48 Y42.038
M205 X8 Y8
G1 F1125 X91.555 Y42.316 E137.91696
G1 X91.653 Y42.603 E137.94722
G1 X91.756 Y42.855 E137.97438
G1 X91.885 Y43.12 E138.00379
G1 X92.036 Y43.384 E138.03414
G1 X92.195 Y43.628 E138.0632
G1 X92.361 Y43.849 E138.09078
G1 X92.56 Y44.082 E138.12135
G1 X92.754 Y44.281 E138.14908
G1 X92.959 Y44.467 E138.1767
G1 X93.208 Y44.667 E138.20857
G1 X93.43 Y44.822 E138.23558
G1 X93.689 Y44.979 E138.26581
G1 X93.945 Y45.114 E138.29468
G1 X94.201 Y45.23 E138.32273
G1 X94.576 Y45.37 E138.36267
G1 X94.681 Y45.406 E138.37374
G1 X94.999 Y45.502 E138.40689
M205 X10 Y10
G1 F1500 E132.40689
G1 F600 Z0.735
G0 F6000 X104.491 Y47.529 Z0.735
;TIME_ELAPSED:76.935595
;LAYER:-4
G0 X104.491 Y47.529 Z0.935
M205 X8 Y8
;TYPE:SUPPORT-INTERFACE
G1 F600 Z0.86
G1 F1500 E138.40689
G1 X104.757 Y47.547 E138.41575
G1 X104.966 Y47.55 E138.42271
G1 X105.397 Y47.535 E138.43705
G1 X105.554 Y47.524 E138.44229
G1 X108.847 Y47.2 E138.55234
G1 X101.15 Y47.2 E138.80834
G1 X99.871 Y47.074 E138.85109
G1 X99.724 Y47.056 E138.85601
G1 X99.281 Y46.984 E138.87094
G1 X99.09 Y46.941 E138.87745
G1 X98.822 Y46.87 E138.88667
G1 X98.591 Y46.8 E138.8947
G1 X111.408 Y46.8 E139.321
G1 X112.726 Y46.4 E139.36681
G1 X97.273 Y46.4 E139.88078
G1 X95.956 Y46 E139.92656
G1 X114.045 Y46 E140.5282
G1 X115.351 Y45.604 E140.57359
G1 X115.362 Y45.6 E140.57398
G1 X94.638 Y45.6 E141.26326
G1 X94.629 Y45.597 E141.26358
G1 X94.5 Y45.554 E141.2681
G1 X94.118 Y45.411 E141.28167
G1 X93.866 Y45.298 E141.29085
G1 X93.68 Y45.2 E141.29785
G1 X116.32 Y45.2 E142.05086
G1 X116.445 Y45.133 E142.05557
G1 X116.728 Y44.956 E142.06667
G1 X116.945 Y44.8 E142.07556
G1 X93.056 Y44.8 E142.87011
G1 X92.823 Y44.614 E142.88003
G1 X92.625 Y44.434 E142.88893
G1 X92.592 Y44.4 E142.89051
G1 X117.407 Y44.4 E143.71586
G1 X117.426 Y44.383 E143.7167
G1 X117.629 Y44.168 E143.72654
G1 X117.77 Y44 E143.73383
G1 X92.228 Y44 E144.58336
G1 X92.202 Y43.969 E144.58471
G1 X92.026 Y43.734 E144.59448
G1 X91.938 Y43.6 E144.59981
G1 X118.062 Y43.6 E145.4687
G1 X118.172 Y43.427 E145.47551
G1 X118.298 Y43.2 E145.48415
G1 X91.702 Y43.2 E146.36874
G1 X91.574 Y42.935 E146.37852
G1 X91.518 Y42.8 E146.38339
G1 X118.482 Y42.8 E147.28021
G1 X118.556 Y42.614 E147.28687
G1 X118.625 Y42.4 E147.29435
G1 X91.372 Y42.4 E148.20079
G1 X91.37 Y42.392 E148.20106
G1 X91.284 Y42.076 E148.21195
G1 X91.268 Y42 E148.21454
G1 X118.732 Y42 E149.12799
G1 X118.784 Y41.733 E149.13704
G1 X118.8 Y41.6 E149.1415
G1 X91.2 Y41.6 E150.05948
G1 X91.186 Y41.492 E150.0631
G1 X91.165 Y41.2 E150.07283
G1 X118.835 Y41.2 E150.99314
G1 X118.846 Y41.032 E150.99874
G1 X118.85 Y40.913 E151.0027
G1 X118.85 Y40.8 E151.00646
G1 X91.15 Y40.8 E151.92777
G1 X91.15 Y40.4 E151.94107
G1 X118.85 Y40.4 E152.86238
G1 X118.85 Y40 E152.87568
G1 X91.15 Y40 E153.79699
G1 X91.15 Y39.6 E153.81029
G1 X118.85 Y39.6 E154.7316
G1 X118.85 Y39.2 E154.7449
G1 X91.15 Y39.2 E155.66621
G1 X91.15 Y38.852 E155.67778
G1 X91.152 Y38.8 E155.67951
G1 X118.847 Y38.8 E156.60065
G1 X118.841 Y38.675 E156.60481
G1 X118.819 Y38.4 E156.61399
G1 X91.176 Y38.4 E157.5334
G1 X91.18 Y38.326 E157.53586
G1 X91.221 Y38 E157.54679
G1 X118.783 Y38 E158.46351
G1 X118.752 Y37.6 E158.47685
G1 X91.249 Y37.6 E159.3916
G1 X91.266 Y37.308 E159.40133
G1 X91.258 Y37.2 E159.40494
G1 X118.74 Y37.2 E160.31899
G1 X118.765 Y36.8 E160.33232
G1 X91.232 Y36.8 E161.24807
G1 X91.222 Y36.639 E161.25344
G1 X91.19 Y36.4 E161.26146
G1 X118.808 Y36.4 E162.18004
G1 X118.82 Y36.311 E162.18302
G1 X118.839 Y36 E162.19339
G1 X91.155 Y36 E163.11416
G1 X91.15 Y35.811 E163.12045
G1 X91.15 Y35.6 E163.12747
G1 X118.85 Y35.6 E164.04877
G1 X118.85 Y35.2 E164.06207
G1 X91.15 Y35.2 E164.98338
G1 X91.15 Y34.8 E164.99668
G1 X118.85 Y34.8 E165.91799
G1 X118.85 Y34.4 E165.93129
G1 X91.15 Y34.4 E166.8526
G1 X91.15 Y34 E166.8659
G1 X118.85 Y34 E167.78721
G1 X118.85 Y33.703 E167.79709
G1 X118.846 Y33.6 E167.80052
G1 X91.153 Y33.6 E168.72159
G1 X91.154 Y33.542 E168.72352
G1 X91.176 Y33.2 E168.73492
G1 X118.815 Y33.2 E169.65419
G1 X118.789 Y32.921 E169.66351
G1 X118.769 Y32.8 E169.66759
G1 X91.224 Y32.8 E170.58374
G1 X91.275 Y32.534 E170.59275
G1 X91.311 Y32.4 E170.59737
G1 X118.69 Y32.4 E171.508
G1 X118.667 Y32.308 E171.51115
G1 X118.571 Y32 E171.52188
G1 X91.431 Y32 E172.42456
G1 X91.444 Y31.96 E172.42596
G1 X91.558 Y31.675 E172.43617
G1 X91.594 Y31.6 E172.43894
G1 X118.407 Y31.6 E173.33074
G1 X118.278 Y31.322 E173.34093
G1 X118.235 Y31.2 E173.34524
G1 X91.771 Y31.2 E174.22543
G1 X91.929 Y30.8 E174.23974
G1 X118.091 Y30.8 E175.10989
G1 X117.966 Y30.453 E175.12215
G1 X117.956 Y30.4 E175.12395
G1 X92.038 Y30.4 E175.98598
G1 X92.11 Y30.122 E175.99554
G1 X92.122 Y30 E175.99961
G1 X117.88 Y30 E176.85633
G1 X117.842 Y29.804 E176.86297
G1 X117.83 Y29.6 E176.86977
G1 X92.16 Y29.6 E177.72355
G1 X92.197 Y29.2 E177.73691
G1 X117.804 Y29.2 E178.58861
