;FLAVOR:Marlin
;TIME:545
;Filament used: 0.498235m
;Layer height: 0.3
;MINX:83.129
;MINY:21.93
;MINZ:0.3
;MAXX:126.871
;MAXY:65.672
;MAXZ:5.175
;Generated with Cura_SteamEngine 4.12.1
M82 ;absolute extrusion mode
G21                                        ; metric values 
G90                                        ; absolute positioning 
M82                                        ; set extruder to absolute mode 
M107                                       ; start with the fan off 
M140 S60           ; Start heating the bed 
G4 S60                                     ; wait 1 minute 
M104 S210         ; start heating the hot end 
M190 S60           ; wait for bed 
M109 S210         ; wait for hotend 
M300 S1000 P500                            ; BEEP heating done 
G28 X0 Y10 Z0                              ; move X/Y to min endstops 
M420 S1                                    ; Enable leveling 
M420 Z2.0                                  ; Set leveling fading height to 2 mm 
G0 Z0.15                                   ; lift nozzle a bit 
G92 E0                                     ; zero the extruded length 
G1 X50 E25 F500                            ; Extrude 25mm of filament in a 5cm line. 
G92 E0                                     ; zero the extruded length again 
G1 E-2 F500                                ; Retract a little 
G1 X120 F4000                              ; Quickly wipe away from the filament line`
G92 E0
G92 E0
G1 F1500 E-6
;LAYER_COUNT:17
;LAYER:0
M106 S76.5
M205 X10 Y10
G1 F600 Z0.375
G0 F6000 X84.888 Y35.174 Z0.375
M205 X8 Y8
;TYPE:SKIRT
G1 F600 Z0.3
G1 F1500 E0
G1 F1200 X85.004 Y34.937 E0.01316
G1 X85.321 Y34.326 E0.04751
G1 X86.199 Y32.687 E0.14027
G1 X86.563 Y32.029 E0.17779
G1 X87.087 Y31.246 E0.22479
G1 X87.557 Y30.658 E0.26235
G1 X88.765 Y29.186 E0.35735
G1 X89.205 Y28.666 E0.39133
G1 X89.648 Y28.2 E0.42341
G1 X89.898 Y27.977 E0.44012
G1 X90.456 Y27.508 E0.47649
G1 X91.885 Y26.335 E0.56872
G1 X92.468 Y25.871 E0.6059
G1 X93.25 Y25.35 E0.65278
G1 X93.911 Y24.986 E0.69042
G1 X95.545 Y24.111 E0.7829
G1 X96.226 Y23.762 E0.82107
G1 X97.084 Y23.409 E0.86736
G1 X97.796 Y23.183 E0.90463
G1 X99.628 Y22.628 E1.00013
G1 X100.297 Y22.437 E1.03484
G1 X101.209 Y22.257 E1.08122
G1 X101.971 Y22.172 E1.11947
G1 X103.829 Y21.99 E1.21261
G1 X104.532 Y21.931 E1.24781
G1 X105.461 Y21.93 E1.29415
G1 X106.193 Y21.991 E1.3308
G1 X108.098 Y22.18 E1.42631
G1 X108.81 Y22.26 E1.46205
G1 X109.73 Y22.442 E1.50884
G1 X110.432 Y22.645 E1.5453
G1 X112.264 Y23.202 E1.64083
G1 X112.934 Y23.416 E1.67592
G1 X113.627 Y23.689 E1.71308
G1 X113.864 Y23.805 E1.72624
G1 X114.475 Y24.122 E1.76059
G1 X116.114 Y25 E1.85335
G1 X116.772 Y25.364 E1.89087
G1 X117.555 Y25.888 E1.93787
G1 X118.143 Y26.358 E1.97542
G1 X119.612 Y27.563 E2.07022
G1 X120.135 Y28.005 E2.10438
G1 X120.805 Y28.676 E2.15169
G1 X121.293 Y29.257 E2.18954
G1 X122.466 Y30.686 E2.28178
G1 X122.93 Y31.269 E2.31895
G1 X123.451 Y32.051 E2.36583
G1 X123.815 Y32.712 E2.40348
G1 X124.688 Y34.342 E2.49573
G1 X125.032 Y35.012 E2.5333
G1 X125.259 Y35.515 E2.56083
G1 X125.398 Y35.903 E2.5814
G1 X125.618 Y36.597 E2.61772
G1 X126.172 Y38.426 E2.71306
G1 X126.363 Y39.094 E2.74772
G1 X126.544 Y40.01 E2.79431
G1 X126.629 Y40.772 E2.83256
G1 X126.811 Y42.629 E2.92565
G1 X126.87 Y43.332 E2.96084
G1 X126.871 Y44.26 E3.00714
G1 X126.81 Y44.994 E3.04389
G1 X126.62 Y46.906 E3.13975
G1 X126.539 Y47.62 E3.1756
G1 X126.357 Y48.538 E3.22229
G1 X126.156 Y49.231 E3.25829
G1 X125.601 Y51.058 E3.35355
G1 X125.387 Y51.73 E3.38873
G1 X125.112 Y52.428 E3.42616
G1 X124.996 Y52.665 E3.43933
G1 X124.679 Y53.276 E3.47367
G1 X123.806 Y54.905 E3.56588
G1 X123.453 Y55.546 E3.60238
G1 X122.909 Y56.361 E3.65127
G1 X122.443 Y56.944 E3.68851
G1 X121.23 Y58.422 E3.7839
G1 X120.782 Y58.95 E3.81844
G1 X120.117 Y59.612 E3.86526
G1 X119.544 Y60.094 E3.90261
G1 X118.119 Y61.264 E3.9946
G1 X117.537 Y61.728 E4.03173
G1 X116.751 Y62.252 E4.07886
G1 X116.088 Y62.618 E4.11665
G1 X114.459 Y63.488 E4.20878
G1 X113.777 Y63.838 E4.24703
G1 X112.916 Y64.193 E4.29349
G1 X112.204 Y64.419 E4.33076
G1 X110.372 Y64.974 E4.42626
G1 X109.703 Y65.165 E4.46097
G1 X108.791 Y65.345 E4.50735
G1 X108.029 Y65.43 E4.5456
G1 X106.172 Y65.612 E4.63869
G1 X105.47 Y65.671 E4.67383
G1 X104.541 Y65.672 E4.72018
G1 X103.807 Y65.611 E4.75693
G1 X101.9 Y65.422 E4.85254
G1 X101.189 Y65.342 E4.88823
G1 X100.27 Y65.16 E4.93497
G1 X99.568 Y64.957 E4.97143
G1 X97.736 Y64.4 E5.06696
G1 X97.066 Y64.186 E5.10205
G1 X96.373 Y63.913 E5.13921
G1 X96.136 Y63.797 E5.15237
G1 X95.525 Y63.48 E5.18671
G1 X93.886 Y62.602 E5.27948
G1 X93.228 Y62.238 E5.31699
G1 X92.445 Y61.714 E5.364
G1 X91.857 Y61.244 E5.40155
G1 X90.383 Y60.035 E5.49666
G1 X89.861 Y59.593 E5.53079
G1 X89.199 Y58.929 E5.57757
G1 X88.707 Y58.345 E5.61566
G1 X87.534 Y56.916 E5.7079
G1 X87.07 Y56.333 E5.74507
G1 X86.549 Y55.551 E5.79195
G1 X86.185 Y54.89 E5.8296
G1 X85.31 Y53.256 E5.92207
G1 X84.961 Y52.575 E5.96025
G1 X84.608 Y51.717 E6.00654
G1 X84.382 Y51.005 E6.04381
G1 X83.827 Y49.173 E6.13931
G1 X83.636 Y48.504 E6.17402
G1 X83.456 Y47.592 E6.22039
G1 X83.371 Y46.83 E6.25865
G1 X83.189 Y44.973 E6.35174
G1 X83.13 Y44.271 E6.38688
G1 X83.129 Y43.342 E6.43323
G1 X83.19 Y42.608 E6.46998
G1 X83.379 Y40.701 E6.56558
G1 X83.459 Y39.99 E6.60128
G1 X83.641 Y39.071 E6.64802
G1 X83.844 Y38.369 E6.68448
G1 X84.401 Y36.537 E6.78001
G1 X84.615 Y35.867 E6.8151
G1 X84.888 Y35.174 E6.85226
M205 X10 Y10
G0 F6000 X85.25 Y35.345
M205 X8 Y8
G1 F1200 X85.359 Y35.121 E6.86468
G1 X85.674 Y34.515 E6.89876
G1 X86.549 Y32.881 E6.99123
G1 X86.913 Y32.223 E7.02875
G1 X87.399 Y31.495 E7.07242
G1 X87.866 Y30.912 E7.10968
G1 X89.07 Y29.444 E7.20441
G1 X89.51 Y28.924 E7.23839
G1 X89.923 Y28.49 E7.26828
G1 X90.155 Y28.283 E7.28379
G1 X90.71 Y27.817 E7.31995
G1 X92.134 Y26.648 E7.41186
G1 X92.717 Y26.184 E7.44904
G1 X93.443 Y25.7 E7.49257
G1 X94.1 Y25.338 E7.52999
G1 X95.727 Y24.467 E7.62206
G1 X96.408 Y24.118 E7.66024
G1 X97.205 Y23.79 E7.70324
G1 X97.912 Y23.566 E7.74024
G1 X99.737 Y23.013 E7.83538
G1 X100.406 Y22.822 E7.87009
G1 X101.254 Y22.654 E7.91322
G1 X102.01 Y22.57 E7.95116
G1 X103.862 Y22.388 E8.04401
G1 X104.565 Y22.329 E8.0792
G1 X105.428 Y22.329 E8.12226
G1 X106.154 Y22.389 E8.1586
G1 X108.054 Y22.578 E8.25386
G1 X108.766 Y22.658 E8.28961
G1 X109.62 Y22.827 E8.33304
G1 X110.316 Y23.027 E8.36917
G1 X112.142 Y23.583 E8.4644
G1 X112.812 Y23.797 E8.49949
G1 X113.456 Y24.051 E8.53402
G1 X113.68 Y24.16 E8.54645
G1 X114.286 Y24.475 E8.58053
G1 X115.92 Y25.35 E8.673
G1 X116.578 Y25.714 E8.71052
G1 X117.306 Y26.2 E8.75419
G1 X117.889 Y26.667 E8.79145
G1 X119.354 Y27.868 E8.88596
G1 X119.877 Y28.31 E8.92013
G1 X120.499 Y28.934 E8.96408
G1 X120.984 Y29.511 E9.00169
G1 X122.153 Y30.935 E9.0936
G1 X122.617 Y31.518 E9.13078
G1 X123.101 Y32.244 E9.17431
G1 X123.463 Y32.901 E9.21173
G1 X124.332 Y34.525 E9.30362
G1 X124.676 Y35.195 E9.3412
G1 X124.888 Y35.664 E9.36688
G1 X125.017 Y36.024 E9.38596
G1 X125.235 Y36.713 E9.42201
G1 X125.788 Y38.536 E9.51705
G1 X125.979 Y39.204 E9.55171
G1 X126.147 Y40.055 E9.59499
G1 X126.231 Y40.811 E9.63294
G1 X126.413 Y42.662 E9.72573
G1 X126.472 Y43.365 E9.76093
G1 X126.472 Y44.227 E9.80393
G1 X126.412 Y44.954 E9.84033
G1 X126.223 Y46.861 E9.93593
G1 X126.142 Y47.575 E9.97178
G1 X125.972 Y48.427 E10.01513
G1 X125.774 Y49.115 E10.05084
G1 X125.22 Y50.937 E10.14585
G1 X125.006 Y51.609 E10.18104
G1 X124.75 Y52.257 E10.2158
G1 X124.641 Y52.481 E10.22823
G1 X124.326 Y53.087 E10.2623
G1 X123.456 Y54.712 E10.35426
G1 X123.103 Y55.353 E10.39077
G1 X122.597 Y56.112 E10.43628
G1 X122.134 Y56.69 E10.47323
G1 X120.925 Y58.163 E10.5683
G1 X120.477 Y58.691 E10.60285
G1 X119.86 Y59.306 E10.64631
G1 X119.29 Y59.785 E10.68345
G1 X117.87 Y60.951 E10.77512
G1 X117.288 Y61.415 E10.81225
G1 X116.558 Y61.902 E10.85603
G1 X115.899 Y62.265 E10.89357
G1 X114.276 Y63.132 E10.98537
G1 X113.594 Y63.482 E11.02362
G1 X112.795 Y63.812 E11.06674
G1 X112.088 Y64.036 E11.10374
G1 X110.263 Y64.589 E11.19888
G1 X109.594 Y64.78 E11.23359
G1 X108.746 Y64.948 E11.27672
G1 X107.99 Y65.032 E11.31467
G1 X106.139 Y65.214 E11.40746
G1 X105.437 Y65.273 E11.44261
G1 X104.574 Y65.273 E11.48566
G1 X103.847 Y65.213 E11.52206
G1 X101.945 Y65.024 E11.61742
G1 X101.234 Y64.944 E11.65311
G1 X100.38 Y64.775 E11.69654
G1 X99.684 Y64.575 E11.73267
G1 X97.858 Y64.019 E11.8279
G1 X97.188 Y63.805 E11.86299
G1 X96.544 Y63.551 E11.89753
G1 X96.32 Y63.442 E11.90996
G1 X95.714 Y63.127 E11.94403
G1 X94.08 Y62.252 E12.03651
G1 X93.422 Y61.888 E12.07402
G1 X92.694 Y61.402 E12.11769
G1 X92.111 Y60.935 E12.15496
G1 X90.642 Y59.729 E12.24978
G1 X90.12 Y59.287 E12.28391
G1 X89.504 Y58.671 E12.32737
G1 X89.016 Y58.091 E12.36518
G1 X87.847 Y56.667 E12.4571
G1 X87.383 Y56.084 E12.49427
G1 X86.899 Y55.358 E12.53781
G1 X86.537 Y54.701 E12.57523
G1 X85.666 Y53.074 E12.6673
G1 X85.317 Y52.393 E12.70548
G1 X84.989 Y51.596 E12.74848
G1 X84.765 Y50.889 E12.78548
G1 X84.212 Y49.064 E12.88061
G1 X84.021 Y48.395 E12.91532
G1 X83.853 Y47.547 E12.95845
G1 X83.769 Y46.791 E12.9964
G1 X83.587 Y44.94 E13.08919
G1 X83.528 Y44.238 E13.12434
G1 X83.528 Y43.375 E13.1674
G1 X83.588 Y42.648 E13.20379
G1 X83.777 Y40.746 E13.29915
G1 X83.857 Y40.035 E13.33484
G1 X84.026 Y39.181 E13.37828
G1 X84.226 Y38.485 E13.4144
G1 X84.782 Y36.659 E13.50963
G1 X84.996 Y35.989 E13.54472
G1 X85.25 Y35.345 E13.57926
M205 X10 Y10
G1 F1500 E7.57926
G1 F600 Z0.375
;MESH:rotation_blocks.stl
G0 F6000 X107.907 Y58.417 Z0.375
M205 X8 Y8
;TYPE:WALL-INNER
G1 F600 Z0.3
G1 F1500 E13.57926
G1 F1200 X110.703 Y57.569 E13.72503
G1 X111.575 Y57.104 E13.77433
G1 X111.185 Y56.379 E13.8154
G1 X109.595 Y52.541 E14.02266
G1 X110.506 Y52.032 E14.07473
G1 X112.002 Y50.803 E14.17132
G1 X113.231 Y49.307 E14.26791
G1 X113.741 Y48.395 E14.32004
G1 X117.578 Y49.987 E14.52729
G1 X118.303 Y50.378 E14.56839
G1 X118.768 Y49.503 E14.61782
G1 X119.616 Y46.708 E14.76354
G1 X119.903 Y43.801 E14.90928
G1 X119.616 Y40.894 E15.05502
G1 X118.768 Y38.098 E15.20078
G1 X118.303 Y37.226 E15.25009
G1 X117.579 Y37.616 E15.29111
G1 X113.74 Y39.206 E15.49842
G1 X113.231 Y38.295 E15.55048
G1 X112.002 Y36.799 E15.64708
G1 X110.506 Y35.57 E15.74367
G1 X109.595 Y35.061 E15.79573
G1 X111.182 Y31.231 E16.00256
G1 X111.575 Y30.496 E16.04415
G1 X110.702 Y30.032 E16.09347
G1 X107.907 Y29.185 E16.23918
G1 X105 Y28.898 E16.38491
G1 X102.093 Y29.185 E16.53065
G1 X99.298 Y30.032 E16.67635
G1 X98.425 Y30.496 E16.72568
G1 X98.818 Y31.231 E16.76726
G1 X100.405 Y35.061 E16.97409
G1 X99.494 Y35.57 E17.02616
G1 X97.998 Y36.799 E17.12275
G1 X96.769 Y38.295 E17.21934
G1 X96.259 Y39.207 E17.27147
G1 X92.422 Y37.615 E17.47872
G1 X91.697 Y37.224 E17.51982
G1 X91.232 Y38.099 E17.56925
G1 X90.384 Y40.894 E17.71497
G1 X90.097 Y43.801 E17.86071
G1 X90.384 Y46.708 E18.00644
G1 X91.232 Y49.504 E18.15221
G1 X91.697 Y50.376 E18.20152
G1 X92.421 Y49.986 E18.24254
G1 X96.26 Y48.396 E18.44985
G1 X96.769 Y49.307 E18.50191
G1 X97.998 Y50.803 E18.5985
G1 X99.494 Y52.032 E18.6951
G1 X100.406 Y52.542 E18.74723
G1 X98.814 Y56.379 E18.95448
G1 X98.423 Y57.104 E18.99557
G1 X99.298 Y57.569 E19.04501
G1 X102.093 Y58.417 E19.19073
G1 X105 Y58.704 E19.33647
G1 X107.907 Y58.417 E19.4822
M205 X10 Y10
G0 F6000 X107.829 Y58.023
M205 X8 Y8
;TYPE:WALL-OUTER
G1 F1200 X110.549 Y57.198 E19.62401
G1 X111.033 Y56.94 E19.65137
G1 X110.82 Y56.543 E19.67385
G1 X109.089 Y52.366 E19.89942
G1 X110.28 Y51.7 E19.9675
G1 X111.718 Y50.519 E20.06034
G1 X112.899 Y49.081 E20.15318
G1 X113.565 Y47.89 E20.22125
G1 X117.755 Y49.628 E20.44756
G1 X118.139 Y49.835 E20.46933
G1 X118.397 Y49.35 E20.49674
G1 X119.222 Y46.63 E20.63854
G1 X119.501 Y43.801 E20.78037
G1 X119.222 Y40.972 E20.92219
G1 X118.397 Y38.252 E21.064
G1 X118.139 Y37.768 E21.09136
G1 X117.743 Y37.981 E21.11379
G1 X113.565 Y39.712 E21.33941
G1 X112.899 Y38.521 E21.40749
G1 X111.718 Y37.083 E21.50033
G1 X110.28 Y35.902 E21.59317
G1 X109.089 Y35.236 E21.66124
G1 X110.82 Y31.059 E21.88682
G1 X111.033 Y30.661 E21.90934
G1 X110.549 Y30.404 E21.93668
G1 X107.829 Y29.579 E22.07849
G1 X105 Y29.3 E22.22031
G1 X102.171 Y29.579 E22.36214
G1 X99.451 Y30.404 E22.50394
G1 X98.967 Y30.661 E22.53128
G1 X99.18 Y31.059 E22.5538
G1 X100.911 Y35.236 E22.77938
G1 X99.72 Y35.902 E22.84746
G1 X98.282 Y37.083 E22.94029
G1 X97.101 Y38.521 E23.03313
G1 X96.435 Y39.712 E23.10121
G1 X92.245 Y37.974 E23.32752
G1 X91.861 Y37.767 E23.34928
G1 X91.603 Y38.252 E23.37669
G1 X90.778 Y40.972 E23.5185
G1 X90.499 Y43.801 E23.66032
G1 X90.778 Y46.63 E23.80214
G1 X91.603 Y49.35 E23.94395
G1 X91.861 Y49.834 E23.97131
G1 X92.257 Y49.621 E23.99375
G1 X96.435 Y47.89 E24.21937
G1 X97.101 Y49.081 E24.28745
G1 X98.282 Y50.519 E24.38028
G1 X99.72 Y51.7 E24.47312
G1 X100.911 Y52.366 E24.5412
G1 X99.173 Y56.556 E24.76751
G1 X98.966 Y56.94 E24.78927
G1 X99.451 Y57.198 E24.81668
G1 X102.171 Y58.023 E24.95849
G1 X105 Y58.302 E25.10031
G1 X107.829 Y58.023 E25.24213
M205 X10 Y10
G0 F6000 X108.02 Y57.965
G0 X108.147 Y58.387
G1 F1500 E19.24213
G1 F600 Z0.375
G0 F6000 X113.915 Y38.7 Z0.375
M205 X8 Y8
;TYPE:WALL-INNER
G1 F600 Z0.3
G1 F1500 E25.24213
G1 F1200 X113.563 Y38.069 E25.27818
G1 X112.286 Y36.515 E25.37853
G1 X110.732 Y35.238 E25.47888
G1 X110.101 Y34.886 E25.51493
G1 X111.544 Y31.403 E25.70302
G1 X112.111 Y30.343 E25.76299
G1 X113.497 Y31.085 E25.84142
G1 X115.816 Y32.985 E25.99099
G1 X117.716 Y35.304 E26.14056
G1 X118.457 Y36.688 E26.21888
G1 X117.41 Y37.252 E26.27822
G1 X113.915 Y38.7 E26.46695
M205 X10 Y10
G1 F1500 E20.46695
G1 F600 Z0.375
G0 F6000 X96.083 Y38.702 Z0.375
M205 X8 Y8
G1 F600 Z0.3
G1 F1500 E26.46695
G1 F1200 X92.599 Y37.256 E26.65515
G1 X91.544 Y36.687 E26.71495
G1 X92.284 Y35.304 E26.7932
G1 X94.184 Y32.985 E26.94277
G1 X96.503 Y31.085 E27.09234
G1 X97.889 Y30.343 E27.17077
G1 X98.456 Y31.403 E27.23075
G1 X99.899 Y34.886 E27.41884
G1 X99.268 Y35.238 E27.45489
G1 X97.714 Y36.515 E27.55523
G1 X96.437 Y38.069 E27.65558
G1 X96.083 Y38.702 E27.69177
M205 X10 Y10
G1 F1500 E21.69177
G1 F600 Z0.375
G0 F6000 X98.455 Y56.202 Z0.375
M205 X8 Y8
G1 F600 Z0.3
G1 F1500 E27.69177
G1 F1200 X97.886 Y57.257 E27.75157
G1 X96.503 Y56.517 E27.82982
G1 X94.184 Y54.617 E27.97939
G1 X92.284 Y52.298 E28.12896
G1 X91.543 Y50.914 E28.20728
G1 X92.59 Y50.35 E28.26661
G1 X96.085 Y48.902 E28.45535
G1 X96.437 Y49.533 E28.4914
G1 X97.714 Y51.087 E28.59175
G1 X99.268 Y52.364 E28.6921
G1 X99.901 Y52.718 E28.72828
G1 X98.455 Y56.202 E28.91647
M205 X10 Y10
G1 F1500 E22.91647
G1 F600 Z0.375
G0 F6000 X112.112 Y57.259 Z0.375
M205 X8 Y8
G1 F600 Z0.3
G1 F1500 E28.91647
G1 F1200 X111.55 Y56.215 E28.97563
G1 X110.101 Y52.716 E29.16457
G1 X110.732 Y52.364 E29.20062
G1 X112.286 Y51.087 E29.30096
G1 X113.563 Y49.533 E29.40131
G1 X113.917 Y48.9 E29.4375
G1 X117.401 Y50.346 E29.62569
G1 X118.456 Y50.915 E29.68549
G1 X117.716 Y52.298 E29.76374
G1 X115.816 Y54.617 E29.91331
G1 X113.497 Y56.517 E30.06288
G1 X112.112 Y57.259 E30.14127
M205 X10 Y10
G1 F1500 E24.14127
G1 F600 Z0.375
G0 F6000 X108.063 Y59.197 Z0.375
M205 X8 Y8
G1 F600 Z0.3
G1 F1500 E30.14127
G1 F1200 X105 Y59.498 E30.29482
G1 X101.937 Y59.197 E30.44837
G1 X98.993 Y58.304 E30.60186
G1 X96.281 Y56.853 E30.75531
G1 X93.9 Y54.901 E30.90891
G1 X91.948 Y52.52 E31.06252
G1 X90.497 Y49.808 E31.21597
G1 X89.604 Y46.864 E31.36945
G1 X89.303 Y43.801 E31.523
G1 X89.604 Y40.738 E31.67655
G1 X90.497 Y37.794 E31.83004
G1 X91.948 Y35.082 E31.98349
G1 X93.9 Y32.701 E32.13709
G1 X96.281 Y30.749 E32.2907
G1 X98.993 Y29.298 E32.44415
G1 X101.937 Y28.405 E32.59764
G1 X105 Y28.104 E32.75119
G1 X108.063 Y28.405 E32.90474
G1 X111.007 Y29.298 E33.05822
G1 X113.719 Y30.749 E33.21167
G1 X116.1 Y32.701 E33.36528
G1 X118.052 Y35.082 E33.51888
G1 X119.503 Y37.794 E33.67233
G1 X120.396 Y40.738 E33.82582
G1 X120.697 Y43.801 E33.97937
G1 X120.396 Y46.864 E34.13292
G1 X119.503 Y49.808 E34.2864
G1 X118.052 Y52.52 E34.43985
G1 X116.1 Y54.901 E34.59346
G1 X113.719 Y56.853 E34.74706
G1 X111.007 Y58.304 E34.90052
G1 X108.063 Y59.197 E35.054
M205 X10 Y10
G0 F6000 X108.143 Y59.591
M205 X8 Y8
;TYPE:WALL-OUTER
G1 F1200 X105 Y59.9 E35.21156
G1 X101.857 Y59.591 E35.36912
G1 X98.838 Y58.675 E35.52652
