;FLAVOR:Marlin
;TIME:1672
;Filament used: 1.9968m
;Layer height: 0.3
;MINX:80.419
;MINY:21.732
;MINZ:0.3
;MAXX:129.571
;MAXY:70.893
;MAXZ:17.475
;Generated with Cura_SteamEngine 4.12.1
M82 ;absolute extrusion mode
G21                                        ; metric values 
G90                                        ; absolute positioning 
M82                                        ; set extruder to absolute mode 
M107                                       ; start with the fan off 
M140 S60           ; Start heating the bed 
G4 S60                                     ; wait 1 minute 
M104 S210         ; start heating the hot end 
M190 S60           ; wait for bed 
M109 S210         ; wait for hotend 
M300 S1000 P500                            ; BEEP heating done 
G28 X0 Y10 Z0                              ; move X/Y to min endstops 
M420 S1                                    ; Enable leveling 
M420 Z2.0                                  ; Set leveling fading height to 2 mm 
G0 Z0.15                                   ; lift nozzle a bit 
G92 E0                                     ; zero the extruded length 
G1 X50 E25 F500                            ; Extrude 25mm of filament in a 5cm line. 
G92 E0                                     ; zero the extruded length again 
G1 E-2 F500                                ; Retract a little 
G1 X120 F4000                              ; Quickly wipe away from the filament line`
G92 E0
G92 E0
G1 F1500 E-6
;LAYER_COUNT:58
;LAYER:0
M106 S76.5
M205 X10 Y10
G1 F600 Z0.375
G0 F6000 X82.374 Y36.691 Z0.375
M205 X8 Y8
;TYPE:SKIRT
G1 F600 Z0.3
G1 F1500 E0
G1 F1200 X82.498 Y36.436 E0.01415
G1 X82.816 Y35.824 E0.04856
G1 X83.975 Y33.658 E0.17111
G1 X84.318 Y33.04 E0.20638
G1 X84.723 Y32.412 E0.24366
G1 X84.877 Y32.211 E0.25629
G1 X85.249 Y31.746 E0.286
G1 X86.864 Y29.779 E0.41297
G1 X87.264 Y29.305 E0.44392
G1 X87.656 Y28.887 E0.47251
G1 X88.011 Y28.561 E0.49655
G1 X88.468 Y28.175 E0.5264
G1 X90.422 Y26.572 E0.65249
G1 X90.969 Y26.137 E0.68736
G1 X91.742 Y25.621 E0.73372
G1 X92.391 Y25.262 E0.77073
G1 X94.558 Y24.105 E0.89328
G1 X95.16 Y23.794 E0.92709
G1 X96.027 Y23.434 E0.97392
G1 X96.746 Y23.205 E1.01157
G1 X99.086 Y22.496 E1.13355
G1 X99.749 Y22.306 E1.16796
G1 X100.511 Y22.144 E1.20683
G1 X100.731 Y22.115 E1.2179
G1 X101.37 Y22.043 E1.24998
G1 X103.873 Y21.797 E1.37546
G1 X104.531 Y21.742 E1.4084
G1 X105.316 Y21.732 E1.44757
G1 X105.543 Y21.747 E1.45892
G1 X106.178 Y21.802 E1.49072
G1 X108.625 Y22.043 E1.61339
G1 X109.326 Y22.122 E1.64858
G1 X109.932 Y22.225 E1.67925
G1 X110.279 Y22.312 E1.6971
G1 X110.978 Y22.514 E1.7334
G1 X113.295 Y23.218 E1.85421
G1 X113.956 Y23.428 E1.88881
G1 X114.622 Y23.687 E1.92446
G1 X114.877 Y23.811 E1.93861
G1 X115.489 Y24.129 E1.97302
G1 X117.657 Y25.289 E2.09569
G1 X118.276 Y25.633 E2.13102
G1 X118.887 Y26.026 E2.16727
G1 X119.102 Y26.19 E2.18076
G1 X119.567 Y26.562 E2.21047
G1 X121.534 Y28.177 E2.33744
G1 X122.008 Y28.577 E2.36838
G1 X122.426 Y28.969 E2.39697
G1 X122.752 Y29.324 E2.42102
G1 X123.139 Y29.781 E2.45089
G1 X124.737 Y31.731 E2.57667
G1 X125.172 Y32.277 E2.6115
G1 X125.691 Y33.054 E2.65812
G1 X126.051 Y33.704 E2.69519
G1 X127.208 Y35.871 E2.81775
G1 X127.519 Y36.473 E2.85155
G1 X127.879 Y37.342 E2.89848
G1 X128.107 Y38.059 E2.93601
G1 X128.817 Y40.399 E3.05801
G1 X129.007 Y41.062 E3.09242
G1 X129.169 Y41.824 E3.13129
G1 X129.198 Y42.044 E3.14236
G1 X129.27 Y42.683 E3.17444
G1 X129.516 Y45.187 E3.29997
G1 X129.571 Y45.848 E3.33306
G1 X129.57 Y46.782 E3.37966
G1 X129.502 Y47.585 E3.41986
G1 X129.271 Y49.922 E3.53702
G1 X129.187 Y50.659 E3.57403
G1 X129.006 Y51.568 E3.62027
G1 X128.806 Y52.263 E3.65635
G1 X128.097 Y54.602 E3.77829
G1 X127.881 Y55.279 E3.81374
G1 X127.524 Y56.142 E3.86033
G1 X127.165 Y56.837 E3.89936
G1 X126.031 Y58.957 E4.01931
G1 X125.699 Y59.558 E4.05356
G1 X125.363 Y60.092 E4.08504
G1 X125.123 Y60.415 E4.10512
G1 X124.751 Y60.88 E4.13482
G1 X123.136 Y62.847 E4.2618
G1 X122.736 Y63.321 E4.29274
G1 X122.344 Y63.739 E4.32133
G1 X121.989 Y64.065 E4.34538
G1 X121.532 Y64.452 E4.37525
G1 X119.58 Y66.052 E4.50117
G1 X119.032 Y66.488 E4.53611
G1 X118.256 Y67.006 E4.58266
G1 X117.623 Y67.356 E4.61875
G1 X115.451 Y68.516 E4.74159
G1 X114.844 Y68.829 E4.77566
G1 X114.259 Y69.09 E4.80762
G1 X113.94 Y69.202 E4.82449
G1 X113.255 Y69.42 E4.86035
G1 X110.889 Y70.137 E4.9837
G1 X110.244 Y70.322 E5.01717
G1 X109.332 Y70.503 E5.06356
G1 X108.606 Y70.585 E5.10001
G1 X106.126 Y70.829 E5.22434
G1 X105.465 Y70.884 E5.25743
G1 X104.672 Y70.893 E5.29699
G1 X104.458 Y70.879 E5.30769
G1 X103.82 Y70.824 E5.33964
G1 X101.375 Y70.583 E5.46221
G1 X100.674 Y70.504 E5.49741
G1 X99.971 Y70.379 E5.53303
G1 X99.707 Y70.31 E5.54664
G1 X99.065 Y70.124 E5.57999
G1 X96.693 Y69.403 E5.70368
G1 X96.024 Y69.189 E5.73872
G1 X95.353 Y68.926 E5.77467
G1 X95.088 Y68.796 E5.7894
G1 X94.568 Y68.526 E5.81863
G1 X92.36 Y67.345 E5.94356
G1 X91.738 Y67.001 E5.97902
G1 X90.964 Y66.485 E6.02543
G1 X90.363 Y66.007 E6.06374
G1 X88.462 Y64.445 E6.18649
G1 X87.99 Y64.046 E6.21732
G1 X87.735 Y63.817 E6.23442
G1 X87.278 Y63.336 E6.26752
G1 X86.778 Y62.743 E6.30622
G1 X85.278 Y60.914 E6.42423
G1 X84.821 Y60.338 E6.46092
G1 X84.308 Y59.568 E6.50708
G1 X83.959 Y58.936 E6.5431
G1 X82.784 Y56.74 E6.66735
G1 X82.478 Y56.148 E6.7006
G1 X82.116 Y55.274 E6.7478
G1 X81.895 Y54.576 E6.78432
G1 X81.185 Y52.233 E6.90646
G1 X80.996 Y51.574 E6.94067
G1 X80.863 Y50.998 E6.97016
G1 X80.804 Y50.596 E6.99043
G1 X80.723 Y49.87 E7.02688
G1 X80.49 Y47.5 E7.14569
G1 X80.43 Y46.791 E7.18118
G1 X80.419 Y45.995 E7.2209
G1 X80.434 Y45.777 E7.2318
G1 X80.491 Y45.111 E7.26515
G1 X80.73 Y42.688 E7.38662
G1 X80.809 Y41.987 E7.42182
G1 X80.989 Y41.078 E7.46805
G1 X81.201 Y40.336 E7.50655
G1 X81.904 Y38.022 E7.6272
G1 X82.114 Y37.36 E7.66185
G1 X82.374 Y36.691 E7.69766
M205 X10 Y10
G0 F6000 X82.737 Y36.86
M205 X8 Y8
G1 F1200 X82.854 Y36.62 E7.71098
G1 X83.168 Y36.013 E7.74508
G1 X84.324 Y33.853 E7.8673
G1 X84.667 Y33.235 E7.90256
G1 X85.044 Y32.651 E7.93724
G1 X85.19 Y32.461 E7.9492
G1 X85.558 Y32 E7.97863
G1 X87.17 Y30.037 E8.10535
G1 X87.57 Y29.563 E8.13629
G1 X87.934 Y29.175 E8.16284
G1 X88.269 Y28.866 E8.18557
G1 X88.722 Y28.484 E8.21514
G1 X90.671 Y26.885 E8.34091
G1 X91.218 Y26.45 E8.37578
G1 X91.936 Y25.971 E8.41884
G1 X92.58 Y25.615 E8.45555
G1 X94.741 Y24.46 E8.5778
G1 X95.343 Y24.149 E8.6116
G1 X96.148 Y23.815 E8.65508
G1 X96.862 Y23.588 E8.69246
G1 X99.196 Y22.88 E8.81414
G1 X99.859 Y22.69 E8.84855
G1 X100.567 Y22.54 E8.88466
G1 X100.776 Y22.512 E8.89518
G1 X101.409 Y22.441 E8.92696
G1 X103.906 Y22.196 E9.05213
G1 X104.564 Y22.141 E9.08507
G1 X105.294 Y22.131 E9.1215
G1 X105.509 Y22.146 E9.13225
G1 X106.139 Y22.2 E9.1638
G1 X108.58 Y22.441 E9.28617
G1 X109.281 Y22.52 E9.32136
G1 X109.844 Y22.615 E9.34985
G1 X110.168 Y22.697 E9.36652
G1 X110.862 Y22.897 E9.40256
G1 X113.173 Y23.599 E9.52305
G1 X113.834 Y23.809 E9.55766
G1 X114.453 Y24.05 E9.5908
G1 X114.693 Y24.167 E9.60412
G1 X115.3 Y24.481 E9.63821
G1 X117.463 Y25.639 E9.76062
G1 X118.082 Y25.983 E9.79595
G1 X118.649 Y26.348 E9.82959
G1 X118.852 Y26.503 E9.84233
G1 X119.313 Y26.871 E9.87176
G1 X121.276 Y28.483 E9.99848
G1 X121.75 Y28.883 E10.02943
G1 X122.138 Y29.247 E10.05597
G1 X122.447 Y29.582 E10.07871
G1 X122.829 Y30.035 E10.10827
G1 X124.424 Y31.98 E10.23376
G1 X124.859 Y32.526 E10.26859
G1 X125.341 Y33.247 E10.31186
G1 X125.698 Y33.893 E10.34868
G1 X126.853 Y36.054 E10.47093
G1 X127.164 Y36.656 E10.50473
G1 X127.498 Y37.463 E10.54831
G1 X127.725 Y38.175 E10.58559
G1 X128.433 Y40.509 E10.70727
G1 X128.623 Y41.172 E10.74168
G1 X128.773 Y41.88 E10.77779
G1 X128.801 Y42.089 E10.78831
G1 X128.872 Y42.722 E10.82009
G1 X129.117 Y45.22 E10.94531
G1 X129.172 Y45.881 E10.9784
G1 X129.172 Y46.749 E11.02171
G1 X129.104 Y47.546 E11.06161
G1 X128.874 Y49.877 E11.17847
G1 X128.79 Y50.614 E11.21548
G1 X128.622 Y51.458 E11.25841
G1 X128.424 Y52.147 E11.29418
G1 X127.716 Y54.481 E11.41586
G1 X127.5 Y55.158 E11.45131
G1 X127.168 Y55.959 E11.49457
G1 X126.812 Y56.648 E11.53326
G1 X125.681 Y58.763 E11.65292
G1 X125.349 Y59.364 E11.68718
G1 X125.037 Y59.861 E11.71645
G1 X124.81 Y60.165 E11.73538
G1 X124.442 Y60.626 E11.76481
G1 X122.83 Y62.589 E11.89153
G1 X122.43 Y63.063 E11.92248
G1 X122.066 Y63.451 E11.94902
G1 X121.731 Y63.76 E11.97176
G1 X121.278 Y64.142 E12.00132
G1 X119.331 Y65.739 E12.12695
G1 X118.783 Y66.175 E12.16189
G1 X118.063 Y66.656 E12.20509
G1 X117.434 Y67.003 E12.24093
G1 X115.267 Y68.161 E12.36351
G1 X114.66 Y68.474 E12.39758
G1 X114.117 Y68.715 E12.42722
G1 X113.819 Y68.821 E12.443
G1 X113.138 Y69.037 E12.47864
G1 X110.779 Y69.752 E12.60162
G1 X110.134 Y69.937 E12.6351
G1 X109.287 Y70.106 E12.67819
G1 X108.567 Y70.187 E12.71434
G1 X106.093 Y70.43 E12.83836
G1 X105.432 Y70.485 E12.87145
G1 X104.696 Y70.494 E12.90817
G1 X104.492 Y70.48 E12.91837
G1 X103.86 Y70.426 E12.95002
G1 X101.42 Y70.185 E13.07234
G1 X100.719 Y70.106 E13.10754
G1 X100.066 Y69.99 E13.14063
G1 X99.818 Y69.925 E13.15342
G1 X99.181 Y69.741 E13.1865
G1 X96.815 Y69.022 E13.30987
G1 X96.146 Y68.808 E13.34491
G1 X95.523 Y68.563 E13.37831
G1 X95.272 Y68.441 E13.39223
G1 X94.756 Y68.173 E13.42124
G1 X92.553 Y66.995 E13.54587
G1 X91.931 Y66.651 E13.58134
G1 X91.213 Y66.172 E13.6244
G1 X90.617 Y65.698 E13.66239
G1 X88.72 Y64.139 E13.78489
G1 X88.248 Y63.74 E13.81572
G1 X88.008 Y63.525 E13.8318
G1 X87.584 Y63.078 E13.86254
G1 X87.087 Y62.489 E13.90099
G1 X85.591 Y60.665 E14.01868
G1 X85.134 Y60.089 E14.05536
G1 X84.658 Y59.374 E14.09821
G1 X84.312 Y58.747 E14.13394
G1 X83.14 Y56.557 E14.25786
G1 X82.834 Y55.965 E14.29111
G1 X82.497 Y55.152 E14.33502
G1 X82.278 Y54.46 E14.37123
G1 X81.57 Y52.123 E14.49306
G1 X81.381 Y51.464 E14.52726
G1 X81.257 Y50.929 E14.55466
G1 X81.201 Y50.552 E14.57367
G1 X81.121 Y49.831 E14.60986
G1 X80.889 Y47.466 E14.72842
G1 X80.829 Y46.757 E14.76392
G1 X80.819 Y46.018 E14.80079
G1 X80.833 Y45.811 E14.81114
G1 X80.889 Y45.15 E14.84424
G1 X81.128 Y42.733 E14.96541
G1 X81.207 Y42.032 E15.00061
G1 X81.373 Y41.187 E15.04357
G1 X81.584 Y40.452 E15.08172
G1 X82.285 Y38.143 E15.20211
G1 X82.495 Y37.481 E15.23676
G1 X82.737 Y36.86 E15.27001
M205 X10 Y10
G1 F1500 E9.27001
G1 F600 Z0.375
;MESH:rotational_cylinder_groove_runner.stl
G0 F6000 X104.394 Y63.856 Z0.375
M205 X8 Y8
;TYPE:WALL-INNER
G1 F600 Z0.3
G1 F1500 E15.27001
G1 F1200 X105 Y63.916 E15.30039
G1 X105.606 Y63.856 E15.33077
G1 X106.188 Y63.679 E15.36112
G1 X106.724 Y63.392 E15.39145
G1 X107.194 Y63.006 E15.4218
G1 X107.58 Y62.538 E15.45206
G1 X107.867 Y62 E15.48248
G1 X108.043 Y61.417 E15.51287
G1 X108.099 Y60.851 E15.54124
G1 X108.422 Y49.364 E16.11456
G1 X108.827 Y48.87 E16.14643
G1 X109.253 Y48.074 E16.19147
G1 X109.514 Y47.21 E16.2365
G1 X109.603 Y46.313 E16.28147
G1 X109.514 Y45.415 E16.32649
G1 X109.253 Y44.551 E16.37152
G1 X108.827 Y43.755 E16.41656
G1 X108.422 Y43.261 E16.44843
G1 X108.099 Y31.775 E17.0217
G1 X108.043 Y31.208 E17.05012
G1 X107.867 Y30.625 E17.0805
G1 X107.58 Y30.089 E17.11084
G1 X107.194 Y29.619 E17.14118
G1 X106.724 Y29.233 E17.17152
G1 X106.188 Y28.946 E17.20186
G1 X105.605 Y28.77 E17.23224
G1 X105 Y28.71 E17.26257
G1 X104.395 Y28.77 E17.2929
G1 X103.812 Y28.946 E17.32328
G1 X103.276 Y29.233 E17.35362
G1 X102.806 Y29.619 E17.38396
G1 X102.42 Y30.089 E17.4143
G1 X102.133 Y30.625 E17.44464
G1 X101.957 Y31.208 E17.47502
G1 X101.901 Y31.775 E17.50344
G1 X101.578 Y43.261 E18.07671
G1 X101.173 Y43.755 E18.10858
G1 X100.747 Y44.551 E18.15362
G1 X100.486 Y45.415 E18.19865
G1 X100.397 Y46.313 E18.24367
G1 X100.486 Y47.21 E18.28864
G1 X100.747 Y48.074 E18.33367
G1 X101.173 Y48.87 E18.37871
G1 X101.578 Y49.364 E18.41058
G1 X101.901 Y60.851 E18.9839
G1 X101.957 Y61.417 E19.01227
G1 X102.133 Y62 E19.04266
G1 X102.42 Y62.538 E19.07308
G1 X102.806 Y63.006 E19.10334
G1 X103.276 Y63.392 E19.13369
G1 X103.812 Y63.679 E19.16402
G1 X104.394 Y63.856 E19.19437
M205 X10 Y10
G0 F6000 X104.473 Y63.462
M205 X8 Y8
;TYPE:WALL-OUTER
G1 F1200 X105 Y63.514 E19.22079
G1 X105.527 Y63.462 E19.24721
G1 X106.034 Y63.308 E19.27364
G1 X106.501 Y63.058 E19.30007
G1 X106.91 Y62.722 E19.32648
G1 X107.246 Y62.314 E19.35285
G1 X107.496 Y61.846 E19.37932
G1 X107.649 Y61.339 E19.40574
G1 X107.7 Y60.826 E19.43146
G1 X108.026 Y49.216 E20.01091
G1 X108.493 Y48.647 E20.04764
G1 X108.882 Y47.92 E20.08877
G1 X109.12 Y47.132 E20.12984
G1 X109.201 Y46.313 E20.1709
G1 X109.12 Y45.493 E20.21201
G1 X108.882 Y44.705 E20.25308
G1 X108.493 Y43.978 E20.29421
G1 X108.026 Y43.409 E20.33094
G1 X107.7 Y31.8 E20.91034
G1 X107.649 Y31.286 E20.93611
G1 X107.496 Y30.779 E20.96253
G1 X107.246 Y30.312 E20.98896
G1 X106.91 Y29.903 E21.01537
G1 X106.501 Y29.567 E21.04177
G1 X106.034 Y29.317 E21.0682
G1 X105.527 Y29.164 E21.09462
G1 X105 Y29.112 E21.12104
G1 X104.473 Y29.164 E21.14746
G1 X103.966 Y29.317 E21.17388
G1 X103.499 Y29.567 E21.20031
G1 X103.09 Y29.903 E21.22672
G1 X102.754 Y30.312 E21.25313
G1 X102.504 Y30.779 E21.27955
G1 X102.351 Y31.286 E21.30597
G1 X102.3 Y31.8 E21.33174
G1 X101.974 Y43.409 E21.91115
G1 X101.507 Y43.978 E21.94787
G1 X101.118 Y44.705 E21.98901
G1 X100.88 Y45.493 E22.03007
G1 X100.799 Y46.313 E22.07118
G1 X100.88 Y47.132 E22.11224
G1 X101.118 Y47.92 E22.15331
G1 X101.507 Y48.647 E22.19445
G1 X101.974 Y49.216 E22.23117
G1 X102.3 Y60.826 E22.81062
G1 X102.351 Y61.339 E22.83634
G1 X102.504 Y61.846 E22.86277
G1 X102.754 Y62.314 E22.88924
G1 X103.09 Y62.722 E22.91561
G1 X103.499 Y63.058 E22.94201
G1 X103.966 Y63.308 E22.96844
G1 X104.473 Y63.462 E22.99488
M205 X10 Y10
G0 F6000 X104.672 Y63.481
G0 X104.628 Y63.919
G0 X104.27 Y64.236
M205 X8 Y8
;TYPE:WALL-INNER
G1 F1200 X103.646 Y64.175 E23.02616
G1 X103.016 Y64.113 E23.05774
G1 X101.49 Y63.963 E23.13424
G1 X98.115 Y62.939 E23.3102
G1 X95.003 Y61.274 E23.48628
G1 X92.275 Y59.038 E23.66226
G1 X90.039 Y56.309 E23.83827
G1 X88.373 Y53.198 E24.01433
G1 X87.35 Y49.822 E24.19033
G1 X87.005 Y46.313 E24.36624
G1 X87.35 Y42.803 E24.54219
G1 X88.373 Y39.428 E24.71814
G1 X90.039 Y36.316 E24.89425
G1 X92.275 Y33.588 E25.07022
G1 X95.003 Y31.352 E25.2462
G1 X98.115 Y29.686 E25.42231
G1 X101.49 Y28.663 E25.59825
G1 X103.015 Y28.513 E25.6747
G1 X103.645 Y28.451 E25.70628
G1 X104.273 Y28.389 E25.73777
G1 X103.658 Y28.575 E25.74311
G1 X103.053 Y28.899 E25.76574
G1 X102.522 Y29.335 E25.80002
G1 X102.086 Y29.866 E25.8343
G1 X101.762 Y30.471 E25.86853
G1 X101.563 Y31.13 E25.90288
G1 X101.502 Y31.75 E25.93396
G1 X101.182 Y43.113 E26.50109
G1 X100.839 Y43.532 E26.5281
G1 X100.376 Y44.397 E26.57705
G1 X100.092 Y45.337 E26.62604
G1 X99.995 Y46.313 E26.67497
G1 X100.092 Y47.288 E26.72386
G1 X100.376 Y48.228 E26.77285
G1 X100.839 Y49.093 E26.82179
G1 X101.182 Y49.512 E26.84881
G1 X101.502 Y60.876 E27.41599
G1 X101.563 Y61.495 E27.44702
G1 X101.761 Y62.153 E27.4813
G1 X102.086 Y62.762 E27.51574
G1 X102.522 Y63.29 E27.5499
G1 X103.053 Y63.726 E27.58418
G1 X103.658 Y64.05 E27.60801
G1 X104.27 Y64.236 E27.61339
M205 X10 Y10
G1 F1500 E21.61339
G1 F600 Z0.375
G0 F6000 X108.51 Y63.963 Z0.375
M205 X8 Y8
G1 F600 Z0.3
G1 F1500 E27.61339
G1 F1200 X106.985 Y64.112 E27.68983
G1 X106.355 Y64.174 E27.72141
G1 X105.73 Y64.236 E27.75275
G1 X106.342 Y64.05 E27.75807
G1 X106.947 Y63.726 E27.7807
G1 X107.478 Y63.29 E27.81498
G1 X107.914 Y62.762 E27.84914
G1 X108.239 Y62.153 E27.88358
G1 X108.437 Y61.495 E27.91786
G1 X108.498 Y60.876 E27.94889
G1 X108.818 Y49.512 E28.51607
G1 X109.161 Y49.093 E28.54308
G1 X109.624 Y48.228 E28.59203
G1 X109.908 Y47.288 E28.64102
G1 X110.005 Y46.313 E28.68991
G1 X109.908 Y45.337 E28.73884
G1 X109.624 Y44.397 E28.78783
G1 X109.161 Y43.532 E28.83678
G1 X108.818 Y43.113 E28.86379
G1 X108.498 Y31.75 E29.43092
G1 X108.437 Y31.13 E29.462
G1 X108.238 Y30.471 E29.49634
G1 X107.914 Y29.866 E29.53058
G1 X107.478 Y29.335 E29.56486
G1 X106.947 Y28.899 E29.59914
G1 X106.342 Y28.575 E29.63338
G1 X105.727 Y28.389 E29.66543
G1 X106.354 Y28.45 E29.67019
G1 X106.985 Y28.512 E29.6914
G1 X108.51 Y28.663 E29.76785
G1 X111.885 Y29.686 E29.9438
G1 X114.997 Y31.352 E30.1199
G1 X117.725 Y33.588 E30.29588
G1 X119.961 Y36.316 E30.47186
G1 X121.627 Y39.428 E30.64796
G1 X122.65 Y42.803 E30.82391
