;FLAVOR:Marlin
;TIME:1419
;Filament used: 1.49277m
;Layer height: 0.3
;MINX:93.259
;MINY:25.994
;MINZ:0.36
;MAXX:116.741
;MAXY:49.566
;MAXZ:22.635
;Generated with Cura_SteamEngine 4.12.1
M82 ;absolute extrusion mode
G21                                        ; metric values 
G90                                        ; absolute positioning 
M82                                        ; set extruder to absolute mode 
M107                                       ; start with the fan off 
M140 S40           ; Start heating the bed 
G4 S60                                     ; wait 1 minute 
M104 S210         ; start heating the hot end 
M190 S40           ; wait for bed 
M109 S210         ; wait for hotend 
M300 S1000 P500                            ; BEEP heating done 
G28 X0 Y10 Z0                              ; move X/Y to min endstops 
M420 S1                                    ; Enable leveling 
M420 Z2.0                                  ; Set leveling fading height to 2 mm 
G0 Z0.15                                   ; lift nozzle a bit 
G92 E0                                     ; zero the extruded length 
G1 X50 E25 F500                            ; Extrude 25mm of filament in a 5cm line. 
G92 E0                                     ; zero the extruded length again 
G1 E-2 F500                                ; Retract a little 
G1 X120 F4000                              ; Quickly wipe away from the filament line`
G92 E0
G92 E0
G1 F1500 E-6
;LAYER_COUNT:70
;LAYER:-6
M107
M205 X10 Y10
G0 F6000 X94.158 Y33.71 Z0.36
M205 X8 Y8
;TYPE:SUPPORT-INTERFACE
G1 F1500 E0
G1 F1125 X94.35 Y33.216 E0.06346
G1 X94.454 Y32.995 E0.09271
G1 X95.172 Y31.653 E0.27494
G1 X95.463 Y31.201 E0.33931
G1 X95.583 Y31.039 E0.36345
G1 X96.545 Y29.866 E0.54509
G1 X96.937 Y29.46 E0.61267
G1 X97.085 Y29.326 E0.63657
G1 X98.258 Y28.364 E0.81822
G1 X98.717 Y28.045 E0.88515
G1 X98.872 Y27.953 E0.90673
G1 X100.214 Y27.235 E1.08897
G1 X100.711 Y27.017 E1.15395
G1 X100.925 Y26.941 E1.18114
G1 X102.364 Y26.503 E1.36125
G1 X102.9 Y26.386 E1.42694
G1 X103.123 Y26.353 E1.45393
G1 X104.605 Y26.207 E1.63224
G1 X105.151 Y26.195 E1.69763
G1 X105.395 Y26.207 E1.72688
G1 X106.877 Y26.353 E1.90519
G1 X107.413 Y26.448 E1.97037
G1 X107.636 Y26.503 E1.99787
G1 X109.075 Y26.941 E2.17797
G1 X109.565 Y27.131 E2.2409
G1 X109.786 Y27.235 E2.27015
G1 X111.128 Y27.953 E2.45239
G1 X111.58 Y28.244 E2.51675
G1 X111.742 Y28.364 E2.54089
G1 X112.915 Y29.326 E2.72254
G1 X113.321 Y29.718 E2.79011
G1 X113.455 Y29.866 E2.81402
G1 X114.417 Y31.039 E2.99566
G1 X114.736 Y31.498 E3.06259
G1 X114.828 Y31.653 E3.08417
G1 X115.546 Y32.995 E3.26641
G1 X115.764 Y33.492 E3.33139
G1 X115.842 Y33.71 E3.35911
G1 X116.278 Y35.148 E3.53904
G1 X116.394 Y35.674 E3.60353
G1 X116.425 Y35.885 E3.62907
G1 X116.528 Y36.921 E3.75372
G1 X116.529 Y37.464 E3.81874
G1 X116.536 Y38.055 E3.88951
G1 X116.524 Y38.675 E3.96376
G1 X116.427 Y39.66 E4.08227
G1 X116.335 Y40.186 E4.14621
G1 X116.278 Y40.414 E4.17435
G1 X115.842 Y41.852 E4.35427
G1 X115.65 Y42.346 E4.41773
G1 X115.546 Y42.567 E4.44698
G1 X114.828 Y43.909 E4.62922
G1 X114.538 Y44.359 E4.69332
G1 X114.417 Y44.523 E4.71772
G1 X113.455 Y45.696 E4.89936
G1 X113.067 Y46.098 E4.96626
G1 X112.915 Y46.236 E4.99084
G1 X111.744 Y47.197 E5.17223
G1 X111.286 Y47.515 E5.23899
G1 X111.128 Y47.609 E5.261
G1 X109.787 Y48.327 E5.44313
G1 X109.289 Y48.545 E5.50823
G1 X109.075 Y48.621 E5.53542
G1 X107.636 Y49.059 E5.71552
G1 X107.1 Y49.176 E5.78121
G1 X106.878 Y49.209 E5.80809
G1 X105.395 Y49.355 E5.98651
G1 X104.848 Y49.367 E6.05203
G1 X104.605 Y49.355 E6.08116
G1 X103.122 Y49.209 E6.25958
G1 X102.587 Y49.114 E6.32465
G1 X102.364 Y49.059 E6.35215
G1 X100.925 Y48.621 E6.53225
G1 X100.436 Y48.431 E6.59507
G1 X100.213 Y48.327 E6.62453
G1 X98.872 Y47.609 E6.80666
G1 X98.42 Y47.318 E6.87103
G1 X98.256 Y47.197 E6.89543
G1 X97.085 Y46.236 E7.07682
G1 X96.679 Y45.844 E7.14439
G1 X96.545 Y45.696 E7.1683
G1 X95.583 Y44.523 E7.34994
G1 X95.264 Y44.064 E7.41687
G1 X95.172 Y43.909 E7.43845
G1 X94.454 Y42.567 E7.62069
G1 X94.236 Y42.07 E7.68567
G1 X94.158 Y41.852 E7.71339
G1 X93.722 Y40.414 E7.89332
G1 X93.606 Y39.885 E7.95816
G1 X93.573 Y39.66 E7.98539
G1 X93.472 Y38.641 E8.108
G1 X93.471 Y38.098 E8.17302
G1 X93.464 Y37.474 E8.24774
G1 X93.476 Y36.887 E8.31804
G1 X93.573 Y35.902 E8.43655
G1 X93.665 Y35.376 E8.50049
G1 X93.722 Y35.148 E8.52863
G1 X94.158 Y33.71 E8.70855
M205 X10 Y10
G0 F6000 X94.4 Y33.109
M205 X8 Y8
G1 F1125 X94.4 Y42.443 E9.82617
M205 X10 Y10
G1 F1500 E3.82617
G1 F600 Z0.435
G0 F6000 X96 Y45.031 Z0.435
M205 X8 Y8
G1 F600 Z0.36
G1 F1500 E9.82617
G1 F1125 X96 Y30.53 E11.56247
M205 X10 Y10
G1 F1500 E5.56247
G1 F600 Z0.435
G0 F6000 X97.6 Y28.903 Z0.435
M205 X8 Y8
G1 F600 Z0.36
G1 F1500 E11.56247
G1 F1125 X97.6 Y46.658 E13.68839
M205 X10 Y10
G1 F1500 E7.68839
G1 F600 Z0.435
G0 F6000 X99.2 Y47.784 Z0.435
M205 X8 Y8
G1 F600 Z0.36
G1 F1500 E13.68839
G1 F1125 X99.2 Y27.777 E16.08396
M205 X10 Y10
G1 F1500 E10.08396
G1 F600 Z0.435
G0 F6000 X100.8 Y26.985 Z0.435
M205 X8 Y8
G1 F600 Z0.36
G1 F1500 E16.08396
G1 F1125 X100.8 Y48.572 E18.66871
M205 X10 Y10
G1 F1500 E12.66871
G1 F600 Z0.435
G0 F6000 X102.4 Y49.067 Z0.435
M205 X8 Y8
G1 F600 Z0.36
G1 F1500 E18.66871
G1 F1125 X102.4 Y26.495 E21.3714
M205 X10 Y10
G1 F1500 E15.3714
G1 F600 Z0.435
G0 F6000 X104 Y26.266 Z0.435
M205 X8 Y8
G1 F600 Z0.36
G1 F1500 E21.3714
G1 F1125 X104 Y49.295 E24.12881
M205 X10 Y10
G1 F1500 E18.12881
G1 F600 Z0.435
G0 F6000 X105.6 Y49.335 Z0.435
M205 X8 Y8
G1 F600 Z0.36
G1 F1500 E24.12881
G1 F1125 X105.6 Y26.228 E26.89556
M205 X10 Y10
G1 F1500 E20.89556
G1 F600 Z0.435
G0 F6000 X107.2 Y26.411 Z0.435
M205 X8 Y8
G1 F600 Z0.36
G1 F1500 E26.89556
G1 F1125 X107.2 Y49.155 E29.61885
M205 X10 Y10
G1 F1500 E23.61885
G1 F600 Z0.435
G0 F6000 X108.8 Y48.705 Z0.435
M205 X8 Y8
G1 F600 Z0.36
G1 F1500 E29.61885
G1 F1125 X108.8 Y26.858 E32.23473
M205 X10 Y10
G1 F1500 E26.23473
G1 F600 Z0.435
G0 F6000 X110.4 Y27.564 Z0.435
M205 X8 Y8
G1 F600 Z0.36
G1 F1500 E32.23473
G1 F1125 X110.4 Y47.999 E34.68155
M205 X10 Y10
G1 F1500 E28.68155
G1 F600 Z0.435
G0 F6000 X112 Y46.987 Z0.435
M205 X8 Y8
G1 F600 Z0.36
G1 F1500 E34.68155
G1 F1125 X112 Y28.576 E36.88601
M205 X10 Y10
G1 F1500 E30.88601
G1 F600 Z0.435
G0 F6000 X113.6 Y30.043 Z0.435
M205 X8 Y8
G1 F600 Z0.36
G1 F1500 E36.88601
G1 F1125 X113.6 Y45.52 E38.73918
M205 X10 Y10
G1 F1500 E32.73918
G1 F600 Z0.435
G0 F6000 X115.2 Y43.214 Z0.435
M104 S200
M205 X8 Y8
G1 F600 Z0.36
G1 F1500 E38.73918
G1 F1125 X115.2 Y32.349 E40.04011
M205 X10 Y10
G1 F1500 E34.04011
G1 F600 Z0.435
G0 F6000 X114.139 Y30.7 Z0.435
;TIME_ELAPSED:24.263727
;LAYER:-5
G0 X114.139 Y30.7 Z0.885
M205 X8 Y8
;TYPE:SUPPORT
G1 F600 Z0.81
G1 F1500 E40.04011
G1 F1125 X112.079 Y28.641 E40.47604
G1 X112.914 Y29.325 E40.63759
G1 X113.062 Y29.459 E40.66747
G1 X113.32 Y29.717 E40.72208
G1 X113.454 Y29.866 E40.75208
M205 X10 Y10
G1 F1500 E34.75208
G1 F600 Z0.885
G0 F6000 X112.079 Y28.641 Z0.885
M205 X8 Y8
G1 F600 Z0.81
G1 F1500 E40.75208
G1 F1125 X111.741 Y28.363 E40.81758
G1 X111.579 Y28.243 E40.84775
G1 X111.282 Y28.044 E40.90126
G1 X111.127 Y27.953 E40.92816
G1 X109.785 Y27.234 E41.15603
G1 X109.564 Y27.13 E41.19259
G1 X109.288 Y27.016 E41.23728
G1 X109.074 Y26.94 E41.27127
G1 X108.917 Y26.893 E41.2958
G1 X115.889 Y33.864 E42.77143
G1 X116.277 Y35.148 E42.97219
G1 X116.333 Y35.375 E43.00718
G1 X116.393 Y35.674 E43.05283
G1 X116.412 Y35.802 E43.0722
G1 X106.978 Y26.368 E45.06906
G1 X106.876 Y26.352 E45.08451
G1 X105.404 Y26.208 E45.30588
G1 X116.536 Y37.34 E47.66214
G1 X116.528 Y37.463 E47.68059
G1 X116.535 Y38.055 E47.7692
G1 X116.535 Y38.435 E47.82608
G1 X116.523 Y38.675 E47.86204
G1 X116.517 Y38.736 E47.87122
G1 X104.044 Y26.262 E50.51144
G1 X103.122 Y26.353 E50.6501
G1 X102.899 Y26.386 E50.68384
G1 X102.777 Y26.41 E50.70245
G1 X116.37 Y40.003 E53.57963
G1 X116.334 Y40.186 E53.60755
G1 X116.276 Y40.413 E53.64261
G1 X116.065 Y41.112 E53.75189
G1 X101.668 Y26.715 E56.79925
G1 X100.923 Y26.94 E56.91573
G1 X100.71 Y27.017 E56.94963
G1 X100.601 Y27.062 E56.96728
G1 X115.718 Y42.179 E60.16704
G1 X115.649 Y42.346 E60.19408
G1 X115.544 Y42.567 E60.2307
G1 X115.248 Y43.123 E60.32498
G1 X99.657 Y27.532 E63.62507
G1 X98.871 Y27.952 E63.75845
G1 X98.741 Y28.031 E63.78122
G1 X114.749 Y44.039 E67.16957
G1 X114.735 Y44.064 E67.17386
G1 X114.537 Y44.358 E67.22691
G1 X114.416 Y44.522 E67.25741
G1 X114.147 Y44.851 E67.32102
G1 X97.93 Y28.633 E70.75372
G1 X97.152 Y29.27 E70.90421
G1 X113.51 Y45.628 E74.36665
G1 X113.453 Y45.696 E74.37993
G1 X113.32 Y45.843 E74.4096
G1 X113.066 Y46.097 E74.46336
G1 X112.914 Y46.235 E74.49409
G1 X112.798 Y46.33 E74.51653
G1 X96.449 Y29.981 E77.97706
G1 X95.812 Y30.758 E78.12744
G1 X112.021 Y46.968 E81.55844
G1 X111.743 Y47.197 E81.61235
G1 X111.579 Y47.317 E81.64277
G1 X111.285 Y47.515 E81.69582
G1 X111.203 Y47.563 E81.71004
G1 X95.216 Y31.576 E85.09395
G1 X95.17 Y31.652 E85.10724
G1 X94.72 Y32.495 E85.25027
G1 X110.285 Y48.059 E88.54475
G1 X109.786 Y48.327 E88.62952
G1 X109.563 Y48.431 E88.66635
G1 X109.335 Y48.524 E88.7032
G1 X94.255 Y33.444 E91.89513
G1 X94.235 Y33.492 E91.90291
G1 X94.157 Y33.709 E91.93743
G1 X93.912 Y34.516 E92.06365
G1 X108.264 Y48.867 E95.10138
G1 X107.635 Y49.059 E95.19981
G1 X107.412 Y49.114 E95.23419
G1 X107.148 Y49.165 E95.27443
G1 X93.613 Y35.63 E98.13933
G1 X93.605 Y35.673 E98.14588
G1 X93.572 Y35.901 E98.18036
G1 X93.475 Y36.886 E98.3285
G1 X93.473 Y36.905 E98.33136
G1 X105.875 Y49.307 E100.95644
G1 X105.394 Y49.354 E101.02878
G1 X105.151 Y49.367 E101.0652
G1 X104.846 Y49.367 E101.11085
G1 X104.604 Y49.355 E101.14711
G1 X104.499 Y49.344 E101.16292
G1 X93.458 Y38.303 E103.49992
G1 X93.461 Y38.455 E103.52268
G1 X93.471 Y38.64 E103.55041
G1 X93.572 Y39.659 E103.70367
G1 X93.601 Y39.861 E103.73421
G1 X102.918 Y49.178 E105.70631
G1 X102.898 Y49.175 E105.70933
G1 X102.586 Y49.113 E105.75694
G1 X102.363 Y49.059 E105.79128
G1 X100.956 Y48.63 E106.01144
G1 X94.147 Y41.821 E107.45268
G1 X94.156 Y41.852 E107.45751
G1 X94.234 Y42.07 E107.49216
G1 X94.349 Y42.345 E107.53678
G1 X94.453 Y42.567 E107.57347
G1 X95.171 Y43.909 E107.80127
G1 X95.262 Y44.064 E107.82817
G1 X95.461 Y44.358 E107.8813
G1 X95.581 Y44.522 E107.91172
G1 X96.252 Y45.341 E108.07019
G1 X97.437 Y46.526 E108.32101
G1 X97.084 Y46.236 E108.38939
G1 X96.932 Y46.098 E108.42011
G1 X96.677 Y45.843 E108.47409
G1 X96.544 Y45.696 E108.50376
M205 X10 Y10
G1 F1500 E102.50376
G1 F600 Z0.885
G0 F6000 X102.143 Y49.2 Z0.885
;TIME_ELAPSED:49.471908
;LAYER:-4
G0 X102.143 Y49.2 Z1.185
M205 X8 Y8
;TYPE:SUPPORT-INTERFACE
G1 F600 Z1.11
G1 F1500 E108.50376
G1 X107.856 Y49.2 E108.78878
G1 X107.699 Y49.248 E108.79697
G1 X107.462 Y49.307 E108.80916
G1 X107.13 Y49.373 E108.82605
G1 X106.909 Y49.406 E108.83719
G1 X105.405 Y49.554 E108.91259
G1 X105.162 Y49.566 E108.92473
G1 X104.838 Y49.566 E108.94089
G1 X104.595 Y49.554 E108.95303
G1 X103.091 Y49.406 E109.02843
G1 X102.87 Y49.373 E109.03958
G1 X102.538 Y49.307 E109.05646
G1 X102.301 Y49.248 E109.06865
M205 X10 Y10
G1 F1500 E103.06865
G1 F600 Z1.185
G0 F6000 X107.856 Y49.2 Z1.185
M205 X8 Y8
G1 F600 Z1.11
G1 F1500 E109.06865
G1 X109.144 Y48.809 E109.1358
G1 X109.169 Y48.8 E109.13713
G1 X100.83 Y48.8 E109.55316
G1 X100.653 Y48.736 E109.56255
G1 X100.342 Y48.607 E109.57935
G1 X100.11 Y48.498 E109.59214
G1 X99.926 Y48.4 E109.60254
G1 X110.073 Y48.4 E110.10878
G1 X110.821 Y48 E110.15109
G1 X99.18 Y48 E110.73187
G1 X98.786 Y47.789 E110.75416
G1 X98.597 Y47.676 E110.76515
G1 X98.483 Y47.6 E110.77199
G1 X111.516 Y47.6 E111.42221
G1 X111.684 Y47.488 E111.43228
G1 X111.87 Y47.35 E111.44383
G1 X112.052 Y47.2 E111.4556
G1 X97.947 Y47.2 E112.1593
G1 X97.459 Y46.8 E112.19078
G1 X112.54 Y46.8 E112.94318
G1 X113.028 Y46.4 E112.97466
G1 X96.971 Y46.4 E113.77574
G1 X96.95 Y46.382 E113.77712
G1 X96.788 Y46.236 E113.788
G1 X96.552 Y46 E113.80465
G1 X113.448 Y46 E114.6476
G1 X113.456 Y45.992 E114.64816
G1 X113.602 Y45.83 E114.65904
G1 X113.79 Y45.6 E114.67386
G1 X96.209 Y45.6 E115.55098
G1 X95.881 Y45.2 E115.57679
G1 X114.118 Y45.2 E116.48664
G1 X114.447 Y44.8 E116.51248
G1 X95.552 Y44.8 E117.45515
G1 X95.429 Y44.649 E117.46487
G1 X95.292 Y44.464 E117.47635
G1 X95.249 Y44.4 E117.4802
G1 X114.75 Y44.4 E118.45311
G1 X114.896 Y44.183 E118.46616
G1 X115.005 Y44 E118.47678
G1 X94.993 Y44 E119.47519
G1 X94.99 Y43.994 E119.47552
G1 X94.779 Y43.6 E119.49782
G1 X115.219 Y43.6 E120.51758
G1 X115.434 Y43.2 E120.54023
G1 X94.565 Y43.2 E121.58139
G1 X94.351 Y42.8 E121.60402
G1 X115.648 Y42.8 E122.66653
G1 X115.718 Y42.67 E122.6739
G1 X115.827 Y42.438 E122.68669
G1 X115.842 Y42.4 E122.68873
G1 X94.157 Y42.4 E123.7706
G1 X94.043 Y42.127 E123.78536
G1 X93.997 Y42 E123.7921
G1 X116.001 Y42 E124.88988
G1 X116.031 Y41.919 E124.89419
G1 X116.127 Y41.6 E124.91081
G1 X93.872 Y41.6 E126.02112
G1 X93.751 Y41.2 E126.04196
G1 X116.248 Y41.2 E127.16434
G1 X116.37 Y40.8 E127.18521
G1 X93.629 Y40.8 E128.31976
G1 X93.533 Y40.48 E128.33643
G1 X93.512 Y40.4 E128.34056
G1 X116.487 Y40.4 E129.48678
G1 X116.529 Y40.233 E129.49537
G1 X116.575 Y40 E129.50722
G1 X93.424 Y40 E130.66223
G1 X93.408 Y39.915 E130.66655
G1 X93.375 Y39.687 E130.67804
G1 X93.366 Y39.6 E130.6824
G1 X116.633 Y39.6 E131.8432
G1 X116.673 Y39.2 E131.86325
G1 X93.326 Y39.2 E133.02804
G1 X93.286 Y38.8 E133.0481
G1 X116.712 Y38.8 E134.21682
G1 X116.725 Y38.674 E134.22314
G1 X116.736 Y38.444 E134.23463
G1 X116.736 Y38.4 E134.23683
G1 X93.26 Y38.4 E135.40805
G1 X93.259 Y38.297 E135.41319
G1 X93.271 Y38.092 E135.42343
G1 X93.269 Y38 E135.42802
G1 X116.736 Y38 E136.5988
G1 X116.731 Y37.6 E136.61875
G1 X93.265 Y37.6 E137.78948
G1 X93.264 Y37.473 E137.79581
G1 X93.264 Y37.2 E137.80943
G1 X116.74 Y37.2 E138.98066
G1 X116.738 Y37.097 E138.9858
G1 X116.726 Y36.891 E138.99609
G1 X116.717 Y36.8 E139.00065
G1 X93.284 Y36.8 E140.16973
G1 X93.323 Y36.4 E140.18978
G1 X116.678 Y36.4 E141.35497
G1 X116.638 Y36 E141.37502
G1 X93.363 Y36 E142.53622
G1 X93.375 Y35.873 E142.54258
G1 X93.408 Y35.645 E142.55407
G1 X93.417 Y35.6 E142.55636
G1 X116.584 Y35.6 E143.71217
G1 X116.529 Y35.327 E143.72606
G1 X116.498 Y35.2 E143.73259
G1 X93.503 Y35.2 E144.87981
G1 X93.533 Y35.08 E144.88598
G1 X93.618 Y34.8 E144.90058
G1 X116.383 Y34.8 E146.03633
G1 X116.261 Y34.4 E146.0572
G1 X93.74 Y34.4 E147.18077
G1 X93.861 Y34 E147.20162
G1 X116.14 Y34 E148.31313
G1 X116.028 Y33.632 E148.33232
G1 X116.017 Y33.6 E148.33401
G1 X93.984 Y33.6 E149.43324
G1 X94.044 Y33.433 E149.44209
G1 X94.141 Y33.2 E149.45468
G1 X115.86 Y33.2 E150.53825
G1 X115.827 Y33.122 E150.54247
G1 X115.718 Y32.89 E150.55526
G1 X115.67 Y32.8 E150.56035
G1 X94.331 Y32.8 E151.62496
G1 X94.545 Y32.4 E151.64759
G1 X115.456 Y32.4 E152.69084
G1 X115.243 Y32 E152.71345
G1 X94.759 Y32 E153.7354
G1 X94.973 Y31.6 E153.75803
G1 X115.029 Y31.6 E154.75863
G1 X115.01 Y31.566 E154.76058
G1 X114.896 Y31.377 E154.77159
G1 X114.778 Y31.2 E154.7822
G1 X95.223 Y31.2 E155.7578
G1 X95.292 Y31.096 E155.76403
G1 X95.429 Y30.911 E155.77551
G1 X95.521 Y30.8 E155.78271
G1 X114.48 Y30.8 E156.72858
G1 X114.152 Y30.4 E156.75438
G1 X95.849 Y30.4 E157.66752
G1 X96.177 Y30 E157.69333
G1 X113.824 Y30 E158.57374
G1 X113.602 Y29.73 E158.59118
G1 X113.485 Y29.6 E158.59991
G1 X96.516 Y29.6 E159.4465
G1 X96.544 Y29.568 E159.44862
G1 X96.788 Y29.324 E159.46583
G1 X96.926 Y29.2 E159.47509
G1 X113.075 Y29.2 E160.28076
G1 X113.05 Y29.178 E160.28243
G1 X112.59 Y28.8 E160.31213
G1 X97.411 Y28.8 E161.06941
G1 X97.899 Y28.4 E161.10089
G1 X112.102 Y28.4 E161.80948
G1 X111.869 Y28.209 E161.82452
G1 X111.684 Y28.072 E161.836
G1 X111.577 Y28 E161.84243
G1 X98.424 Y28 E162.49864
G1 X98.597 Y27.884 E162.50903
G1 X98.786 Y27.77 E162.52004
G1 X99.104 Y27.6 E162.53803
G1 X110.895 Y27.6 E163.12629
G1 X110.148 Y27.2 E163.16856
G1 X99.852 Y27.2 E163.68223
G1 X100.11 Y27.062 E163.69683
G1 X100.342 Y26.953 E163.70962
G1 X100.653 Y26.823 E163.72644
G1 X100.718 Y26.8 E163.72988
G1 X109.281 Y26.8 E164.15709
G1 X109.144 Y26.751 E164.16434
G1 X107.989 Y26.4 E164.22457
G1 X102.012 Y26.4 E164.52276
G1 X102.301 Y26.312 E164.53783
G1 X102.538 Y26.253 E164.55002
G1 X102.87 Y26.187 E164.56691
G1 X103.091 Y26.154 E164.57806
