;FLAVOR:Marlin
;TIME:677
;Filament used: 0.420332m
;Layer height: 0.2
;MINX:93.684
;MINY:24.35
;MINZ:0.36
;MAXX:116.326
;MAXY:41.497
;MAXZ:10.785
;Generated with Cura_SteamEngine 4.12.1
M82 ;absolute extrusion mode
G21                                        ; metric values 
G90                                        ; absolute positioning 
M82                                        ; set extruder to absolute mode 
M107                                       ; start with the fan off 
M140 S40           ; Start heating the bed 
G4 S60                                     ; wait 1 minute 
M104 S210         ; start heating the hot end 
M190 S40           ; wait for bed 
M109 S210         ; wait for hotend 
M300 S1000 P500                            ; BEEP heating done 
G28 X0 Y10 Z0                              ; move X/Y to min endstops 
M420 S1                                    ; Enable leveling 
M420 Z2.0                                  ; Set leveling fading height to 2 mm 
G0 Z0.15                                   ; lift nozzle a bit 
G92 E0                                     ; zero the extruded length 
G1 X50 E25 F500                            ; Extrude 25mm of filament in a 5cm line. 
G92 E0                                     ; zero the extruded length again 
G1 E-2 F500                                ; Retract a little 
G1 X120 F4000                              ; Quickly wipe away from the filament line`
G92 E0
G92 E0
G1 F1500 E-6
;LAYER_COUNT:47
;LAYER:-6
M107
M205 X10 Y10
G0 F6000 X94.447 Y27.597 Z0.36
M205 X8 Y8
;TYPE:SUPPORT-INTERFACE
G1 F1500 E0
G1 F1125 X94.994 Y25.794 E0.2256
G1 X95.258 Y25.235 E0.29962
G1 X95.474 Y24.988 E0.33891
G1 X96 Y24.662 E0.41301
G1 X96.745 Y24.551 E0.5032
G1 X98.508 Y24.551 E0.71429
G1 X99.14 Y24.624 E0.79047
G1 X99.807 Y24.692 E0.87075
G1 X100.396 Y24.676 E0.9413
G1 X100.396 Y24.687 E0.94261
G1 X101.208 Y24.573 E1.04079
G1 X101.528 Y24.551 E1.0792
G1 X103.291 Y24.551 E1.2903
G1 X103.793 Y24.602 E1.35071
G1 X104.368 Y24.87 E1.42667
G1 X104.793 Y25.341 E1.50263
G1 X104.961 Y25.757 E1.55635
G1 X105.076 Y26.3 E1.62281
G1 X105.293 Y27.047 E1.71595
G1 X105.574 Y27.669 E1.79768
G1 X105.931 Y28.251 E1.87943
G1 X106.359 Y28.784 E1.96128
G1 X106.852 Y29.257 E2.04308
G1 X107.399 Y29.665 E2.12479
G1 X107.994 Y30 E2.20655
G1 X108.626 Y30.258 E2.28829
G1 X109.285 Y30.434 E2.36996
G1 X109.957 Y30.524 E2.45114
G1 X110.338 Y30.538 E2.49679
G1 X114.396 Y30.538 E2.98268
G1 X114.898 Y30.589 E3.0431
G1 X115.473 Y30.857 E3.11906
G1 X115.898 Y31.329 E3.19511
G1 X116.043 Y31.657 E3.23805
G1 X116.126 Y32.272 E3.31235
G1 X116.126 Y33.581 E3.46909
G1 X116.075 Y34.083 E3.5295
G1 X115.807 Y34.657 E3.60536
G1 X115.338 Y35.081 E3.68106
G1 X115.007 Y35.228 E3.72442
G1 X114.393 Y35.311 E3.79861
G1 X110.329 Y35.311 E4.28522
G1 X109.661 Y35.353 E4.36536
G1 X108.99 Y35.482 E4.44718
G1 X108.341 Y35.695 E4.52896
G1 X107.724 Y35.987 E4.6107
G1 X107.149 Y36.355 E4.69244
G1 X106.625 Y36.793 E4.77421
G1 X106.161 Y37.293 E4.85589
G1 X105.762 Y37.849 E4.93783
G1 X105.438 Y38.449 E5.01948
G1 X105.191 Y39.086 E5.10128
G1 X105.02 Y39.794 E5.18849
G1 X104.868 Y40.359 E5.25855
G1 X104.497 Y40.869 E5.33406
G1 X104.078 Y41.149 E5.3944
G1 X103.535 Y41.278 E5.46123
G1 X103.244 Y41.298 E5.49616
G1 X101.471 Y41.298 E5.70845
G1 X100.839 Y41.225 E5.78462
G1 X100.173 Y41.158 E5.86477
G1 X99.493 Y41.177 E5.94622
G1 X98.969 Y41.25 E6.00957
G1 X98.461 Y41.298 E6.07067
G1 X96.688 Y41.298 E6.28296
G1 X96.186 Y41.247 E6.34338
G1 X95.611 Y40.979 E6.41934
G1 X95.217 Y40.553 E6.48882
G1 X94.971 Y39.979 E6.56359
G1 X94.446 Y38.25 E6.77995
G1 X94.334 Y37.673 E6.85033
G1 X93.896 Y33.222 E7.38585
G1 X93.896 Y32.628 E7.45697
G1 X94.334 Y28.176 E7.99261
G1 X94.447 Y27.597 E8.06325
M205 X10 Y10
G0 F6000 X94.4 Y27.837
M205 X8 Y8
G1 F1125 X94.4 Y38.013 E9.28169
M205 X10 Y10
G1 F1500 E3.28169
G1 F600 Z0.435
G0 F6000 X96 Y41.16 Z0.435
M205 X8 Y8
G1 F600 Z0.36
G1 F1500 E9.28169
G1 F1125 X96 Y24.662 E11.2571
M205 X10 Y10
G1 F1500 E5.2571
G1 F600 Z0.435
G0 F6000 X97.6 Y24.551 Z0.435
M205 X8 Y8
G1 F600 Z0.36
G1 F1500 E11.2571
G1 F1125 X97.6 Y41.298 E13.26233
M205 X10 Y10
G1 F1500 E7.26233
G1 F600 Z0.435
G0 F6000 X99.2 Y41.218 Z0.435
M205 X8 Y8
G1 F600 Z0.36
G1 F1500 E13.26233
G1 F1125 X99.2 Y24.631 E15.2484
M205 X10 Y10
G1 F1500 E9.2484
G1 F600 Z0.435
G0 F6000 X100.8 Y24.63 Z0.435
M205 X8 Y8
G1 F600 Z0.36
G1 F1500 E15.2484
G1 F1125 X100.8 Y41.221 E17.23494
M205 X10 Y10
G1 F1500 E11.23494
G1 F600 Z0.435
G0 F6000 X102.4 Y41.298 Z0.435
M205 X8 Y8
G1 F600 Z0.36
G1 F1500 E17.23494
G1 F1125 X102.4 Y24.551 E19.24017
M205 X10 Y10
G1 F1500 E13.24017
G1 F600 Z0.435
G0 F6000 X104 Y24.699 Z0.435
M205 X8 Y8
G1 F600 Z0.36
G1 F1500 E19.24017
G1 F1125 X104 Y41.168 E21.21211
M205 X10 Y10
G1 F1500 E15.21211
G1 F600 Z0.435
G0 F6000 X105.6 Y38.149 Z0.435
M205 X8 Y8
G1 F600 Z0.36
G1 F1500 E21.21211
G1 F1125 X105.6 Y27.712 E22.4618
M205 X10 Y10
G1 F1500 E16.4618
G1 F600 Z0.435
G0 F6000 X107.2 Y29.517 Z0.435
M205 X8 Y8
G1 F600 Z0.36
G1 F1500 E22.4618
G1 F1125 X107.2 Y36.323 E23.27673
M205 X10 Y10
G1 F1500 E17.27673
G1 F600 Z0.435
G0 F6000 X108.8 Y35.545 Z0.435
M205 X8 Y8
G1 F600 Z0.36
G1 F1500 E23.27673
G1 F1125 X108.8 Y30.305 E23.90415
M205 X10 Y10
G1 F1500 E17.90415
G1 F600 Z0.435
G0 F6000 X110.4 Y30.538 Z0.435
M205 X8 Y8
G1 F600 Z0.36
G1 F1500 E23.90415
G1 F1125 X110.4 Y35.311 E24.47565
M205 X10 Y10
G1 F1500 E18.47565
G1 F600 Z0.435
G0 F6000 X112 Y35.311 Z0.435
M205 X8 Y8
G1 F600 Z0.36
G1 F1500 E24.47565
G1 F1125 X112 Y30.538 E25.04715
M205 X10 Y10
G1 F1500 E19.04715
G1 F600 Z0.435
G0 F6000 X113.6 Y30.538 Z0.435
M205 X8 Y8
G1 F600 Z0.36
G1 F1500 E25.04715
G1 F1125 X113.6 Y35.311 E25.61865
M205 X10 Y10
G1 F1500 E19.61865
G1 F600 Z0.435
G0 F6000 X115.2 Y35.143 Z0.435
M104 S200
M205 X8 Y8
G1 F600 Z0.36
G1 F1500 E25.61865
G1 F1125 X115.2 Y30.73 E26.14705
M205 X10 Y10
G0 F600 X115.2 Y30.73 Z0.66
G0 F6000 X113.976 Y30.537
;TIME_ELAPSED:17.829628
;LAYER:-5
M205 X8 Y8
;TYPE:SUPPORT
G1 F1125 X112.562 Y30.537 E26.28814
G1 X116.078 Y34.054 E26.78436
G1 X116.072 Y34.09 E26.788
G1 X116.042 Y34.189 E26.79832
G1 X115.964 Y34.392 E26.82002
G1 X115.903 Y34.505 E26.83283
G1 X115.806 Y34.657 E26.85082
G1 X115.715 Y34.764 E26.86484
G1 X115.582 Y34.9 E26.88382
G1 X115.542 Y34.932 E26.88893
G1 X111.147 Y30.537 E27.50911
G1 X110.337 Y30.537 E27.58993
G1 X109.956 Y30.524 E27.62797
G1 X109.683 Y30.487 E27.65546
G1 X114.501 Y35.305 E28.33533
G1 X114.392 Y35.31 E28.34622
G1 X113.092 Y35.31 E28.47594
G1 X107.508 Y29.726 E29.2639
M205 X10 Y10
G0 F6000 X107.398 Y29.664
M205 X8 Y8
G1 F1125 X106.85 Y29.257 E29.33201
G1 X106.358 Y28.784 E29.40011
G1 X105.93 Y28.251 E29.46832
G1 X105.769 Y27.987 E29.49917
G1 X102.333 Y24.551 E29.98403
G1 X101.527 Y24.551 E30.06445
G1 X101.207 Y24.572 E30.09645
G1 X100.973 Y24.605 E30.12003
G1 X111.678 Y35.31 E31.63062
G1 X110.328 Y35.311 E31.76532
G1 X110.268 Y35.315 E31.77132
G1 X99.627 Y24.674 E33.27288
G1 X99.139 Y24.624 E33.32183
G1 X98.818 Y24.57 E33.35431
G1 X98.73 Y24.562 E33.36313
G1 X98.507 Y24.55 E33.38541
G1 X98.09 Y24.551 E33.42702
G1 X109.015 Y35.476 E34.96865
G1 X108.989 Y35.481 E34.9713
G1 X108.34 Y35.694 E35.03945
G1 X107.986 Y35.861 E35.07851
G1 X96.681 Y24.556 E36.67377
G1 X96.427 Y24.572 E36.69916
G1 X96.202 Y24.605 E36.72185
G1 X96.143 Y24.615 E36.72782
G1 X95.998 Y24.661 E36.743
G1 X95.878 Y24.709 E36.7559
G1 X95.718 Y24.798 E36.77416
G1 X95.604 Y24.875 E36.78789
G1 X95.595 Y24.884 E36.78916
G1 X107.102 Y36.391 E38.41292
G1 X106.623 Y36.792 E38.47526
G1 X106.367 Y37.07 E38.51296
G1 X95.018 Y25.722 E40.11436
G1 X94.993 Y25.794 E40.12196
G1 X94.686 Y26.804 E40.2273
G1 X105.751 Y37.869 E41.78869
G1 X105.437 Y38.448 E41.85441
G1 X105.292 Y38.824 E41.89462
G1 X94.374 Y27.905 E43.43534
G1 X94.372 Y27.917 E43.43655
G1 X94.332 Y28.176 E43.4627
G1 X94.233 Y29.18 E43.56337
G1 X104.993 Y39.939 E45.08165
G1 X104.968 Y40.063 E45.09427
G1 X104.921 Y40.23 E45.11158
G1 X104.866 Y40.358 E45.12548
G1 X104.784 Y40.52 E45.1436
G1 X104.711 Y40.627 E45.15652
G1 X104.595 Y40.773 E45.17513
G1 X104.502 Y40.862 E45.18797
G1 X94.107 Y30.467 E46.65482
G1 X93.98 Y31.755 E46.78396
G1 X103.504 Y41.279 E48.1279
G1 X103.243 Y41.297 E48.154
G1 X102.109 Y41.297 E48.26716
G1 X93.887 Y33.076 E49.4273
G1 X93.894 Y33.221 E49.44178
G1 X94.033 Y34.636 E49.58365
G1 X100.597 Y41.2 E50.5099
G1 X100.172 Y41.158 E50.55252
G1 X99.492 Y41.176 E50.62039
G1 X99.2 Y41.217 E50.64981
G1 X94.188 Y36.205 E51.35706
G1 X94.333 Y37.673 E51.50425
G1 X94.349 Y37.78 E51.51505
G1 X97.866 Y41.297 E52.01133
G1 X96.686 Y41.297 E52.12907
G1 X96.469 Y41.286 E52.15075
G1 X96.437 Y41.283 E52.15396
G1 X94.899 Y39.745 E52.37099
M205 X10 Y10
G0 F6000 X94.97 Y39.979
M205 X8 Y8
G1 F1125 X95.088 Y40.287 E52.4039
G1 X95.175 Y40.474 E52.42448
G1 X95.216 Y40.552 E52.43327
G1 X95.284 Y40.65 E52.44517
G1 X95.377 Y40.767 E52.46009
G1 X95.501 Y40.887 E52.4773
G1 X95.61 Y40.978 E52.49147
G1 X95.763 Y41.075 E52.50955
G1 X95.874 Y41.137 E52.52223
G1 X96.075 Y41.213 E52.54368
G1 X96.184 Y41.246 E52.55504
G1 X96.367 Y41.276 E52.57354
G1 X96.437 Y41.283 E52.58056
M205 X10 Y10
G1 F1500 E46.58056
G1 F600 Z0.735
G0 F6000 X105.769 Y27.987 Z0.735
M205 X8 Y8
G1 F600 Z0.66
G1 F1500 E52.58056
G1 F1125 X105.573 Y27.669 E52.61784
G1 X105.292 Y27.046 E52.68603
G1 X105.158 Y26.611 E52.73145
G1 X105.141 Y26.616 E52.73321
G1 X105.104 Y26.434 E52.75175
G1 X105.09 Y26.394 E52.75597
G1 X105.075 Y26.299 E52.76557
G1 X104.962 Y25.766 E52.81994
G1 X103.8 Y24.604 E52.98391
G1 X103.902 Y24.635 E52.99454
G1 X104.103 Y24.711 E53.01599
G1 X104.214 Y24.773 E53.02867
G1 X104.367 Y24.87 E53.04675
G1 X104.476 Y24.962 E53.06098
G1 X104.596 Y25.076 E53.0775
G1 X104.693 Y25.197 E53.09297
G1 X104.792 Y25.34 E53.11032
G1 X104.85 Y25.455 E53.12318
G1 X104.925 Y25.629 E53.14208
G1 X104.96 Y25.757 E53.15532
M205 X10 Y10
G1 F1500 E47.15532
G1 F600 Z0.735
G0 F6000 X113.976 Y30.537 Z0.735
M205 X8 Y8
G1 F600 Z0.66
G1 F1500 E53.15532
G1 F1125 X114.395 Y30.537 E53.19713
G1 X114.612 Y30.549 E53.21882
G1 X114.714 Y30.559 E53.22904
G1 X114.897 Y30.588 E53.24753
G1 X115.006 Y30.621 E53.25889
G1 X115.208 Y30.699 E53.2805
G1 X115.319 Y30.76 E53.29314
G1 X115.471 Y30.856 E53.31108
G1 X115.581 Y30.949 E53.32545
G1 X115.71 Y31.075 E53.34344
G1 X115.798 Y31.184 E53.35742
G1 X115.897 Y31.329 E53.37494
G1 X115.955 Y31.442 E53.38761
G1 X116.032 Y31.621 E53.40706
G1 X116.041 Y31.657 E53.41076
G1 X116.116 Y32.07 E53.45264
G1 X116.125 Y32.272 E53.47282
M205 X10 Y10
G0 F6000 X116.125 Y32.686
M205 X8 Y8
G1 F1125 X113.976 Y30.537 E53.77606
M205 X10 Y10
G1 F1500 E47.77606
G1 F600 Z0.735
G0 F6000 X103.809 Y24.4 Z0.735
;TIME_ELAPSED:34.000270
;LAYER:-4
G0 X103.809 Y24.4 Z0.935
M205 X8 Y8
;TYPE:SUPPORT-INTERFACE
G1 F600 Z0.86
G1 F1500 E53.77606
G1 X100.997 Y24.4 E53.86959
G1 X101.183 Y24.374 E53.87584
G1 X101.528 Y24.35 E53.88734
G1 X103.281 Y24.35 E53.94565
G1 X103.54 Y24.363 E53.95427
G1 X103.647 Y24.374 E53.95785
M205 X10 Y10
G1 F1500 E47.95785
G1 F600 Z0.935
G0 F6000 X100.471 Y24.473 Z0.935
M205 X8 Y8
G1 F600 Z0.86
G1 F1500 E53.95785
G1 X99.815 Y24.49 E53.97967
G1 X99.166 Y24.424 E54.00137
G1 X99.021 Y24.4 E54.00626
G1 X96.219 Y24.4 E54.09945
G1 X96.401 Y24.374 E54.10557
G1 X96.745 Y24.35 E54.11704
G1 X98.498 Y24.35 E54.17534
G1 X98.757 Y24.363 E54.18397
G1 X98.857 Y24.373 E54.18731
M205 X10 Y10
G1 F1500 E48.18731
G1 F600 Z0.935
G0 F6000 X96.219 Y24.4 Z0.935
M205 X8 Y8
G1 F600 Z0.86
G1 F1500 E54.18731
G1 X96.176 Y24.406 E54.18876
G1 X96.085 Y24.423 E54.19183
G1 X95.936 Y24.471 E54.19704
G1 X95.789 Y24.53 E54.20231
G1 X95.606 Y24.633 E54.20929
G1 X95.483 Y24.715 E54.21421
G1 X95.385 Y24.8 E54.21853
G1 X104.597 Y24.8 E54.52492
G1 X104.746 Y24.943 E54.53179
G1 X104.842 Y25.061 E54.53685
G1 X104.938 Y25.2 E54.54246
G1 X95.041 Y25.2 E54.87164
G1 X95.01 Y25.245 E54.87346
G1 X94.919 Y25.429 E54.88029
G1 X94.875 Y25.534 E54.88407
G1 X94.852 Y25.6 E54.8864
G1 X105.126 Y25.6 E55.22811
G1 X105.151 Y25.692 E55.23128
G1 X105.217 Y26 E55.24176
G1 X94.722 Y26 E55.59082
G1 X94.601 Y26.4 E55.60472
G1 X105.304 Y26.4 E55.96071
G1 X105.427 Y26.8 E55.97463
G1 X94.479 Y26.8 E56.33876
G1 X94.358 Y27.2 E56.35266
G1 X105.583 Y27.2 E56.726
G1 X105.751 Y27.574 E56.73964
G1 X105.767 Y27.6 E56.74065
G1 X94.241 Y27.6 E57.12401
G1 X94.197 Y27.774 E57.12998
G1 X94.175 Y27.886 E57.13378
G1 X94.158 Y28 E57.13761
G1 X106.013 Y28 E57.53191
G1 X106.095 Y28.134 E57.53713
G1 X106.309 Y28.4 E57.54849
G1 X94.111 Y28.4 E57.9542
G1 X94.072 Y28.8 E57.96756
G1 X106.667 Y28.8 E58.38647
G1 X106.981 Y29.103 E58.40099
G1 X107.112 Y29.2 E58.40641
G1 X94.033 Y29.2 E58.84142
G1 X93.993 Y29.6 E58.85479
G1 X107.694 Y29.6 E59.31049
G1 X108.081 Y29.818 E59.32526
G1 X108.527 Y30 E59.34128
G1 X93.954 Y30 E59.82598
G1 X93.915 Y30.4 E59.83935
G1 X114.965 Y30.4 E60.53947
G1 X115.08 Y30.435 E60.54347
G1 X115.284 Y30.512 E60.55072
G1 X115.416 Y30.583 E60.55571
G1 X115.592 Y30.695 E60.56265
G1 X115.706 Y30.791 E60.5676
G1 X115.716 Y30.8 E60.56805
G1 X93.875 Y30.8 E61.29449
G1 X93.836 Y31.2 E61.30785
G1 X116.052 Y31.2 E62.04676
G1 X116.074 Y31.232 E62.04805
G1 X116.132 Y31.346 E62.05231
G1 X116.222 Y31.557 E62.05994
G1 X116.234 Y31.6 E62.06142
G1 X93.797 Y31.6 E62.80768
G1 X93.757 Y32 E62.82105
G1 X116.309 Y32 E63.57113
G1 X116.317 Y32.046 E63.57268
G1 X116.326 Y32.253 E63.57958
G1 X116.326 Y32.4 E63.58447
G1 X93.718 Y32.4 E64.33641
G1 X93.696 Y32.617 E64.34367
G1 X93.687 Y32.8 E64.34976
G1 X116.326 Y32.8 E65.10274
G1 X116.326 Y33.2 E65.11604
G1 X93.694 Y33.2 E65.86878
G1 X93.696 Y33.231 E65.86982
G1 X93.732 Y33.6 E65.88215
G1 X116.324 Y33.6 E66.63356
G1 X116.314 Y33.819 E66.64085
G1 X116.302 Y33.936 E66.64476
G1 X116.291 Y34 E66.64692
G1 X93.771 Y34 E67.39594
G1 X93.811 Y34.4 E67.40931
G1 X116.176 Y34.4 E68.15317
G1 X116.15 Y34.47 E68.15566
G1 X116.073 Y34.611 E68.161
G1 X115.969 Y34.776 E68.16749
G1 X115.948 Y34.8 E68.16855
G1 X93.85 Y34.8 E68.90353
G1 X93.889 Y35.2 E68.9169
G1 X115.514 Y35.2 E69.63615
G1 X115.43 Y35.258 E69.63954
G1 X115.317 Y35.316 E69.64377
G1 X115.1 Y35.408 E69.65161
G1 X115.04 Y35.424 E69.65367
G1 X114.613 Y35.501 E69.66811
G1 X114.401 Y35.51 E69.67516
G1 X110.336 Y35.51 E69.81037
G1 X109.686 Y35.551 E69.83203
G1 X109.43 Y35.6 E69.8407
G1 X93.929 Y35.6 E70.35626
G1 X93.968 Y36 E70.36963
G1 X108.162 Y36 E70.84172
G1 X107.821 Y36.162 E70.85428
G1 X107.447 Y36.4 E70.86902
G1 X94.007 Y36.4 E71.31604
G1 X94.047 Y36.8 E71.32941
G1 X106.927 Y36.8 E71.7578
G1 X106.763 Y36.938 E71.76493
G1 X106.519 Y37.2 E71.77684
G1 X94.086 Y37.2 E72.19036
G1 X94.125 Y37.6 E72.20373
G1 X106.186 Y37.6 E72.60488
G1 X105.932 Y37.954 E72.61937
G1 X105.907 Y38 E72.62111
G1 X94.182 Y38 E73.01109
G1 X94.197 Y38.073 E73.01357
G1 X94.253 Y38.301 E73.02137
G1 X94.283 Y38.4 E73.02481
G1 X105.691 Y38.4 E73.40425
G1 X105.62 Y38.532 E73.40923
G1 X105.516 Y38.8 E73.41879
G1 X94.404 Y38.8 E73.78838
G1 X94.525 Y39.2 E73.80228
G1 X105.369 Y39.2 E74.16295
G1 X105.272 Y39.6 E74.17664
G1 X94.646 Y39.6 E74.53006
G1 X94.767 Y40 E74.54396
G1 X105.185 Y40 E74.89047
G1 X105.163 Y40.11 E74.8942
G1 X105.112 Y40.296 E74.90061
G1 X105.067 Y40.4 E74.90438
G1 X94.92 Y40.4 E75.24187
G1 X94.994 Y40.558 E75.24768
G1 X95.041 Y40.647 E75.25102
G1 X95.137 Y40.786 E75.25664
G1 X95.148 Y40.8 E75.25723
G1 X104.829 Y40.8 E75.57923
G1 X104.744 Y40.908 E75.5838
G1 X104.625 Y41.022 E75.58928
G1 X104.489 Y41.138 E75.59522
G1 X104.392 Y41.2 E75.59905
G1 X95.587 Y41.2 E75.89191
M205 X10 Y10
G0 F6000 X95.668 Y41.251
M205 X8 Y8
G1 F1500 X95.8 Y41.322 E75.89689
G1 X96.004 Y41.399 E75.90414
G1 X96.152 Y41.444 E75.90929
G1 X96.332 Y41.473 E75.91535
G1 X96.439 Y41.484 E75.91893
G1 X96.698 Y41.497 E75.92756
G1 X98.46 Y41.497 E75.98616
G1 X98.788 Y41.475 E75.99709
G1 X99.51 Y41.375 E76.02134
G1 X100.165 Y41.358 E76.04313
G1 X100.813 Y41.423 E76.06479
G1 X101.124 Y41.474 E76.07527
G1 X101.222 Y41.484 E76.07855
G1 X101.481 Y41.497 E76.08717
G1 X103.243 Y41.497 E76.14578
G1 X103.571 Y41.475 E76.15671
G1 X103.794 Y41.446 E76.16419
G1 X103.862 Y41.432 E76.1665
G1 X104.019 Y41.384 E76.17196
G1 X104.163 Y41.33 E76.17708
G1 X104.344 Y41.231 E76.18394
G1 X104.392 Y41.2 E76.18584
M205 X10 Y10
