;FLAVOR:Marlin
;TIME:1405
;Filament used: 0.981275m
;Layer height: 0.2
;MINX:77.794
;MINY:14.855
;MINZ:0.3
;MAXX:132.138
;MAXY:69.879
;MAXZ:10.575
;Generated with Cura_SteamEngine 4.12.1
M82 ;absolute extrusion mode
G21                                        ; metric values 
G90                                        ; absolute positioning 
M82                                        ; set extruder to absolute mode 
M107                                       ; start with the fan off 
M140 S50.0           ; Start heating the bed 
G4 S60                                     ; wait 1 minute 
M104 S210         ; start heating the hot end 
M190 S50.0           ; wait for bed 
M109 S210         ; wait for hotend 
M300 S1000 P500                            ; BEEP heating done 
G28 X0 Y10 Z0                              ; move X/Y to min endstops 
M420 S1                                    ; Enable leveling 
M420 Z2.0                                  ; Set leveling fading height to 2 mm 
G0 Z0.15                                   ; lift nozzle a bit 
G92 E0                                     ; zero the extruded length 
G1 X50 E25 F500                            ; Extrude 25mm of filament in a 5cm line. 
G92 E0                                     ; zero the extruded length again 
G1 E-2 F500                                ; Retract a little 
G1 X120 F4000                              ; Quickly wipe away from the filament line`
G92 E0
G92 E0
G1 F1500 E-6
;LAYER_COUNT:52
;LAYER:0
M106 S76.5
M205 X10 Y10
G1 F600 Z0.375
G0 F6000 X79.053 Y31.368 Z0.375
M205 X8 Y8
;TYPE:SKIRT
G1 F600 Z0.3
G1 F1500 E0
G1 F1200 X79.371 Y30.663 E0.03859
G1 X79.627 Y30.197 E0.06511
G1 X81.421 Y27.09 E0.2441
G1 X81.772 Y26.501 E0.27831
G1 X82.136 Y25.969 E0.31047
G1 X82.563 Y25.486 E0.34263
G1 X83.273 Y24.892 E0.38882
G1 X84.03 Y24.366 E0.43481
G1 X84.935 Y23.753 E0.48934
G1 X87.094 Y22.202 E0.62197
G1 X89.11 Y20.654 E0.74878
G1 X89.619 Y20.271 E0.78056
G1 X89.977 Y20.024 E0.80226
G1 X90.473 Y19.712 E0.83149
G1 X92.708 Y18.267 E0.96427
G1 X95.528 Y16.313 E1.13543
G1 X96.19 Y15.839 E1.17605
G1 X96.736 Y15.497 E1.2082
G1 X97.32 Y15.225 E1.24034
G1 X97.966 Y15.019 E1.27417
G1 X98.6 Y14.902 E1.30633
G1 X99.398 Y14.857 E1.34621
G1 X99.545 Y14.855 E1.35354
G1 X110.082 Y14.856 E1.87923
G1 X110.783 Y14.866 E1.91421
G1 X111.426 Y14.915 E1.94638
G1 X112.058 Y15.043 E1.97855
G1 X112.669 Y15.248 E2.01071
G1 X113.25 Y15.528 E2.04288
G1 X114.043 Y16.048 E2.09019
G1 X115.573 Y17.145 E2.18412
G1 X117.804 Y18.652 E2.31844
G1 X119.263 Y19.588 E2.40492
G1 X119.967 Y20.032 E2.44644
G1 X120.428 Y20.359 E2.47464
G1 X120.634 Y20.523 E2.48778
G1 X122.802 Y22.205 E2.62467
G1 X124.976 Y23.794 E2.75902
G1 X126.627 Y24.938 E2.85923
G1 X127.064 Y25.274 E2.88673
G1 X127.537 Y25.712 E2.91889
G1 X127.952 Y26.205 E2.95104
G1 X128.409 Y26.914 E2.99313
G1 X130.227 Y30.061 E3.17445
G1 X130.596 Y30.721 E3.21217
G1 X130.875 Y31.302 E3.24433
G1 X131.08 Y31.913 E3.27648
G1 X131.196 Y32.46 E3.30437
G1 X131.242 Y32.836 E3.32327
G1 X131.324 Y33.792 E3.37114
G1 X131.401 Y34.866 E3.42486
G1 X131.638 Y37.259 E3.54483
G1 X131.78 Y38.536 E3.60894
G1 X132.08 Y41.581 E3.76159
G1 X132.138 Y42.27 E3.79608
G1 X132.138 Y43.136 E3.83929
G1 X132.075 Y43.892 E3.87714
G1 X131.777 Y46.903 E4.02809
G1 X131.7 Y47.585 E4.06233
G1 X131.53 Y48.442 E4.10592
G1 X131.331 Y49.131 E4.1417
G1 X130.45 Y52.034 E4.29305
G1 X130.238 Y52.699 E4.32788
G1 X129.905 Y53.504 E4.37134
G1 X129.563 Y54.167 E4.40856
G1 X128.154 Y56.801 E4.55759
G1 X127.798 Y57.445 E4.5943
G1 X127.311 Y58.173 E4.638
G1 X127.152 Y58.372 E4.6507
G1 X125.485 Y60.52 E4.78635
G1 X123.908 Y62.675 E4.91958
G1 X122.766 Y64.325 E5.01969
G1 X122.445 Y64.748 E5.04619
G1 X122.014 Y65.227 E5.07833
G1 X121.526 Y65.649 E5.11052
G1 X121.102 Y65.941 E5.1362
G1 X120.715 Y66.177 E5.15882
G1 X117.53 Y68.015 E5.34228
G1 X116.945 Y68.341 E5.37569
G1 X116.364 Y68.62 E5.40785
G1 X115.752 Y68.824 E5.44003
G1 X114.859 Y68.98 E5.48526
G1 X113.898 Y69.062 E5.53338
G1 X112.961 Y69.128 E5.58024
G1 X110.449 Y69.375 E5.70617
G1 X109.057 Y69.53 E5.77604
G1 X106.1 Y69.82 E5.92428
G1 X105.399 Y69.879 E5.95937
G1 X104.532 Y69.879 E6.00263
G1 X103.792 Y69.817 E6.03968
G1 X100.789 Y69.52 E6.19023
G1 X98.982 Y69.317 E6.28095
G1 X98.36 Y69.238 E6.31223
G1 X95.658 Y68.972 E6.44768
G1 X95.119 Y68.929 E6.47466
G1 X94.859 Y68.902 E6.4877
G1 X94.223 Y68.796 E6.51987
G1 X93.605 Y68.612 E6.55204
G1 X92.921 Y68.303 E6.58948
G1 X92.517 Y68.082 E6.61246
G1 X89.337 Y66.246 E6.79565
G1 X88.757 Y65.9 E6.82935
G1 X88.225 Y65.536 E6.86151
G1 X87.742 Y65.109 E6.89367
G1 X87.151 Y64.401 E6.93968
G1 X86.62 Y63.636 E6.98614
G1 X86.013 Y62.739 E7.04017
G1 X84.445 Y60.559 E7.17415
G1 X82.901 Y58.548 E7.30064
G1 X82.534 Y58.062 E7.33102
G1 X82.135 Y57.448 E7.36755
G1 X81.78 Y56.806 E7.40415
G1 X80.33 Y54.092 E7.55767
G1 X80.03 Y53.51 E7.59033
G1 X79.762 Y52.896 E7.62376
G1 X79.677 Y52.647 E7.63688
G1 X79.476 Y52.011 E7.67016
G1 X78.603 Y49.134 E7.82016
G1 X78.4 Y48.428 E7.85681
G1 X78.231 Y47.573 E7.90029
G1 X78.148 Y46.836 E7.93729
G1 X77.852 Y43.83 E8.08798
G1 X77.794 Y43.135 E8.12278
G1 X77.794 Y42.27 E8.16593
G1 X77.857 Y41.522 E8.20338
G1 X78.155 Y38.511 E8.35434
G1 X78.36 Y36.693 E8.44561
G1 X78.436 Y36.096 E8.47564
G1 X78.623 Y34.04 E8.57863
G1 X78.766 Y32.623 E8.64969
G1 X78.871 Y31.987 E8.68185
G1 X79.053 Y31.368 E8.71404
M205 X10 Y10
G1 F1500 E2.71404
G1 F600 Z0.375
;MESH:snap_lid.stl
G0 F6000 X114.783 Y62.444 Z0.375
M205 X8 Y8
;TYPE:WALL-INNER
G1 F600 Z0.3
G1 F1500 E8.71404
G1 F1200 X114.245 Y61.437 E8.771
G1 X113.006 Y62.104 E8.8412
G1 X109.061 Y63.3 E9.04686
G1 X104.966 Y63.702 E9.25214
G1 X100.871 Y63.3 E9.45743
G1 X96.933 Y62.106 E9.66273
G1 X95.565 Y61.374 E9.74013
G1 X95.032 Y62.376 E9.79676
G1 X92.805 Y61.091 E9.92503
G1 X93.414 Y60.255 E9.97663
G1 X90.12 Y57.554 E10.18915
G1 X87.511 Y54.371 E10.39448
G1 X85.568 Y50.74 E10.59994
G1 X84.374 Y46.802 E10.80524
G1 X83.971 Y42.707 E11.01053
G1 X84.374 Y38.612 E11.21581
G1 X85.568 Y34.674 E11.42111
G1 X86.302 Y33.304 E11.49866
G1 X85.297 Y32.774 E11.55534
G1 X86.13 Y31.332 E11.63842
G1 X86.814 Y31.892 E11.68253
G1 X90.12 Y27.861 E11.94262
G1 X93.303 Y25.252 E12.14795
G1 X96.933 Y23.309 E12.35336
G1 X100.215 Y22.315 E12.52445
G1 X100.215 Y21.055 E12.58731
G1 X109.715 Y21.055 E13.06126
G1 X109.715 Y22.314 E13.12408
G1 X112.999 Y23.309 E13.29527
G1 X116.63 Y25.252 E13.50073
G1 X119.813 Y27.861 E13.70606
G1 X122.601 Y31.26 E13.92538
G1 X123.418 Y30.663 E13.97586
G1 X124.703 Y32.89 E14.10414
G1 X123.7 Y33.431 E14.16099
G1 X124.365 Y34.674 E14.23132
G1 X125.558 Y38.612 E14.43661
G1 X125.961 Y42.707 E14.6419
G1 X125.558 Y46.802 E14.84718
G1 X124.365 Y50.74 E15.05247
G1 X122.421 Y54.371 E15.25795
G1 X119.813 Y57.554 E15.46325
G1 X116.417 Y60.34 E15.68239
G1 X117.01 Y61.158 E15.7328
G1 X114.783 Y62.444 E15.8611
M205 X10 Y10
G0 F6000 X114.419 Y62.613
M205 X8 Y8
G1 F1200 X114.081 Y61.979 E15.89694
G1 X113.157 Y62.476 E15.94929
G1 X109.141 Y63.694 E16.15866
G1 X104.966 Y64.104 E16.36795
G1 X100.791 Y63.694 E16.57725
G1 X96.778 Y62.477 E16.78646
G1 X95.73 Y61.916 E16.84576
G1 X95.393 Y62.55 E16.88158
G1 X95.179 Y62.922 E16.903
G1 X92.235 Y61.223 E17.07258
G1 X92.317 Y61.082 E17.08071
G1 X92.868 Y60.325 E17.12743
G1 X89.836 Y57.838 E17.32307
G1 X87.175 Y54.593 E17.53244
G1 X85.197 Y50.895 E17.74166
G1 X83.98 Y46.882 E17.95088
G1 X83.569 Y42.707 E18.16018
G1 X83.98 Y38.532 E18.36948
G1 X85.197 Y34.519 E18.57869
G1 X85.759 Y33.47 E18.63806
G1 X85.077 Y33.11 E18.67654
G1 X84.75 Y32.922 E18.69535
G1 X86.019 Y30.724 E18.82198
G1 X86.758 Y31.329 E18.86962
G1 X89.836 Y27.577 E19.11174
G1 X93.081 Y24.916 E19.32111
G1 X96.778 Y22.938 E19.53029
G1 X99.815 Y22.018 E19.68861
G1 X99.815 Y20.655 E19.75661
G1 X110.115 Y20.655 E20.27048
G1 X110.115 Y22.017 E20.33843
G1 X113.154 Y22.938 E20.49685
G1 X116.852 Y24.916 E20.70608
G1 X120.097 Y27.577 E20.91545
G1 X122.67 Y30.714 E21.11786
G1 X123.409 Y30.174 E21.16353
G1 X123.55 Y30.093 E21.17164
G1 X123.763 Y30.463 E21.19294
G1 X125.25 Y33.038 E21.34129
G1 X124.877 Y33.252 E21.36274
G1 X124.241 Y33.594 E21.39877
G1 X124.736 Y34.519 E21.45111
G1 X125.952 Y38.532 E21.66031
G1 X126.363 Y42.707 E21.86961
G1 X125.952 Y46.882 E22.07891
G1 X124.736 Y50.895 E22.28811
G1 X122.757 Y54.593 E22.49736
G1 X120.097 Y57.838 E22.70669
G1 X116.962 Y60.41 E22.909
G1 X117.5 Y61.152 E22.95472
G1 X117.58 Y61.291 E22.96272
G1 X114.636 Y62.991 E23.13233
G1 X114.419 Y62.613 E23.15408
M205 X10 Y10
G0 F6000 X113.917 Y62.521
M205 X8 Y8
;TYPE:WALL-OUTER
G1 F1200 X113.308 Y62.848 E23.18856
G1 X109.221 Y64.088 E23.40164
G1 X104.966 Y64.506 E23.61495
G1 X100.711 Y64.088 E23.82825
G1 X96.623 Y62.848 E24.04138
G1 X95.895 Y62.458 E24.08258
G1 X95.74 Y62.75 E24.09907
G1 X95.326 Y63.469 E24.14047
G1 X91.689 Y61.369 E24.34999
G1 X91.978 Y60.867 E24.37889
G1 X92.322 Y60.395 E24.40803
G1 X89.552 Y58.122 E24.5868
G1 X86.839 Y54.815 E24.8002
G1 X84.826 Y51.05 E25.0132
G1 X83.586 Y46.962 E25.22633
G1 X83.167 Y42.707 E25.43964
G1 X83.586 Y38.452 E25.65295
G1 X84.826 Y34.364 E25.86607
G1 X85.216 Y33.636 E25.90728
G1 X84.89 Y33.464 E25.92567
G1 X84.204 Y33.068 E25.96518
G1 X86.304 Y29.43 E26.17475
G1 X86.966 Y29.812 E26.21288
G1 X86.393 Y30.513 E26.25805
G1 X86.702 Y30.766 E26.27798
G1 X89.552 Y27.293 E26.50212
G1 X92.859 Y24.58 E26.71552
G1 X96.623 Y22.567 E26.92848
G1 X99.415 Y21.721 E27.07402
G1 X99.415 Y20.255 E27.14716
G1 X110.515 Y20.255 E27.70094
G1 X110.515 Y21.72 E27.77403
G1 X113.309 Y22.567 E27.91969
G1 X117.074 Y24.58 E28.13269
G1 X120.381 Y27.293 E28.34609
G1 X122.739 Y30.168 E28.5316
G1 X123.188 Y29.84 E28.55934
G1 X123.696 Y29.547 E28.5886
G1 X125.796 Y33.185 E28.79817
G1 X125.076 Y33.599 E28.8396
G1 X124.782 Y33.757 E28.85626
G1 X125.107 Y34.364 E28.89061
G1 X126.346 Y38.452 E29.10372
G1 X126.765 Y42.707 E29.31703
G1 X126.346 Y46.962 E29.53034
G1 X125.107 Y51.05 E29.74345
G1 X123.093 Y54.815 E29.95647
G1 X120.381 Y58.122 E30.16985
G1 X117.507 Y60.48 E30.35531
G1 X117.833 Y60.929 E30.383
G1 X118.126 Y61.437 E30.41225
G1 X114.489 Y63.537 E30.62178
G1 X114.072 Y62.812 E30.66351
G1 X113.917 Y62.521 E30.67995
M205 X10 Y10
G0 F6000 X113.741 Y62.615
G0 X113.534 Y62.228
G0 X112.856 Y61.742
M205 X8 Y8
;TYPE:SKIN
G1 F1200 X108.986 Y62.916 E30.88172
G1 X104.966 Y63.31 E31.08324
G1 X100.946 Y62.916 E31.28476
G1 X97.08 Y61.744 E31.4863
G1 X95.405 Y60.846 E31.58112
G1 X94.877 Y61.836 E31.6371
G1 X93.376 Y60.97 E31.72355
G1 X93.946 Y60.187 E31.77187
G1 X90.397 Y57.277 E32.00084
G1 X87.837 Y54.153 E32.20234
G1 X85.929 Y50.589 E32.40403
G1 X84.758 Y46.727 E32.60537
G1 X84.363 Y42.707 E32.80689
G1 X84.758 Y38.687 E33.00842
G1 X85.93 Y34.821 E33.20996
G1 X86.831 Y33.142 E33.30503
G1 X85.838 Y32.618 E33.36104
G1 X86.238 Y31.925 E33.40096
G1 X86.869 Y32.44 E33.4416
G1 X90.397 Y28.138 E33.71917
G1 X93.524 Y25.575 E33.92088
G1 X97.08 Y23.671 E34.12212
G1 X100.605 Y22.604 E34.30586
G1 X100.605 Y21.445 E34.36369
G1 X109.325 Y21.445 E34.79873
G1 X109.325 Y22.603 E34.8565
G1 X112.848 Y23.67 E35.04015
G1 X116.412 Y25.578 E35.24183
G1 X119.536 Y28.138 E35.44334
G1 X122.533 Y31.792 E35.67911
G1 X123.297 Y31.234 E35.72631
G1 X124.165 Y32.738 E35.81295
G1 X123.173 Y33.273 E35.86918
G1 X124.003 Y34.821 E35.95681
G1 X125.174 Y38.687 E36.15834
G1 X125.569 Y42.707 E36.35986
G1 X125.174 Y46.727 E36.56138
G1 X124.003 Y50.593 E36.76291
G1 X122.098 Y54.15 E36.96422
G1 X119.538 Y57.275 E37.16576
G1 X115.886 Y60.272 E37.40146
G1 X116.44 Y61.036 E37.44854
G1 X114.937 Y61.905 E37.53516
G1 X114.405 Y60.908 E37.59154
G1 X112.856 Y61.742 E37.67931
M205 X10 Y10
G1 F1500 E31.67931
G1 F600 Z0.375
G0 F6000 X93.674 Y60.864 Z0.375
M205 X8 Y8
G1 F600 Z0.3
G1 F1500 E37.67931
G1 F1200 X93.84 Y61.03 E37.69102
M205 X10 Y10
G0 F6000 X93.912 Y60.537
M205 X8 Y8
G1 F1200 X94.86 Y61.485 E37.75791
M205 X10 Y10
G0 F6000 X95.057 Y61.115
M205 X8 Y8
G1 F1200 X94.15 Y60.209 E37.82186
M205 X10 Y10
G0 F6000 X93.664 Y59.723
M205 X8 Y8
G1 F1200 X87.977 Y54.036 E38.22311
G1 X87.907 Y53.966
M205 X10 Y10
G0 F6000 X87.324 Y52.818
M205 X8 Y8
G1 F1200 X95.253 Y60.746 E38.78251
G1 X95.323 Y60.816
M205 X10 Y10
G0 F6000 X96.073 Y61
M205 X8 Y8
G1 F1200 X86.672 Y51.599 E39.4458
G1 X86.602 Y51.529
M205 X10 Y10
G0 F6000 X86.065 Y50.427
M205 X8 Y8
G1 F1200 X97.246 Y61.608 E40.23468
G1 X97.316 Y61.678
M205 X10 Y10
G0 F6000 X98.058 Y61.854
M205 X8 Y8
G1 F1200 X85.819 Y49.615 E41.09821
G1 X85.749 Y49.545
M205 X10 Y10
G0 F6000 X85.573 Y48.803
M205 X8 Y8
G1 F1200 X98.869 Y62.1 E42.03635
G1 X98.939 Y62.17
M205 X10 Y10
G0 F6000 X99.681 Y62.346
M205 X8 Y8
G1 F1200 X85.327 Y47.992 E43.0491
G1 X85.257 Y47.922
M205 X10 Y10
G0 F6000 X85.081 Y47.18
M205 X8 Y8
G1 F1200 X100.493 Y62.592 E44.1365
M205 X10 Y10
G0 F6000 X101.23 Y62.763
M205 X8 Y8
G1 F1200 X84.909 Y46.442 E45.28804
M205 X10 Y10
G0 F6000 X84.847 Y45.815
M205 X8 Y8
G1 F1200 X101.857 Y62.825 E46.48818
M205 X10 Y10
G0 F6000 X102.484 Y62.886
M205 X8 Y8
G1 F1200 X84.786 Y45.188 E47.73687
M205 X10 Y10
G0 F6000 X84.724 Y44.561
M205 X8 Y8
G1 F1200 X103.111 Y62.947 E49.03414
M205 X10 Y10
G0 F6000 X103.738 Y63.008
M205 X8 Y8
G1 F1200 X84.663 Y43.933 E50.37998
M205 X10 Y10
G0 F6000 X84.602 Y43.307
M205 X8 Y8
G1 F1200 X104.365 Y63.07 E51.77437
M205 X10 Y10
G0 F6000 X104.986 Y63.126
M205 X8 Y8
G1 F1200 X84.545 Y42.685 E53.21659
M205 X10 Y10
G0 F6000 X84.596 Y42.169
M205 X8 Y8
G1 F1200 X105.502 Y63.076 E54.69166
M205 X10 Y10
G0 F6000 X106.017 Y63.025
M205 X8 Y8
G1 F1200 X84.646 Y41.654 E56.1995
M205 X10 Y10
G0 F6000 X84.697 Y41.139
M205 X8 Y8
G1 F1200 X106.532 Y62.974 E57.74008
M205 X10 Y10
G0 F6000 X107.048 Y62.924
M205 X8 Y8
G1 F1200 X84.747 Y40.623 E59.31353
M205 X10 Y10
G0 F6000 X84.797 Y40.108
M205 X8 Y8
G1 F1200 X107.563 Y62.874 E60.9198
M205 X10 Y10
G0 F6000 X108.078 Y62.823
M205 X8 Y8
G1 F1200 X84.848 Y39.593 E62.5588
M205 X10 Y10
G0 F6000 X84.898 Y39.078
M205 X8 Y8
G1 F1200 X108.593 Y62.773 E64.23061
M205 X10 Y10
G0 F6000 X109.084 Y62.698
M205 X8 Y8
G1 F1200 X84.973 Y38.587 E65.93177
M205 X10 Y10
G0 F6000 X85.105 Y38.153
M205 X8 Y8
G1 F1200 X109.518 Y62.566 E67.65424
M205 X10 Y10
G0 F6000 X109.952 Y62.434
M205 X8 Y8
G1 F1200 X85.237 Y37.719 E69.39802
M205 X10 Y10
G0 F6000 X85.369 Y37.285
M205 X8 Y8
G1 F1200 X110.386 Y62.303 E71.16314
M205 X10 Y10
G0 F6000 X110.819 Y62.17
M205 X8 Y8
G1 F1200 X85.5 Y36.851 E72.94953
M205 X10 Y10
G0 F6000 X85.632 Y36.417
M205 X8 Y8
G1 F1200 X111.254 Y62.039 E74.7573
M205 X10 Y10
G0 F6000 X111.688 Y61.907
M205 X8 Y8
G1 F1200 X85.763 Y35.983 E76.58641
M205 X10 Y10
G0 F6000 X85.895 Y35.549
M205 X8 Y8
G1 F1200 X112.122 Y61.776 E78.43687
M205 X10 Y10
G0 F6000 X112.555 Y61.644
M205 X8 Y8
G1 F1200 X86.027 Y35.115 E80.3086
M205 X10 Y10
G0 F6000 X86.19 Y34.713
M205 X8 Y8
G1 F1200 X112.958 Y61.481 E82.19722
M205 X10 Y10
G0 F6000 X113.326 Y61.283
M205 X8 Y8
G1 F1200 X86.387 Y34.344 E84.09792
M205 X10 Y10
G0 F6000 X86.585 Y33.977
M205 X8 Y8
G1 F1200 X113.694 Y61.085 E86.01057
M205 X10 Y10
G0 F6000 X114.061 Y60.887
M205 X8 Y8
G1 F1200 X86.783 Y33.608 E87.93521
M205 X10 Y10
G0 F6000 X86.98 Y33.24
M205 X8 Y8
G1 F1200 X114.429 Y60.689 E89.87189
M205 X10 Y10
G0 F6000 X114.561 Y60.821
M205 X8 Y8
G1 F1200 X115.254 Y61.514 E89.92078
M205 X10 Y10
G0 F6000 X115.611 Y61.306
M205 X8 Y8
G1 F1200 X86.94 Y32.634 E91.94371
M205 X10 Y10
G0 F6000 X87.195 Y32.323
M205 X8 Y8
G1 F1200 X115.969 Y61.098 E93.97391
G1 X116.039 Y61.168
M205 X10 Y10
G0 F6000 X115.66 Y60.222
M205 X8 Y8
G1 F1200 X87.45 Y32.012 E95.96428
M205 X10 Y10
G0 F6000 X87.705 Y31.702
M205 X8 Y8
G1 F1200 X115.97 Y59.967 E97.95853
M205 X10 Y10
G0 F6000 X116.281 Y59.713
M205 X8 Y8
G1 F1200 X87.959 Y31.391 E99.9568
M205 X10 Y10
G0 F6000 X88.214 Y31.08
M205 X8 Y8
G1 F1200 X116.592 Y59.457 E101.95898
M205 X10 Y10
G0 F6000 X116.903 Y59.203
M205 X8 Y8
G1 F1200 X88.469 Y30.769 E103.96515
M205 X10 Y10
G0 F6000 X88.724 Y30.458
M205 X8 Y8
G1 F1200 X117.213 Y58.947 E105.97521
M205 X10 Y10
G0 F6000 X117.524 Y58.693
M205 X8 Y8
G1 F1200 X88.979 Y30.148 E107.98921
M205 X10 Y10
G0 F6000 X89.234 Y29.837
M205 X8 Y8
G1 F1200 X117.835 Y58.438 E110.00717
M205 X10 Y10
G0 F6000 X118.145 Y58.182
M205 X8 Y8
G1 F1200 X89.489 Y29.526 E112.029
